GDW_Y2 - BF PJT/res/luts/gdw_y2_cool_filter_01.CUBE
#Created by: Adobe Photoshop Export Color Lookup Plugin
TITLE "GDW_2_Y2 - Filters 01.psd"
#LUT size
LUT_3D_SIZE 8
#data domain
#LUT data points
DOMAIN_MIN 0.000000 0.000000 0.000000
DOMAIN_MAX 0.903226 0.903226 0.903226
0.886078 0.000000 0.119629
0.886078 0.000000 0.119629
0.886078 0.000000 0.119629
0.886078 0.000000 0.119629
0.886078 0.000000 0.119629
0.886078 0.000000 0.119629
0.886078 0.000000 0.119629
0.886078 0.000000 0.119629
0.886078 0.000000 0.119629
0.886078 0.000000 0.119629
0.886078 0.000000 0.119629
0.886078 0.000000 0.119629
0.886078 0.000000 0.119629
0.886078 0.000000 0.119629
0.886078 0.000000 0.119629
0.886078 0.000000 0.119629
0.000000 0.227814 0.784180
0.000000 0.227814 0.784180
0.000000 0.227814 0.784180
0.000000 0.227814 0.784180
0.000000 0.227814 0.784180
0.000000 0.227814 0.784180
0.000000 0.227814 0.784180
0.000000 0.227814 0.784180
0.690735 0.000000 0.123444
0.952972 0.055115 0.473999
0.878601 0.390686 1.000000
0.810638 0.780762 1.000000
0.942566 0.960876 1.000000
1.000000 1.000000 1.000000
1.000000 1.000000 1.000000
1.000000 1.000000 1.000000
0.454834 0.000000 0.143372
0.558624 0.196686 0.620972
0.439056 0.332642 0.997009
0.736267 0.802460 1.000000
0.941284 0.963409 1.000000
1.000000 1.000000 1.000000
1.000000 1.000000 1.000000
1.000000 1.000000 1.000000
0.886078 0.000000 0.119629
0.886078 0.000000 0.119629
0.886078 0.000000 0.119629
0.886078 0.000000 0.119629
0.886078 0.000000 0.119629
0.886078 0.000000 0.119629
0.886078 0.000000 0.119629
0.886078 0.000000 0.119629
0.940094 0.963409 1.000000
0.952057 0.971008 1.000000
0.964172 0.978546 1.000000
0.981384 0.988861 1.000000
0.993744 0.996277 1.000000
1.000000 1.000000 1.000000
1.000000 1.000000 1.000000
1.000000 1.000000 1.000000
1.000000 0.006927 0.217377
0.973816 0.000000 0.180695
0.944824 0.000000 0.157776
0.915375 0.000000 0.138794
0.890930 0.000000 0.122894
0.886078 0.000000 0.119629
0.886078 0.000000 0.119629
0.886078 0.000000 0.119629
0.886078 0.000000 0.119629
0.886078 0.000000 0.119629
0.886078 0.000000 0.119629
0.886078 0.000000 0.119629
0.886078 0.000000 0.119629
0.886078 0.000000 0.119629
0.886078 0.000000 0.119629
0.886078 0.000000 0.119629
0.886078 0.000000 0.119629
0.886078 0.000000 0.119629
0.886078 0.000000 0.119629
0.886078 0.000000 0.119629
0.886078 0.000000 0.119629
0.886078 0.000000 0.119629
0.886078 0.000000 0.119629
0.886078 0.000000 0.119629
0.000000 0.227814 0.784180
0.000000 0.227814 0.784180
0.000000 0.227814 0.784180
0.000000 0.227814 0.784180
0.000000 0.227814 0.784180
0.000000 0.227814 0.784180
0.000000 0.227814 0.784180
0.000000 0.227814 0.784180
0.877869 0.000000 0.228668
1.000000 0.109436 0.530792
0.896820 0.401398 1.000000
0.810638 0.780762 1.000000
0.942566 0.960876 1.000000
1.000000 1.000000 1.000000
1.000000 1.000000 1.000000
1.000000 1.000000 1.000000
0.000000 0.343445 0.974884
0.278534 0.509796 1.000000
0.536835 0.676605 1.000000
0.742126 0.819000 1.000000
0.945099 0.966217 1.000000
1.000000 1.000000 1.000000
1.000000 1.000000 1.000000
1.000000 1.000000 1.000000
0.886078 0.000000 0.119629
0.886078 0.000000 0.119629
0.886078 0.000000 0.119629
0.886078 0.000000 0.119629
0.886078 0.000000 0.119629
0.886078 0.000000 0.119629
0.886078 0.000000 0.119629
0.886078 0.000000 0.119629
0.969727 0.981842 1.000000
0.975830 0.985596 1.000000
0.981964 0.989319 1.000000
0.988220 0.993011 1.000000
1.000000 1.000000 1.000000
1.000000 1.000000 1.000000
1.000000 1.000000 1.000000
1.000000 1.000000 1.000000
1.000000 0.043884 0.279877
1.000000 0.006927 0.217377
0.964264 0.000000 0.172546
0.930176 0.000000 0.148071
0.895813 0.000000 0.125977
0.886078 0.000000 0.119629
0.886078 0.000000 0.119629
0.886078 0.000000 0.119629
0.886078 0.000000 0.119629
0.886078 0.000000 0.119629
0.886078 0.000000 0.119629
0.886078 0.000000 0.119629
0.886078 0.000000 0.119629
0.886078 0.000000 0.119629
0.886078 0.000000 0.119629
0.886078 0.000000 0.119629
0.886078 0.000000 0.119629
0.886078 0.000000 0.119629
0.886078 0.000000 0.119629
0.886078 0.000000 0.119629
0.886078 0.000000 0.119629
0.886078 0.000000 0.119629
0.886078 0.000000 0.119629
0.886078 0.000000 0.119629
0.000000 0.227814 0.784180
0.000000 0.227814 0.784180
0.000000 0.227814 0.784180
0.000000 0.227814 0.784180
0.000000 0.227814 0.784180
0.000000 0.227814 0.784180
0.000000 0.227814 0.784180
0.000000 0.227814 0.784180
0.877869 0.000000 0.228668
1.000000 0.109436 0.530792
0.896820 0.401398 1.000000
0.810638 0.780762 1.000000
0.942566 0.960876 1.000000
1.000000 1.000000 1.000000
1.000000 1.000000 1.000000
1.000000 1.000000 1.000000
0.423706 0.626740 1.000000
0.566223 0.708435 1.000000
0.700134 0.794067 1.000000
0.829742 0.888031 1.000000
0.963074 0.977631 1.000000
0.999359 0.999603 1.000000
1.000000 1.000000 1.000000
1.000000 1.000000 1.000000
0.886078 0.000000 0.119629
0.886078 0.000000 0.119629
0.886078 0.000000 0.119629
0.886078 0.000000 0.119629
0.886078 0.000000 0.119629
0.886078 0.000000 0.119629
0.886078 0.000000 0.119629
0.886078 0.000000 0.119629
1.000000 1.000000 1.000000
1.000000 1.000000 1.000000
1.000000 1.000000 1.000000
1.000000 1.000000 1.000000
1.000000 1.000000 1.000000
1.000000 1.000000 1.000000
1.000000 1.000000 1.000000
1.000000 1.000000 1.000000
1.000000 0.077026 0.325562
1.000000 0.034698 0.264252
0.988159 0.000000 0.193726
0.939972 0.000000 0.154663
0.895813 0.000000 0.125977
0.886078 0.000000 0.119629
0.886078 0.000000 0.119629
0.886078 0.000000 0.119629
0.886078 0.000000 0.119629
0.886078 0.000000 0.119629
0.886078 0.000000 0.119629
0.886078 0.000000 0.119629
0.886078 0.000000 0.119629
0.886078 0.000000 0.119629
0.886078 0.000000 0.119629
0.886078 0.000000 0.119629
0.886078 0.000000 0.119629
0.886078 0.000000 0.119629
0.886078 0.000000 0.119629
0.886078 0.000000 0.119629
0.886078 0.000000 0.119629
0.886078 0.000000 0.119629
0.886078 0.000000 0.119629
0.886078 0.000000 0.119629
0.000000 0.227814 0.784180
0.000000 0.227814 0.784180
0.000000 0.227814 0.784180
0.000000 0.227814 0.784180
0.000000 0.227814 0.784180
0.000000 0.227814 0.784180
0.000000 0.227814 0.784180
0.000000 0.227814 0.784180
0.877869 0.000000 0.228668
1.000000 0.109436 0.530792
0.896820 0.401398 1.000000
0.810638 0.780762 1.000000
0.942566 0.960876 1.000000
1.000000 1.000000 1.000000
1.000000 1.000000 1.000000
1.000000 1.000000 1.000000
0.662079 0.770233 1.000000
0.741913 0.823120 1.000000
0.816254 0.878418 1.000000
0.893463 0.932465 1.000000
0.974670 0.984741 1.000000
0.999359 0.999603 1.000000
0.999359 0.999603 1.000000
1.000000 1.000000 1.000000
0.886078 0.000000 0.119629
0.886078 0.000000 0.119629
0.886078 0.000000 0.119629
0.886078 0.000000 0.119629
0.886078 0.000000 0.119629
0.886078 0.000000 0.119629
0.886078 0.000000 0.119629
0.886078 0.000000 0.119629
1.000000 1.000000 1.000000
1.000000 1.000000 1.000000
1.000000 1.000000 1.000000
1.000000 1.000000 1.000000
1.000000 1.000000 1.000000
1.000000 1.000000 1.000000
1.000000 1.000000 1.000000
1.000000 1.000000 1.000000
1.000000 0.152069 0.402344
1.000000 0.090790 0.334534
1.000000 0.025452 0.248383
0.959503 0.000000 0.168671
0.900757 0.000000 0.129089
0.886078 0.000000 0.119629
0.886078 0.000000 0.119629
0.886078 0.000000 0.119629
0.886078 0.000000 0.119629
0.886078 0.000000 0.119629
0.886078 0.000000 0.119629
0.886078 0.000000 0.119629
0.886078 0.000000 0.119629
0.886078 0.000000 0.119629
0.886078 0.000000 0.119629
0.886078 0.000000 0.119629
0.886078 0.000000 0.119629
0.886078 0.000000 0.119629
0.886078 0.000000 0.119629
0.886078 0.000000 0.119629
0.886078 0.000000 0.119629
0.886078 0.000000 0.119629
0.886078 0.000000 0.119629
0.886078 0.000000 0.119629
0.000000 0.257629 0.835541
0.000000 0.275238 0.863190
0.000000 0.293335 0.884766
0.000000 0.306030 0.908295
0.000000 0.319366 0.934357
0.000000 0.332916 0.954285
0.000000 0.350342 0.979492
0.000000 0.364258 0.999329
0.221985 0.002136 0.083405
0.271210 0.170929 0.545349
0.217712 0.308258 0.995300
0.810638 0.780762 1.000000
0.942566 0.960876 1.000000
1.000000 1.000000 1.000000
1.000000 1.000000 1.000000
1.000000 1.000000 1.000000
0.884155 0.924835 1.000000
0.906830 0.940643 1.000000
0.933258 0.958527 1.000000
0.962555 0.977173 1.000000
0.992462 0.995483 1.000000
0.998657 0.999207 1.000000
0.999359 0.999603 1.000000
0.999359 0.999603 1.000000
0.886078 0.000000 0.119629
0.886078 0.000000 0.119629
0.886078 0.000000 0.119629
0.886078 0.000000 0.119629
0.886078 0.000000 0.119629
0.886078 0.000000 0.119629
0.886078 0.000000 0.119629
0.886078 0.000000 0.119629
1.000000 1.000000 1.000000
1.000000 1.000000 1.000000
1.000000 1.000000 1.000000
1.000000 1.000000 1.000000
1.000000 1.000000 1.000000
1.000000 1.000000 1.000000
1.000000 1.000000 1.000000
1.000000 1.000000 1.000000
1.000000 0.244019 0.549835
1.000000 0.159485 0.412720
1.000000 0.080444 0.327606
0.997589 0.000000 0.203369
0.905640 0.000000 0.132233
0.886078 0.000000 0.119629
0.886078 0.000000 0.119629
0.886078 0.000000 0.119629
0.886078 0.000000 0.119629
0.886078 0.000000 0.119629
0.886078 0.000000 0.119629
0.886078 0.000000 0.119629
0.886078 0.000000 0.119629
0.886078 0.000000 0.119629
0.886078 0.000000 0.119629
0.886078 0.000000 0.119629
0.886078 0.000000 0.119629
0.886078 0.000000 0.119629
0.886078 0.000000 0.119629
0.886078 0.000000 0.119629
0.886078 0.000000 0.119629
0.886078 0.000000 0.119629
0.886078 0.000000 0.119629
0.886078 0.000000 0.119629
0.124115 0.467743 1.000000
0.143982 0.484619 1.000000
0.169250 0.505127 1.000000
0.189087 0.521301 1.000000
0.216827 0.542267 1.000000
0.244141 0.551392 1.000000
0.271576 0.564301 1.000000
0.302521 0.571228 1.000000
0.890930 0.000000 0.122894
1.000000 0.148407 0.397278
1.000000 0.366638 0.806244
0.810638 0.780762 1.000000
0.942566 0.960876 1.000000
1.000000 1.000000 1.000000
1.000000 1.000000 1.000000
1.000000 1.000000 1.000000
0.996613 0.997955 1.000000
0.997284 0.998352 1.000000
0.997284 0.998352 1.000000
0.997986 0.998810 1.000000
0.997986 0.998810 1.000000
0.998657 0.999207 1.000000
0.998657 0.999207 1.000000
0.999359 0.999603 1.000000
0.886078 0.000000 0.119629
0.886078 0.000000 0.119629
0.886078 0.000000 0.119629
0.886078 0.000000 0.119629
0.886078 0.000000 0.119629
0.886078 0.000000 0.119629
0.886078 0.000000 0.119629
0.886078 0.000000 0.119629
1.000000 1.000000 1.000000
1.000000 1.000000 1.000000
1.000000 1.000000 1.000000
1.000000 1.000000 1.000000
1.000000 1.000000 1.000000
1.000000 1.000000 1.000000
1.000000 1.000000 1.000000
1.000000 1.000000 1.000000
1.000000 0.334625 0.730988
1.000000 0.229401 0.524200
1.000000 0.130066 0.373474
1.000000 0.030121 0.256256
0.915375 0.000000 0.138794
0.886078 0.000000 0.119629
0.886078 0.000000 0.119629
0.886078 0.000000 0.119629
0.886078 0.000000 0.119629
0.886078 0.000000 0.119629
0.886078 0.000000 0.119629
0.886078 0.000000 0.119629
0.886078 0.000000 0.119629
0.886078 0.000000 0.119629
0.886078 0.000000 0.119629
0.886078 0.000000 0.119629
0.886078 0.000000 0.119629
0.886078 0.000000 0.119629
0.886078 0.000000 0.119629
0.886078 0.000000 0.119629
0.886078 0.000000 0.119629
0.886078 0.000000 0.119629
0.886078 0.000000 0.119629
0.886078 0.000000 0.119629
0.428436 0.631897 1.000000
0.454529 0.645355 1.000000
1.000000 0.395050 0.879486
1.000000 0.409058 0.919220
1.000000 0.431549 0.972382
0.987640 0.466644 1.000000
0.946014 0.510651 1.000000
0.919434 0.546051 1.000000
0.890930 0.000000 0.122894
1.000000 0.148407 0.397278
1.000000 0.366638 0.806244
0.810638 0.780762 1.000000
0.942566 0.960876 1.000000
1.000000 1.000000 1.000000
1.000000 1.000000 1.000000
1.000000 1.000000 1.000000
0.996613 0.997955 1.000000
0.996613 0.997955 1.000000
0.997284 0.998352 1.000000
0.997284 0.998352 1.000000
0.997986 0.998810 1.000000
0.997986 0.998810 1.000000
0.998657 0.999207 1.000000
0.998657 0.999207 1.000000
0.886078 0.000000 0.119629
0.886078 0.000000 0.119629
0.886078 0.000000 0.119629
0.886078 0.000000 0.119629
0.886078 0.000000 0.119629
0.886078 0.000000 0.119629
0.886078 0.000000 0.119629
0.886078 0.000000 0.119629
1.000000 1.000000 1.000000
1.000000 1.000000 1.000000
1.000000 1.000000 1.000000
1.000000 1.000000 1.000000
1.000000 1.000000 1.000000
1.000000 1.000000 1.000000
1.000000 1.000000 1.000000
1.000000 1.000000 1.000000
1.000000 0.431549 0.972382
1.000000 0.298584 0.654266
1.000000 0.177917 0.439850
1.000000 0.062103 0.311462
0.920349 0.000000 0.141998
0.886078 0.000000 0.119629
0.886078 0.000000 0.119629
0.886078 0.000000 0.119629
0.886078 0.000000 0.119629
0.886078 0.000000 0.119629
0.886078 0.000000 0.119629
0.886078 0.000000 0.119629
0.886078 0.000000 0.119629
0.886078 0.000000 0.119629
0.886078 0.000000 0.119629
0.886078 0.000000 0.119629
0.886078 0.000000 0.119629
0.886078 0.000000 0.119629
0.886078 0.000000 0.119629
0.886078 0.000000 0.119629
0.886078 0.000000 0.119629
0.886078 0.000000 0.119629
0.886078 0.000000 0.119629
0.886078 0.000000 0.119629
0.849091 0.729370 1.000000
0.845795 0.748444 1.000000
0.844360 0.766632 1.000000
0.844727 0.788269 1.000000
0.846802 0.804749 1.000000
0.850159 0.820587 1.000000
0.855957 0.839508 1.000000
0.860138 0.852173 1.000000
0.890930 0.000000 0.122894
1.000000 0.148407 0.397278
1.000000 0.366638 0.806244
0.810638 0.780762 1.000000
0.942566 0.960876 1.000000
1.000000 1.000000 1.000000
1.000000 1.000000 1.000000
1.000000 1.000000 1.000000
0.995972 0.997528 1.000000
0.996613 0.997955 1.000000
0.996613 0.997955 1.000000
0.997284 0.998352 1.000000
0.997284 0.998352 1.000000
0.997986 0.998810 1.000000
0.997986 0.998810 1.000000
0.998657 0.999207 1.000000
0.886078 0.000000 0.119629
0.886078 0.000000 0.119629
0.886078 0.000000 0.119629
0.886078 0.000000 0.119629
0.886078 0.000000 0.119629
0.886078 0.000000 0.119629
0.886078 0.000000 0.119629
0.886078 0.000000 0.119629
1.000000 1.000000 1.000000
1.000000 1.000000 1.000000
1.000000 1.000000 1.000000
1.000000 1.000000 1.000000
1.000000 1.000000 1.000000
1.000000 1.000000 1.000000
1.000000 1.000000 1.000000
1.000000 1.000000 1.000000
0.874481 0.643951 1.000000
1.000000 0.370178 0.814880
1.000000 0.225708 0.517578
1.000000 0.090790 0.334534
0.930176 0.000000 0.148071
0.886078 0.000000 0.119629
0.886078 0.000000 0.119629
0.886078 0.000000 0.119629
