GDW_Y2 - BF PJT/res/luts/gdw_y2_cold_filter_01.CUBE
#Created by: Adobe Photoshop Export Color Lookup Plugin
TITLE "GDW_2_Y2 - Filters 01.psd"
#LUT size
LUT_3D_SIZE 8
#data domain
#LUT data points
DOMAIN_MIN 0.000000 0.000000 0.000000
DOMAIN_MAX 0.903226 0.903226 0.903226
0.899811 0.295776 0.078125
0.899811 0.295776 0.078125
0.899811 0.295776 0.078125
0.899811 0.295776 0.078125
0.899811 0.295776 0.078125
0.899811 0.295776 0.078125
0.899811 0.295776 0.078125
0.899811 0.295776 0.078125
0.899811 0.295776 0.078125
0.899811 0.295776 0.078125
0.899811 0.295776 0.078125
0.899811 0.295776 0.078125
0.899811 0.295776 0.078125
0.899811 0.295776 0.078125
0.899811 0.295776 0.078125
0.899811 0.295776 0.078125
0.217316 0.154327 0.730133
0.217316 0.154327 0.730133
0.217316 0.154327 0.730133
0.217316 0.154327 0.730133
0.217316 0.154327 0.730133
0.217316 0.154327 0.730133
0.217316 0.154327 0.730133
0.217316 0.154327 0.730133
0.681000 0.242279 0.117676
0.751495 0.338379 0.365906
0.885559 0.555328 0.819214
0.906708 0.798859 1.000000
0.951630 0.947327 1.000000
1.000000 1.000000 1.000000
1.000000 1.000000 1.000000
1.000000 1.000000 1.000000
0.418121 0.185638 0.164124
0.555237 0.359985 0.505890
0.710754 0.539612 0.845306
0.794067 0.758026 1.000000
0.947357 0.946106 1.000000
1.000000 1.000000 1.000000
1.000000 1.000000 1.000000
1.000000 1.000000 1.000000
0.899811 0.295776 0.078125
0.899811 0.295776 0.078125
0.899811 0.295776 0.078125
0.899811 0.295776 0.078125
0.899811 0.295776 0.078125
0.899811 0.295776 0.078125
0.899811 0.295776 0.078125
0.899811 0.295776 0.078125
0.945618 0.945038 1.000000
0.956207 0.956024 1.000000
0.967133 0.967194 1.000000
0.982941 0.982971 1.000000
0.994263 0.994293 1.000000
1.000000 1.000000 1.000000
1.000000 1.000000 1.000000
1.000000 1.000000 1.000000
0.953949 0.288849 0.134888
0.939209 0.294983 0.119202
0.926239 0.296722 0.105591
0.912933 0.295715 0.091858
0.901947 0.295685 0.080475
0.899811 0.295776 0.078125
0.899811 0.295776 0.078125
0.899811 0.295776 0.078125
0.899811 0.295776 0.078125
0.899811 0.295776 0.078125
0.899811 0.295776 0.078125
0.899811 0.295776 0.078125
0.899811 0.295776 0.078125
0.899811 0.295776 0.078125
0.899811 0.295776 0.078125
0.899811 0.295776 0.078125
0.899811 0.295776 0.078125
0.899811 0.295776 0.078125
0.899811 0.295776 0.078125
0.899811 0.295776 0.078125
0.899811 0.295776 0.078125
0.899811 0.295776 0.078125
0.899811 0.295776 0.078125
0.899811 0.295776 0.078125
0.217316 0.154327 0.730133
0.217316 0.154327 0.730133
0.217316 0.154327 0.730133
0.217316 0.154327 0.730133
0.217316 0.154327 0.730133
0.217316 0.154327 0.730133
0.217316 0.154327 0.730133
0.217316 0.154327 0.730133
0.815613 0.246887 0.154755
0.815430 0.367432 0.400238
0.891907 0.558838 0.816132
0.906708 0.798859 1.000000
0.951630 0.947327 1.000000
1.000000 1.000000 1.000000
1.000000 1.000000 1.000000
1.000000 1.000000 1.000000
0.265106 0.237274 0.822144
0.401947 0.351776 0.986206
0.616638 0.575043 1.000000
0.787415 0.763397 1.000000
0.950348 0.949615 1.000000
1.000000 1.000000 1.000000
1.000000 1.000000 1.000000
1.000000 1.000000 1.000000
0.899811 0.295776 0.078125
0.899811 0.295776 0.078125
0.899811 0.295776 0.078125
0.899811 0.295776 0.078125
0.899811 0.295776 0.078125
0.899811 0.295776 0.078125
0.899811 0.295776 0.078125
0.899811 0.295776 0.078125
0.972229 0.972229 1.000000
0.977844 0.977936 1.000000
0.983459 0.983551 1.000000
0.989197 0.989288 1.000000
1.000000 1.000000 1.000000
1.000000 1.000000 1.000000
1.000000 1.000000 1.000000
1.000000 1.000000 1.000000
0.970184 0.277679 0.152527
0.953949 0.288849 0.134888
0.934937 0.295929 0.114685
0.919647 0.296356 0.098755
0.904175 0.295685 0.082703
0.899811 0.295776 0.078125
0.899811 0.295776 0.078125
0.899811 0.295776 0.078125
0.899811 0.295776 0.078125
0.899811 0.295776 0.078125
0.899811 0.295776 0.078125
0.899811 0.295776 0.078125
0.899811 0.295776 0.078125
0.899811 0.295776 0.078125
0.899811 0.295776 0.078125
0.899811 0.295776 0.078125
0.899811 0.295776 0.078125
0.899811 0.295776 0.078125
0.899811 0.295776 0.078125
0.899811 0.295776 0.078125
0.899811 0.295776 0.078125
0.899811 0.295776 0.078125
0.899811 0.295776 0.078125
0.899811 0.295776 0.078125
0.217316 0.154327 0.730133
0.217316 0.154327 0.730133
0.217316 0.154327 0.730133
0.217316 0.154327 0.730133
0.217316 0.154327 0.730133
0.217316 0.154327 0.730133
0.217316 0.154327 0.730133
0.217316 0.154327 0.730133
0.815613 0.246887 0.154755
0.815430 0.367432 0.400238
0.891907 0.558838 0.816132
0.906708 0.798859 1.000000
0.951630 0.947327 1.000000
1.000000 1.000000 1.000000
1.000000 1.000000 1.000000
1.000000 1.000000 1.000000
0.496429 0.471252 1.000000
0.630646 0.601990 1.000000
0.748688 0.724854 1.000000
0.852783 0.843781 1.000000
0.966309 0.966125 1.000000
0.999420 0.999420 1.000000
1.000000 1.000000 1.000000
1.000000 1.000000 1.000000
0.899811 0.295776 0.078125
0.899811 0.295776 0.078125
0.899811 0.295776 0.078125
0.899811 0.295776 0.078125
0.899811 0.295776 0.078125
0.899811 0.295776 0.078125
0.899811 0.295776 0.078125
0.899811 0.295776 0.078125
1.000000 1.000000 1.000000
1.000000 1.000000 1.000000
1.000000 1.000000 1.000000
1.000000 1.000000 1.000000
1.000000 1.000000 1.000000
1.000000 1.000000 1.000000
1.000000 1.000000 1.000000
1.000000 1.000000 1.000000
0.974365 0.282684 0.178772
0.966187 0.280945 0.148132
0.945618 0.293060 0.125977
0.924042 0.296478 0.103302
0.904175 0.295685 0.082703
0.899811 0.295776 0.078125
0.899811 0.295776 0.078125
0.899811 0.295776 0.078125
0.899811 0.295776 0.078125
0.899811 0.295776 0.078125
0.899811 0.295776 0.078125
0.899811 0.295776 0.078125
0.899811 0.295776 0.078125
0.899811 0.295776 0.078125
0.899811 0.295776 0.078125
0.899811 0.295776 0.078125
0.899811 0.295776 0.078125
0.899811 0.295776 0.078125
0.899811 0.295776 0.078125
0.899811 0.295776 0.078125
0.899811 0.295776 0.078125
0.899811 0.295776 0.078125
0.899811 0.295776 0.078125
0.899811 0.295776 0.078125
0.217316 0.154327 0.730133
0.217316 0.154327 0.730133
0.217316 0.154327 0.730133
0.217316 0.154327 0.730133
0.217316 0.154327 0.730133
0.217316 0.154327 0.730133
0.217316 0.154327 0.730133
0.217316 0.154327 0.730133
0.815613 0.246887 0.154755
0.815430 0.367432 0.400238
0.891907 0.558838 0.816132
0.906708 0.798859 1.000000
0.951630 0.947327 1.000000
1.000000 1.000000 1.000000
1.000000 1.000000 1.000000
1.000000 1.000000 1.000000
0.714722 0.689972 1.000000
0.783356 0.763184 1.000000
0.841797 0.831421 1.000000
0.905579 0.902252 1.000000
0.976837 0.976746 1.000000
0.999420 0.999420 1.000000
0.999420 0.999420 1.000000
1.000000 1.000000 1.000000
0.899811 0.295776 0.078125
0.899811 0.295776 0.078125
0.899811 0.295776 0.078125
0.899811 0.295776 0.078125
0.899811 0.295776 0.078125
0.899811 0.295776 0.078125
0.899811 0.295776 0.078125
0.899811 0.295776 0.078125
1.000000 1.000000 1.000000
1.000000 1.000000 1.000000
1.000000 1.000000 1.000000
1.000000 1.000000 1.000000
1.000000 1.000000 1.000000
1.000000 1.000000 1.000000
1.000000 1.000000 1.000000
1.000000 1.000000 1.000000
0.947052 0.345337 0.274933
0.966431 0.300507 0.199371
0.962097 0.283752 0.143677
0.932831 0.296326 0.112457
0.906342 0.295776 0.085022
0.899811 0.295776 0.078125
0.899811 0.295776 0.078125
0.899811 0.295776 0.078125
0.899811 0.295776 0.078125
0.899811 0.295776 0.078125
0.899811 0.295776 0.078125
0.899811 0.295776 0.078125
0.899811 0.295776 0.078125
0.899811 0.295776 0.078125
0.899811 0.295776 0.078125
0.899811 0.295776 0.078125
0.899811 0.295776 0.078125
0.899811 0.295776 0.078125
0.899811 0.295776 0.078125
0.899811 0.295776 0.078125
0.899811 0.295776 0.078125
0.899811 0.295776 0.078125
0.899811 0.295776 0.078125
0.899811 0.295776 0.078125
0.217438 0.161774 0.769775
0.216919 0.166321 0.790558
0.214111 0.170685 0.806061
0.214508 0.173492 0.824829
0.216187 0.177399 0.844788
0.215668 0.181061 0.859406
0.213867 0.184540 0.879089
0.213104 0.188141 0.893677
0.235870 0.137756 0.134705
0.440033 0.324951 0.497223
0.561584 0.460083 0.817871
0.906708 0.798859 1.000000
0.951630 0.947327 1.000000
1.000000 1.000000 1.000000
1.000000 1.000000 1.000000
1.000000 1.000000 1.000000
0.898865 0.893707 1.000000
0.917694 0.914520 1.000000
0.940033 0.938751 1.000000
0.965942 0.965637 1.000000
0.993073 0.993073 1.000000
0.998779 0.998779 1.000000
0.999420 0.999420 1.000000
0.999420 0.999420 1.000000
0.899811 0.295776 0.078125
0.899811 0.295776 0.078125
0.899811 0.295776 0.078125
0.899811 0.295776 0.078125
0.899811 0.295776 0.078125
0.899811 0.295776 0.078125
0.899811 0.295776 0.078125
0.899811 0.295776 0.078125
1.000000 1.000000 1.000000
1.000000 1.000000 1.000000
1.000000 1.000000 1.000000
1.000000 1.000000 1.000000
1.000000 1.000000 1.000000
1.000000 1.000000 1.000000
1.000000 1.000000 1.000000
1.000000 1.000000 1.000000
0.933289 0.373047 0.375519
0.945770 0.348389 0.283020
0.972198 0.287415 0.184082
0.949799 0.291077 0.130432
0.908539 0.295837 0.087311
0.899811 0.295776 0.078125
0.899811 0.295776 0.078125
0.899811 0.295776 0.078125
0.899811 0.295776 0.078125
0.899811 0.295776 0.078125
0.899811 0.295776 0.078125
0.899811 0.295776 0.078125
0.899811 0.295776 0.078125
0.899811 0.295776 0.078125
0.899811 0.295776 0.078125
0.899811 0.295776 0.078125
0.899811 0.295776 0.078125
0.899811 0.295776 0.078125
0.899811 0.295776 0.078125
0.899811 0.295776 0.078125
0.899811 0.295776 0.078125
0.899811 0.295776 0.078125
0.899811 0.295776 0.078125
0.899811 0.295776 0.078125
0.213470 0.207550 0.988770
0.216125 0.214600 1.000000
0.237762 0.241119 1.000000
0.255981 0.263245 1.000000
0.281372 0.292603 1.000000
0.306458 0.311035 1.000000
0.331665 0.332977 1.000000
0.369385 0.360016 1.000000
0.901947 0.295685 0.080475
0.947754 0.343750 0.270874
0.915955 0.502899 0.624420
0.906708 0.798859 1.000000
0.951630 0.947327 1.000000
1.000000 1.000000 1.000000
1.000000 1.000000 1.000000
1.000000 1.000000 1.000000
0.996918 0.996887 1.000000
0.997559 0.997528 1.000000
0.997559 0.997528 1.000000
0.998169 0.998169 1.000000
0.998169 0.998169 1.000000
0.998779 0.998779 1.000000
0.998779 0.998779 1.000000
0.999420 0.999420 1.000000
0.899811 0.295776 0.078125
0.899811 0.295776 0.078125
0.899811 0.295776 0.078125
0.899811 0.295776 0.078125
0.899811 0.295776 0.078125
0.899811 0.295776 0.078125
0.899811 0.295776 0.078125
0.899811 0.295776 0.078125
1.000000 1.000000 1.000000
1.000000 1.000000 1.000000
1.000000 1.000000 1.000000
1.000000 1.000000 1.000000
1.000000 1.000000 1.000000
1.000000 1.000000 1.000000
1.000000 1.000000 1.000000
1.000000 1.000000 1.000000
0.921082 0.468384 0.557037
0.935425 0.367493 0.357483
0.951782 0.334320 0.250031
0.964142 0.282379 0.145935
0.912933 0.295715 0.091858
0.899811 0.295776 0.078125
0.899811 0.295776 0.078125
0.899811 0.295776 0.078125
0.899811 0.295776 0.078125
0.899811 0.295776 0.078125
0.899811 0.295776 0.078125
0.899811 0.295776 0.078125
0.899811 0.295776 0.078125
0.899811 0.295776 0.078125
0.899811 0.295776 0.078125
0.899811 0.295776 0.078125
0.899811 0.295776 0.078125
0.899811 0.295776 0.078125
0.899811 0.295776 0.078125
0.899811 0.295776 0.078125
0.899811 0.295776 0.078125
0.899811 0.295776 0.078125
0.899811 0.295776 0.078125
0.899811 0.295776 0.078125
0.498627 0.475586 1.000000
0.524536 0.499481 1.000000
0.911316 0.533569 0.684998
0.908722 0.549011 0.715698
0.910736 0.567657 0.756866
0.930420 0.580200 0.798492
0.954987 0.595978 0.851044
0.974854 0.608582 0.893402
0.901947 0.295685 0.080475
0.947754 0.343750 0.270874
0.915955 0.502899 0.624420
0.906708 0.798859 1.000000
0.951630 0.947327 1.000000
1.000000 1.000000 1.000000
1.000000 1.000000 1.000000
1.000000 1.000000 1.000000
0.996918 0.996887 1.000000
0.996918 0.996887 1.000000
0.997559 0.997528 1.000000
0.997559 0.997528 1.000000
0.998169 0.998169 1.000000
0.998169 0.998169 1.000000
0.998779 0.998779 1.000000
0.998779 0.998779 1.000000
0.899811 0.295776 0.078125
0.899811 0.295776 0.078125
0.899811 0.295776 0.078125
0.899811 0.295776 0.078125
0.899811 0.295776 0.078125
0.899811 0.295776 0.078125
0.899811 0.295776 0.078125
0.899811 0.295776 0.078125
1.000000 1.000000 1.000000
1.000000 1.000000 1.000000
1.000000 1.000000 1.000000
1.000000 1.000000 1.000000
1.000000 1.000000 1.000000
1.000000 1.000000 1.000000
1.000000 1.000000 1.000000
1.000000 1.000000 1.000000
0.910736 0.567657 0.756866
0.926147 0.430267 0.483429
0.942657 0.355042 0.303040
0.978119 0.270782 0.161285
0.915192 0.295807 0.094147
0.899811 0.295776 0.078125
0.899811 0.295776 0.078125
0.899811 0.295776 0.078125
0.899811 0.295776 0.078125
0.899811 0.295776 0.078125
0.899811 0.295776 0.078125
0.899811 0.295776 0.078125
0.899811 0.295776 0.078125
0.899811 0.295776 0.078125
0.899811 0.295776 0.078125
0.899811 0.295776 0.078125
0.899811 0.295776 0.078125
0.899811 0.295776 0.078125
0.899811 0.295776 0.078125
0.899811 0.295776 0.078125
0.899811 0.295776 0.078125
0.899811 0.295776 0.078125
0.899811 0.295776 0.078125
0.899811 0.295776 0.078125
0.960846 0.751709 1.000000
0.950867 0.769165 1.000000
0.942749 0.785889 1.000000
0.935211 0.805725 1.000000
0.931122 0.820862 1.000000
0.928345 0.835388 1.000000
0.926727 0.852753 1.000000
0.925873 0.864349 1.000000
0.901947 0.295685 0.080475
0.947754 0.343750 0.270874
0.915955 0.502899 0.624420
0.906708 0.798859 1.000000
0.951630 0.947327 1.000000
1.000000 1.000000 1.000000
1.000000 1.000000 1.000000
1.000000 1.000000 1.000000
0.996338 0.996307 1.000000
0.996918 0.996887 1.000000
0.996918 0.996887 1.000000
0.997559 0.997528 1.000000
0.997559 0.997528 1.000000
0.998169 0.998169 1.000000
0.998169 0.998169 1.000000
0.998779 0.998779 1.000000
0.899811 0.295776 0.078125
0.899811 0.295776 0.078125
0.899811 0.295776 0.078125
0.899811 0.295776 0.078125
0.899811 0.295776 0.078125
0.899811 0.295776 0.078125
0.899811 0.295776 0.078125
0.899811 0.295776 0.078125
1.000000 1.000000 1.000000
1.000000 1.000000 1.000000
1.000000 1.000000 1.000000
1.000000 1.000000 1.000000
1.000000 1.000000 1.000000
1.000000 1.000000 1.000000
1.000000 1.000000 1.000000
1.000000 1.000000 1.000000
1.000000 0.673309 0.984528
0.915375 0.506744 0.631836
0.935822 0.367065 0.353699
0.966431 0.300507 0.199371
0.919647 0.296356 0.098755
0.899811 0.295776 0.078125
0.899811 0.295776 0.078125
0.899811 0.295776 0.078125
