GDW_Y2 - BF PJT/res/luts/gdw_y2_cool_filter_01.CUBE
#Created by: Adobe Photoshop Export Color Lookup Plugin
TITLE "GDW_2_Y2 - Filters 01.psd"
#LUT size
LUT_3D_SIZE 32
#data domain
DOMAIN_MIN 0.0 0.0 0.0
DOMAIN_MAX 1.0 1.0 1.0
#LUT data points
0.886078 0.000000 0.119629
0.886078 0.000000 0.119629
0.886078 0.000000 0.119629
0.886078 0.000000 0.119629
0.886078 0.000000 0.119629
0.886078 0.000000 0.119629
0.886078 0.000000 0.119629
0.886078 0.000000 0.119629
0.886078 0.000000 0.119629
0.886078 0.000000 0.119629
0.886078 0.000000 0.119629
0.886078 0.000000 0.119629
0.886078 0.000000 0.119629
0.886078 0.000000 0.119629
0.886078 0.000000 0.119629
0.886078 0.000000 0.119629
0.886078 0.000000 0.119629
0.886078 0.000000 0.119629
0.886078 0.000000 0.119629
0.886078 0.000000 0.119629
0.886078 0.000000 0.119629
0.886078 0.000000 0.119629
0.886078 0.000000 0.119629
0.886078 0.000000 0.119629
0.886078 0.000000 0.119629
0.886078 0.000000 0.119629
0.886078 0.000000 0.119629
0.886078 0.000000 0.119629
0.886078 0.000000 0.119629
0.886078 0.000000 0.119629
0.886078 0.000000 0.119629
0.886078 0.000000 0.119629
0.886078 0.000000 0.119629
0.886078 0.000000 0.119629
0.886078 0.000000 0.119629
0.886078 0.000000 0.119629
0.886078 0.000000 0.119629
0.886078 0.000000 0.119629
0.886078 0.000000 0.119629
0.886078 0.000000 0.119629
0.886078 0.000000 0.119629
0.886078 0.000000 0.119629
0.886078 0.000000 0.119629
0.886078 0.000000 0.119629
0.886078 0.000000 0.119629
0.886078 0.000000 0.119629
0.886078 0.000000 0.119629
0.886078 0.000000 0.119629
0.886078 0.000000 0.119629
0.886078 0.000000 0.119629
0.886078 0.000000 0.119629
0.886078 0.000000 0.119629
0.886078 0.000000 0.119629
0.886078 0.000000 0.119629
0.886078 0.000000 0.119629
0.886078 0.000000 0.119629
0.886078 0.000000 0.119629
0.886078 0.000000 0.119629
0.886078 0.000000 0.119629
0.886078 0.000000 0.119629
0.886078 0.000000 0.119629
0.886078 0.000000 0.119629
0.886078 0.000000 0.119629
0.886078 0.000000 0.119629
0.886078 0.000000 0.119629
0.886078 0.000000 0.119629
0.886078 0.000000 0.119629
0.886078 0.000000 0.119629
0.886078 0.000000 0.119629
0.886078 0.000000 0.119629
0.886078 0.000000 0.119629
0.886078 0.000000 0.119629
0.886078 0.000000 0.119629
0.886078 0.000000 0.119629
0.886078 0.000000 0.119629
0.886078 0.000000 0.119629
0.886078 0.000000 0.119629
0.886078 0.000000 0.119629
0.886078 0.000000 0.119629
0.886078 0.000000 0.119629
0.886078 0.000000 0.119629
0.886078 0.000000 0.119629
0.886078 0.000000 0.119629
0.886078 0.000000 0.119629
0.886078 0.000000 0.119629
0.886078 0.000000 0.119629
0.886078 0.000000 0.119629
0.886078 0.000000 0.119629
0.886078 0.000000 0.119629
0.886078 0.000000 0.119629
0.886078 0.000000 0.119629
0.886078 0.000000 0.119629
0.886078 0.000000 0.119629
0.886078 0.000000 0.119629
0.886078 0.000000 0.119629
0.886078 0.000000 0.119629
0.886078 0.000000 0.119629
0.886078 0.000000 0.119629
0.886078 0.000000 0.119629
0.886078 0.000000 0.119629
0.886078 0.000000 0.119629
0.886078 0.000000 0.119629
0.886078 0.000000 0.119629
0.886078 0.000000 0.119629
0.886078 0.000000 0.119629
0.886078 0.000000 0.119629
0.886078 0.000000 0.119629
0.886078 0.000000 0.119629
0.886078 0.000000 0.119629
0.886078 0.000000 0.119629
0.886078 0.000000 0.119629
0.886078 0.000000 0.119629
0.886078 0.000000 0.119629
0.886078 0.000000 0.119629
0.886078 0.000000 0.119629
0.886078 0.000000 0.119629
0.886078 0.000000 0.119629
0.886078 0.000000 0.119629
0.886078 0.000000 0.119629
0.886078 0.000000 0.119629
0.886078 0.000000 0.119629
0.886078 0.000000 0.119629
0.886078 0.000000 0.119629
0.886078 0.000000 0.119629
0.886078 0.000000 0.119629
0.886078 0.000000 0.119629
0.886078 0.000000 0.119629
0.886078 0.000000 0.119629
0.886078 0.000000 0.119629
0.886078 0.000000 0.119629
0.886078 0.000000 0.119629
0.886078 0.000000 0.119629
0.886078 0.000000 0.119629
0.886078 0.000000 0.119629
0.886078 0.000000 0.119629
0.886078 0.000000 0.119629
0.886078 0.000000 0.119629
0.886078 0.000000 0.119629
0.886078 0.000000 0.119629
0.886078 0.000000 0.119629
0.886078 0.000000 0.119629
0.886078 0.000000 0.119629
0.886078 0.000000 0.119629
0.886078 0.000000 0.119629
0.886078 0.000000 0.119629
0.886078 0.000000 0.119629
0.886078 0.000000 0.119629
0.886078 0.000000 0.119629
0.886078 0.000000 0.119629
0.886078 0.000000 0.119629
0.886078 0.000000 0.119629
0.886078 0.000000 0.119629
0.886078 0.000000 0.119629
0.886078 0.000000 0.119629
0.886078 0.000000 0.119629
0.886078 0.000000 0.119629
0.886078 0.000000 0.119629
0.886078 0.000000 0.119629
0.886078 0.000000 0.119629
0.886078 0.000000 0.119629
0.886078 0.000000 0.119629
0.886078 0.000000 0.119629
0.886078 0.000000 0.119629
0.886078 0.000000 0.119629
0.886078 0.000000 0.119629
0.886078 0.000000 0.119629
0.886078 0.000000 0.119629
0.886078 0.000000 0.119629
0.886078 0.000000 0.119629
0.886078 0.000000 0.119629
0.886078 0.000000 0.119629
0.886078 0.000000 0.119629
0.886078 0.000000 0.119629
0.886078 0.000000 0.119629
0.886078 0.000000 0.119629
0.886078 0.000000 0.119629
0.886078 0.000000 0.119629
0.886078 0.000000 0.119629
0.886078 0.000000 0.119629
0.886078 0.000000 0.119629
0.886078 0.000000 0.119629
0.886078 0.000000 0.119629
0.886078 0.000000 0.119629
0.886078 0.000000 0.119629
0.886078 0.000000 0.119629
0.886078 0.000000 0.119629
0.886078 0.000000 0.119629
0.886078 0.000000 0.119629
0.886078 0.000000 0.119629
0.886078 0.000000 0.119629
0.886078 0.000000 0.119629
0.886078 0.000000 0.119629
0.000000 0.227814 0.784180
0.000000 0.227814 0.784180
0.000000 0.227814 0.784180
0.000000 0.227814 0.784180
0.000000 0.227814 0.784180
0.000000 0.227814 0.784180
0.000000 0.227814 0.784180
0.000000 0.227814 0.784180
0.000000 0.227814 0.784180
0.000000 0.227814 0.784180
0.000000 0.227814 0.784180
0.000000 0.227814 0.784180
0.000000 0.227814 0.784180
0.000000 0.227814 0.784180
0.000000 0.227814 0.784180
0.000000 0.227814 0.784180
0.000000 0.227814 0.784180
0.000000 0.227814 0.784180
0.000000 0.227814 0.784180
0.000000 0.227814 0.784180
0.000000 0.227814 0.784180
0.000000 0.227814 0.784180
0.000000 0.227814 0.784180
0.000000 0.227814 0.784180
0.000000 0.227814 0.784180
0.000000 0.227814 0.784180
0.000000 0.227814 0.784180
0.000000 0.227814 0.784180
0.000000 0.227814 0.784180
0.000000 0.227814 0.784180
0.000000 0.227814 0.784180
0.000000 0.227814 0.784180
0.000000 0.227814 0.784180
0.000000 0.227814 0.784180
0.000000 0.227814 0.784180
0.000000 0.227814 0.784180
0.000000 0.227814 0.784180
0.000000 0.227814 0.784180
0.000000 0.227814 0.784180
0.000000 0.227814 0.784180
0.000000 0.227814 0.784180
0.000000 0.227814 0.784180
0.000000 0.227814 0.784180
0.000000 0.227814 0.784180
0.000000 0.227814 0.784180
0.000000 0.227814 0.784180
0.000000 0.227814 0.784180
0.000000 0.227814 0.784180
0.000000 0.227814 0.784180
0.000000 0.227814 0.784180
0.000000 0.227814 0.784180
0.000000 0.227814 0.784180
0.000000 0.227814 0.784180
0.000000 0.227814 0.784180
0.000000 0.227814 0.784180
0.000000 0.227814 0.784180
0.000000 0.227814 0.784180
0.000000 0.227814 0.784180
0.000000 0.227814 0.784180
0.000000 0.227814 0.784180
0.000000 0.227814 0.784180
0.000000 0.227814 0.784180
0.000000 0.227814 0.784180
0.000000 0.227814 0.784180
0.000000 0.227814 0.784180
0.000000 0.227814 0.784180
0.000000 0.227814 0.784180
0.000000 0.227814 0.784180
0.000000 0.227814 0.784180
0.000000 0.227814 0.784180
0.000000 0.227814 0.784180
0.000000 0.227814 0.784180
0.000000 0.227814 0.784180
0.000000 0.227814 0.784180
0.000000 0.227814 0.784180
0.000000 0.227814 0.784180
0.000000 0.227814 0.784180
0.000000 0.227814 0.784180
0.000000 0.227814 0.784180
0.000000 0.227814 0.784180
0.000000 0.227814 0.784180
0.000000 0.227814 0.784180
0.000000 0.227814 0.784180
0.000000 0.227814 0.784180
0.000000 0.227814 0.784180
0.000000 0.227814 0.784180
0.000000 0.227814 0.784180
0.000000 0.227814 0.784180
0.000000 0.227814 0.784180
0.000000 0.227814 0.784180
0.000000 0.227814 0.784180
0.000000 0.227814 0.784180
0.000000 0.227814 0.784180
0.000000 0.227814 0.784180
0.000000 0.227814 0.784180
0.000000 0.227814 0.784180
0.912811 0.930237 1.000000
0.915802 0.933411 1.000000
0.918854 0.936584 1.000000
0.921936 0.939728 1.000000
0.925079 0.942871 1.000000
0.928284 0.945953 1.000000
0.931488 0.949066 1.000000
0.934784 0.952087 1.000000
0.941528 0.958099 1.000000
0.945068 0.961121 1.000000
0.948547 0.964050 1.000000
0.952148 0.967010 1.000000
0.955780 0.969879 1.000000
0.959473 0.972748 1.000000
0.963226 0.975616 1.000000
0.967072 0.978455 1.000000
0.970978 0.981232 1.000000
0.974915 0.984009 1.000000
0.978912 0.986755 1.000000
0.983002 0.989471 1.000000
0.987183 0.992126 1.000000
0.991394 0.994781 1.000000
0.995667 0.997406 1.000000
1.000000 1.000000 1.000000
1.000000 1.000000 1.000000
1.000000 1.000000 1.000000
1.000000 1.000000 1.000000
1.000000 1.000000 1.000000
1.000000 1.000000 1.000000
1.000000 1.000000 1.000000
1.000000 1.000000 1.000000
1.000000 1.000000 1.000000
1.000000 1.000000 1.000000
1.000000 1.000000 1.000000
1.000000 1.000000 1.000000
1.000000 1.000000 1.000000
1.000000 1.000000 1.000000
1.000000 1.000000 1.000000
1.000000 1.000000 1.000000
1.000000 1.000000 1.000000
1.000000 1.000000 1.000000
1.000000 1.000000 1.000000
1.000000 1.000000 1.000000
1.000000 1.000000 1.000000
1.000000 1.000000 1.000000
1.000000 1.000000 1.000000
1.000000 1.000000 1.000000
1.000000 1.000000 1.000000
1.000000 1.000000 1.000000
1.000000 1.000000 1.000000
1.000000 1.000000 1.000000
1.000000 1.000000 1.000000
1.000000 1.000000 1.000000
1.000000 1.000000 1.000000
1.000000 1.000000 1.000000
1.000000 1.000000 1.000000
1.000000 1.000000 1.000000
1.000000 1.000000 1.000000
1.000000 1.000000 1.000000
1.000000 1.000000 1.000000
1.000000 1.000000 1.000000
1.000000 1.000000 1.000000
1.000000 1.000000 1.000000
1.000000 1.000000 1.000000
0.876953 0.635040 1.000000
0.866608 0.677094 1.000000
0.856049 0.704163 1.000000
0.849091 0.729370 1.000000
0.845276 0.753113 1.000000
0.844208 0.775452 1.000000
0.845551 0.796600 1.000000
0.850159 0.820587 1.000000
0.855957 0.839508 1.000000
0.860474 0.856018 1.000000
0.866608 0.869415 1.000000
0.880646 0.890320 1.000000
0.895874 0.910645 1.000000
0.912811 0.930237 1.000000
0.931488 0.949066 1.000000
0.952148 0.967010 1.000000
0.974915 0.984009 1.000000
1.000000 1.000000 1.000000
1.000000 1.000000 1.000000
1.000000 1.000000 1.000000
1.000000 1.000000 1.000000
1.000000 1.000000 1.000000
1.000000 1.000000 1.000000
1.000000 1.000000 1.000000
1.000000 1.000000 1.000000
1.000000 1.000000 1.000000
1.000000 1.000000 1.000000
1.000000 1.000000 1.000000
1.000000 1.000000 1.000000
1.000000 1.000000 1.000000
1.000000 1.000000 1.000000
1.000000 1.000000 1.000000
0.690735 0.000000 0.123444
0.777252 0.000000 0.199829
0.853302 0.000000 0.251648
0.932739 0.000000 0.343842
0.952972 0.055115 0.473999
0.946625 0.143250 0.626526
0.942383 0.225128 0.773041
0.955872 0.299530 0.940338
0.878601 0.390686 1.000000
0.818878 0.518250 1.000000
0.800446 0.636719 1.000000
0.800659 0.723297 1.000000
0.810638 0.780762 1.000000
0.818970 0.819550 1.000000
0.853851 0.868652 1.000000
0.896606 0.918640 1.000000
0.942566 0.960876 1.000000
1.000000 1.000000 1.000000
1.000000 1.000000 1.000000
1.000000 1.000000 1.000000
1.000000 1.000000 1.000000
1.000000 1.000000 1.000000
1.000000 1.000000 1.000000
1.000000 1.000000 1.000000
1.000000 1.000000 1.000000
1.000000 1.000000 1.000000
1.000000 1.000000 1.000000
1.000000 1.000000 1.000000
1.000000 1.000000 1.000000
1.000000 1.000000 1.000000
1.000000 1.000000 1.000000
1.000000 1.000000 1.000000
0.000000 0.250641 0.824615
0.000000 0.299316 0.897552
0.000000 0.342834 0.972473
0.045258 0.403992 1.000000
1.000000 0.148407 0.397278
1.000000 0.203613 0.480469
1.000000 0.258636 0.576660
1.000000 0.313049 0.684204
1.000000 0.366638 0.806244
0.992828 0.399384 1.000000
0.800446 0.636719 1.000000
0.800659 0.723297 1.000000
0.810638 0.780762 1.000000
0.818970 0.819550 1.000000
0.853851 0.868652 1.000000
0.896606 0.918640 1.000000
0.942566 0.960876 1.000000
1.000000 1.000000 1.000000
1.000000 1.000000 1.000000
1.000000 1.000000 1.000000
1.000000 1.000000 1.000000
1.000000 1.000000 1.000000
1.000000 1.000000 1.000000
1.000000 1.000000 1.000000
1.000000 1.000000 1.000000
1.000000 1.000000 1.000000
1.000000 1.000000 1.000000
1.000000 1.000000 1.000000
1.000000 1.000000 1.000000
1.000000 1.000000 1.000000
1.000000 1.000000 1.000000
1.000000 1.000000 1.000000
0.877869 0.000000 0.228668
0.935394 0.000000 0.257385
0.993378 0.000000 0.313812
1.000000 0.051788 0.418488
1.000000 0.109436 0.530792
1.000000 0.166718 0.653748
0.994232 0.225708 0.792145
0.978699 0.306793 0.949493
0.896820 0.401398 1.000000
0.818878 0.518250 1.000000
0.800446 0.636719 1.000000
0.800659 0.723297 1.000000
0.810638 0.780762 1.000000
0.818970 0.819550 1.000000
0.853851 0.868652 1.000000
0.896606 0.918640 1.000000
0.942566 0.960876 1.000000
1.000000 1.000000 1.000000
1.000000 1.000000 1.000000
1.000000 1.000000 1.000000
1.000000 1.000000 1.000000
1.000000 1.000000 1.000000
1.000000 1.000000 1.000000
1.000000 1.000000 1.000000
1.000000 1.000000 1.000000
1.000000 1.000000 1.000000
1.000000 1.000000 1.000000
1.000000 1.000000 1.000000
1.000000 1.000000 1.000000
1.000000 1.000000 1.000000
1.000000 1.000000 1.000000
1.000000 1.000000 1.000000
0.877869 0.000000 0.228668
0.935394 0.000000 0.257385
0.993378 0.000000 0.313812
1.000000 0.051788 0.418488
1.000000 0.109436 0.530792
1.000000 0.166718 0.653748
0.994232 0.225708 0.792145
0.978699 0.306793 0.949493
0.896820 0.401398 1.000000
0.818878 0.518250 1.000000
0.800446 0.636719 1.000000
0.800659 0.723297 1.000000
0.810638 0.780762 1.000000
0.818970 0.819550 1.000000
0.853851 0.868652 1.000000
0.896606 0.918640 1.000000
0.926636 0.951843 1.000000
1.000000 1.000000 1.000000
1.000000 1.000000 1.000000
1.000000 1.000000 1.000000
1.000000 1.000000 1.000000
1.000000 1.000000 1.000000
1.000000 1.000000 1.000000
1.000000 1.000000 1.000000
1.000000 1.000000 1.000000
1.000000 1.000000 1.000000
1.000000 1.000000 1.000000
1.000000 1.000000 1.000000
1.000000 1.000000 1.000000
1.000000 1.000000 1.000000
1.000000 1.000000 1.000000
1.000000 1.000000 1.000000
0.454834 0.000000 0.143372
0.521851 0.014618 0.243591
0.533203 0.084717 0.371704
0.542786 0.155975 0.504547
0.558624 0.196686 0.620972
0.531616 0.225739 0.716461
0.507111 0.260315 0.812103
0.478149 0.297455 0.900696
0.439056 0.332642 0.997009
0.487518 0.476654 1.000000
0.636963 0.721252 1.000000
0.686066 0.762085 1.000000
0.736267 0.802460 1.000000
0.784637 0.841675 1.000000
0.834167 0.883026 1.000000
0.888275 0.925507 1.000000
0.941284 0.963409 1.000000
1.000000 1.000000 1.000000
1.000000 1.000000 1.000000
1.000000 1.000000 1.000000
1.000000 1.000000 1.000000
1.000000 1.000000 1.000000
1.000000 1.000000 1.000000
1.000000 1.000000 1.000000
1.000000 1.000000 1.000000
1.000000 1.000000 1.000000
1.000000 1.000000 1.000000
1.000000 1.000000 1.000000
1.000000 1.000000 1.000000
1.000000 1.000000 1.000000
1.000000 1.000000 1.000000
1.000000 1.000000 1.000000
0.995331 0.997131 1.000000
0.995972 0.997528 1.000000
0.995972 0.997528 1.000000
0.995972 0.997528 1.000000
0.995972 0.997528 1.000000
0.995972 0.997528 1.000000
0.995972 0.997528 1.000000
0.995972 0.997528 1.000000
0.996613 0.997955 1.000000
0.996613 0.997955 1.000000
0.996613 0.997955 1.000000
0.996613 0.997955 1.000000
0.996613 0.997955 1.000000
0.996613 0.997955 1.000000
0.996613 0.997955 1.000000
0.996613 0.997955 1.000000
0.997284 0.998352 1.000000
0.997284 0.998352 1.000000
0.997284 0.998352 1.000000
0.997284 0.998352 1.000000
0.997284 0.998352 1.000000
0.997284 0.998352 1.000000
0.997284 0.998352 1.000000
0.997986 0.998810 1.000000
0.997986 0.998810 1.000000
0.997986 0.998810 1.000000
0.997986 0.998810 1.000000
0.997986 0.998810 1.000000
0.997986 0.998810 1.000000
0.997986 0.998810 1.000000
0.997986 0.998810 1.000000
0.998657 0.999207 1.000000
0.992676 0.995422 1.000000
0.992676 0.995422 1.000000
0.992676 0.995422 1.000000
0.993378 0.995880 1.000000
0.993378 0.995880 1.000000
0.993378 0.995880 1.000000
0.993378 0.995880 1.000000
0.993378 0.995880 1.000000
0.993378 0.995880 1.000000
0.993378 0.995880 1.000000
0.994019 0.996277 1.000000
0.994019 0.996277 1.000000
0.994019 0.996277 1.000000
0.994019 0.996277 1.000000
0.994019 0.996277 1.000000
0.994019 0.996277 1.000000
0.994019 0.996277 1.000000
0.994690 0.996704 1.000000
0.994690 0.996704 1.000000
0.994690 0.996704 1.000000
0.994690 0.996704 1.000000
0.994690 0.996704 1.000000
0.994690 0.996704 1.000000
0.994690 0.996704 1.000000
0.994690 0.996704 1.000000
0.995331 0.997131 1.000000
0.995331 0.997131 1.000000
0.995331 0.997131 1.000000
0.995331 0.997131 1.000000
0.995331 0.997131 1.000000
0.995331 0.997131 1.000000
0.995331 0.997131 1.000000
0.886078 0.000000 0.119629
0.886078 0.000000 0.119629
0.886078 0.000000 0.119629
0.886078 0.000000 0.119629
0.886078 0.000000 0.119629
0.886078 0.000000 0.119629
0.886078 0.000000 0.119629
0.886078 0.000000 0.119629
0.886078 0.000000 0.119629
0.886078 0.000000 0.119629
0.886078 0.000000 0.119629
0.886078 0.000000 0.119629
0.886078 0.000000 0.119629
0.886078 0.000000 0.119629
0.886078 0.000000 0.119629
0.886078 0.000000 0.119629
0.886078 0.000000 0.119629
0.886078 0.000000 0.119629
0.886078 0.000000 0.119629
0.886078 0.000000 0.119629
0.886078 0.000000 0.119629
0.886078 0.000000 0.119629
0.886078 0.000000 0.119629
0.886078 0.000000 0.119629
0.886078 0.000000 0.119629
0.886078 0.000000 0.119629
0.886078 0.000000 0.119629
0.886078 0.000000 0.119629
0.886078 0.000000 0.119629
0.886078 0.000000 0.119629
0.886078 0.000000 0.119629
0.886078 0.000000 0.119629
0.886078 0.000000 0.119629
0.886078 0.000000 0.119629
0.886078 0.000000 0.119629
0.886078 0.000000 0.119629
0.886078 0.000000 0.119629
0.886078 0.000000 0.119629
0.886078 0.000000 0.119629
0.886078 0.000000 0.119629
0.886078 0.000000 0.119629
0.886078 0.000000 0.119629
0.886078 0.000000 0.119629
0.886078 0.000000 0.119629
0.886078 0.000000 0.119629
0.886078 0.000000 0.119629
0.886078 0.000000 0.119629
0.886078 0.000000 0.119629
0.886078 0.000000 0.119629
0.886078 0.000000 0.119629
0.886078 0.000000 0.119629
0.886078 0.000000 0.119629
0.886078 0.000000 0.119629
0.886078 0.000000 0.119629
0.886078 0.000000 0.119629
0.886078 0.000000 0.119629
0.886078 0.000000 0.119629
0.886078 0.000000 0.119629
0.886078 0.000000 0.119629
0.886078 0.000000 0.119629
0.886078 0.000000 0.119629
0.886078 0.000000 0.119629
0.886078 0.000000 0.119629
0.886078 0.000000 0.119629
0.886078 0.000000 0.119629
0.886078 0.000000 0.119629
0.886078 0.000000 0.119629
0.886078 0.000000 0.119629
0.886078 0.000000 0.119629
0.886078 0.000000 0.119629
0.886078 0.000000 0.119629
0.886078 0.000000 0.119629
0.886078 0.000000 0.119629
0.886078 0.000000 0.119629
0.886078 0.000000 0.119629
0.886078 0.000000 0.119629
0.886078 0.000000 0.119629
0.886078 0.000000 0.119629
0.886078 0.000000 0.119629
0.886078 0.000000 0.119629
0.886078 0.000000 0.119629
0.886078 0.000000 0.119629
0.886078 0.000000 0.119629
0.886078 0.000000 0.119629
0.886078 0.000000 0.119629
0.886078 0.000000 0.119629
0.886078 0.000000 0.119629
0.886078 0.000000 0.119629
0.886078 0.000000 0.119629
0.886078 0.000000 0.119629
0.886078 0.000000 0.119629
0.886078 0.000000 0.119629
0.886078 0.000000 0.119629
0.886078 0.000000 0.119629
0.886078 0.000000 0.119629
0.886078 0.000000 0.119629
0.000000 0.227814 0.784180
0.000000 0.227814 0.784180
0.000000 0.227814 0.784180
0.000000 0.227814 0.784180
0.000000 0.227814 0.784180
0.000000 0.227814 0.784180
0.000000 0.227814 0.784180
0.000000 0.227814 0.784180
0.000000 0.227814 0.784180
0.000000 0.227814 0.784180
0.000000 0.227814 0.784180
0.000000 0.227814 0.784180
0.000000 0.227814 0.784180
0.000000 0.227814 0.784180
0.000000 0.227814 0.784180
0.000000 0.227814 0.784180
0.000000 0.227814 0.784180
0.000000 0.227814 0.784180
0.000000 0.227814 0.784180
0.000000 0.227814 0.784180
0.000000 0.227814 0.784180
0.000000 0.227814 0.784180
0.000000 0.227814 0.784180
0.000000 0.227814 0.784180
0.000000 0.227814 0.784180
0.000000 0.227814 0.784180
0.000000 0.227814 0.784180
0.000000 0.227814 0.784180
0.000000 0.227814 0.784180
0.000000 0.227814 0.784180
0.000000 0.227814 0.784180
0.000000 0.227814 0.784180
0.000000 0.241211 0.803894
0.000000 0.253571 0.827606
0.000000 0.267090 0.847412
0.000000 0.280548 0.867279
0.000000 0.293030 0.891052
0.000000 0.306641 0.910828
0.000000 0.319366 0.934357
0.000000 0.332916 0.954285
0.000000 0.346954 0.974030
0.000000 0.360779 0.993774
0.017548 0.378052 1.000000
0.034882 0.395386 1.000000
0.054688 0.413788 1.000000
0.074463 0.431702 1.000000
0.098114 0.449097 1.000000
0.116211 0.462097 1.000000
0.133698 0.477600 1.000000
0.153503 0.494293 1.000000
0.169250 0.505127 1.000000
0.184998 0.516083 1.000000
0.201080 0.531677 1.000000
0.216827 0.542267 1.000000
0.226410 0.551056 1.000000
0.252838 0.556000 1.000000
0.271576 0.564301 1.000000
0.293091 0.566986 1.000000
0.311493 0.576080 1.000000
0.327850 0.584351 1.000000
0.345520 0.588715 1.000000
0.358643 0.595703 1.000000
0.374481 0.600952 1.000000
0.387238 0.608185 1.000000
0.940094 0.963409 1.000000
0.946045 0.967224 1.000000
0.946045 0.967224 1.000000
0.951569 0.970551 1.000000
0.952057 0.971008 1.000000
0.957550 0.974304 1.000000
0.958069 0.974762 1.000000
0.963654 0.978119 1.000000
0.964172 0.978546 1.000000
0.969727 0.981842 1.000000
0.971741 0.982880 1.000000
0.975830 0.985596 1.000000
0.981384 0.988861 1.000000
0.981964 0.989319 1.000000
0.987579 0.992615 1.000000
0.993744 0.996277 1.000000
0.993744 0.996277 1.000000
1.000000 1.000000 1.000000
1.000000 1.000000 1.000000
1.000000 1.000000 1.000000
1.000000 1.000000 1.000000
1.000000 1.000000 1.000000
1.000000 1.000000 1.000000
1.000000 1.000000 1.000000
1.000000 1.000000 1.000000
1.000000 1.000000 1.000000
1.000000 1.000000 1.000000
1.000000 1.000000 1.000000
1.000000 1.000000 1.000000
1.000000 1.000000 1.000000
1.000000 1.000000 1.000000
1.000000 1.000000 1.000000
1.000000 1.000000 1.000000
1.000000 1.000000 1.000000
1.000000 1.000000 1.000000
1.000000 1.000000 1.000000
1.000000 1.000000 1.000000
1.000000 1.000000 1.000000
1.000000 1.000000 1.000000
1.000000 1.000000 1.000000
1.000000 1.000000 1.000000
1.000000 1.000000 1.000000
1.000000 1.000000 1.000000
1.000000 1.000000 1.000000
1.000000 1.000000 1.000000
1.000000 1.000000 1.000000
1.000000 1.000000 1.000000
1.000000 1.000000 1.000000
1.000000 1.000000 1.000000
1.000000 1.000000 1.000000
0.993744 0.996277 1.000000
0.987579 0.992615 1.000000
0.981964 0.989319 1.000000
0.975830 0.985596 1.000000
0.975830 0.985596 1.000000
0.969727 0.981842 1.000000
0.964172 0.978546 1.000000
0.963654 0.978119 1.000000
0.958069 0.974762 1.000000
0.957550 0.974304 1.000000
0.952057 0.971008 1.000000
0.952057 0.971008 1.000000
0.951569 0.970551 1.000000
0.946045 0.967224 1.000000
0.946045 0.967224 1.000000
0.911041 0.944672 1.000000
0.868469 0.915955 1.000000
0.832642 0.891235 1.000000
0.794586 0.864349 1.000000
0.757202 0.836395 1.000000
0.719849 0.809235 1.000000
0.682953 0.783722 1.000000
0.642487 0.757172 1.000000
0.601379 0.731689 1.000000
0.559845 0.705566 1.000000
0.517151 0.680664 1.000000
0.478729 0.655884 1.000000
0.434814 0.630890 1.000000
0.393646 0.611847 1.000000
0.345520 0.588715 1.000000
0.290344 0.572754 1.000000
0.235138 0.546997 1.000000
0.212891 0.537079 1.000000
0.191528 0.522522 1.000000
0.177124 0.510620 1.000000
0.153503 0.494293 1.000000
0.141602 0.483215 1.000000
0.117950 0.466370 1.000000
0.105957 0.454987 1.000000
0.082367 0.437469 1.000000
0.064972 0.421082 1.000000
0.045135 0.402740 1.000000
0.029358 0.390747 1.000000
0.009552 0.371796 1.000000
0.000000 0.360168 0.991425
0.000000 0.345886 0.971710
0.062592 0.419830 1.000000
0.046844 0.407776 1.000000
0.034882 0.395386 1.000000
0.019135 0.383118 1.000000
0.007294 0.370361 1.000000
0.000000 0.360168 0.991425
0.000000 0.346954 0.974030
0.000000 0.337311 0.962097
0.000000 0.328766 0.946350
0.000000 0.319733 0.928131
0.000000 0.306641 0.910828
0.000000 0.298279 0.895020
0.000000 0.284637 0.875275
0.000000 0.276520 0.859314
0.000000 0.262817 0.839661
0.000000 0.249390 0.819824
0.000000 0.241211 0.803894
