GDW_Y2 - BF PJT/res/luts/gdw_y2_cool_filter_01.CUBE
#Created by: Adobe Photoshop Export Color Lookup Plugin
TITLE "GDW_2_Y2 - Filters 01.psd"
#LUT size
LUT_3D_SIZE 5
#data domain
#LUT data points
DOMAIN_MIN 0.000000 0.000000 0.000000
DOMAIN_MAX 0.903226 0.903226 0.903226
0.886078 0.000000 0.119629
0.886078 0.000000 0.119629
0.886078 0.000000 0.119629
0.886078 0.000000 0.119629
0.886078 0.000000 0.119629
0.000000 0.227814 0.784180
0.000000 0.227814 0.784180
0.000000 0.227814 0.784180
0.000000 0.227814 0.784180
0.000000 0.227814 0.784180
0.877869 0.000000 0.228668
0.978699 0.306793 0.949493
0.853851 0.868652 1.000000
1.000000 1.000000 1.000000
1.000000 1.000000 1.000000
0.886078 0.000000 0.119629
0.886078 0.000000 0.119629
0.886078 0.000000 0.119629
0.886078 0.000000 0.119629
0.886078 0.000000 0.119629
1.000000 0.006927 0.217377
0.954559 0.000000 0.165009
0.905640 0.000000 0.132233
0.886078 0.000000 0.119629
0.886078 0.000000 0.119629
0.886078 0.000000 0.119629
0.886078 0.000000 0.119629
0.886078 0.000000 0.119629
0.886078 0.000000 0.119629
0.886078 0.000000 0.119629
0.000000 0.227814 0.784180
0.000000 0.227814 0.784180
0.000000 0.227814 0.784180
0.000000 0.227814 0.784180
0.000000 0.227814 0.784180
0.213898 0.033112 0.218109
0.153320 0.320557 1.000000
0.782349 0.846222 1.000000
1.000000 1.000000 1.000000
1.000000 1.000000 1.000000
0.886078 0.000000 0.119629
0.886078 0.000000 0.119629
0.886078 0.000000 0.119629
0.886078 0.000000 0.119629
0.886078 0.000000 0.119629
1.000000 0.069946 0.320618
0.992767 0.000000 0.198761
0.915375 0.000000 0.138794
0.886078 0.000000 0.119629
0.886078 0.000000 0.119629
0.886078 0.000000 0.119629
0.886078 0.000000 0.119629
0.886078 0.000000 0.119629
0.886078 0.000000 0.119629
0.886078 0.000000 0.119629
0.000000 0.227814 0.784180
0.000000 0.227814 0.784180
0.000000 0.227814 0.784180
0.000000 0.227814 0.784180
0.000000 0.227814 0.784180
0.000000 0.243652 0.813385
0.382172 0.591217 1.000000
0.853851 0.868652 1.000000
1.000000 1.000000 1.000000
1.000000 1.000000 1.000000
0.886078 0.000000 0.119629
0.886078 0.000000 0.119629
0.886078 0.000000 0.119629
0.886078 0.000000 0.119629
0.886078 0.000000 0.119629
1.000000 0.196289 0.468628
1.000000 0.073486 0.322998
0.939972 0.000000 0.154663
0.886078 0.000000 0.119629
0.886078 0.000000 0.119629
0.886078 0.000000 0.119629
0.886078 0.000000 0.119629
0.886078 0.000000 0.119629
0.886078 0.000000 0.119629
0.886078 0.000000 0.119629
0.000000 0.227814 0.784180
0.000000 0.227814 0.784180
0.000000 0.227814 0.784180
0.000000 0.227814 0.784180
0.000000 0.227814 0.784180
0.000000 0.243134 0.810974
0.382172 0.591217 1.000000
0.853851 0.868652 1.000000
1.000000 1.000000 1.000000
1.000000 1.000000 1.000000
0.886078 0.000000 0.119629
0.886078 0.000000 0.119629
0.886078 0.000000 0.119629
0.886078 0.000000 0.119629
0.886078 0.000000 0.119629
1.000000 0.355988 0.780365
1.000000 0.166809 0.423309
0.978607 0.000000 0.184937
0.886078 0.000000 0.119629
0.886078 0.000000 0.119629
0.886078 0.000000 0.119629
0.886078 0.000000 0.119629
0.886078 0.000000 0.119629
0.886078 0.000000 0.119629
0.886078 0.000000 0.119629
0.000000 0.227814 0.784180
0.000000 0.227814 0.784180
0.000000 0.227814 0.784180
0.000000 0.227814 0.784180
0.000000 0.227814 0.784180
0.877869 0.000000 0.228668
0.978699 0.306793 0.949493
0.853851 0.868652 1.000000
1.000000 1.000000 1.000000
1.000000 1.000000 1.000000
0.886078 0.000000 0.119629
0.886078 0.000000 0.119629
0.000000 0.227814 0.784180
0.000000 0.227814 0.784180
0.886078 0.000000 0.119629
0.874481 0.643951 1.000000
1.000000 0.262390 0.583466
1.000000 0.016205 0.232605
0.886078 0.000000 0.119629
0.886078 0.000000 0.119629
