GDW_Y2 - BF PJT/res/luts/gdw_y2_cold_filter_01.CUBE
#Created by: Adobe Photoshop Export Color Lookup Plugin
TITLE "GDW_2_Y2 - Filters 01.psd"
#LUT size
LUT_3D_SIZE 32
#data domain
DOMAIN_MIN 0.0 0.0 0.0
DOMAIN_MAX 1.0 1.0 1.0
#LUT data points
0.899811 0.295776 0.078125
0.899811 0.295776 0.078125
0.899811 0.295776 0.078125
0.899811 0.295776 0.078125
0.899811 0.295776 0.078125
0.899811 0.295776 0.078125
0.899811 0.295776 0.078125
0.899811 0.295776 0.078125
0.899811 0.295776 0.078125
0.899811 0.295776 0.078125
0.899811 0.295776 0.078125
0.899811 0.295776 0.078125
0.899811 0.295776 0.078125
0.899811 0.295776 0.078125
0.899811 0.295776 0.078125
0.899811 0.295776 0.078125
0.899811 0.295776 0.078125
0.899811 0.295776 0.078125
0.899811 0.295776 0.078125
0.899811 0.295776 0.078125
0.899811 0.295776 0.078125
0.899811 0.295776 0.078125
0.899811 0.295776 0.078125
0.899811 0.295776 0.078125
0.899811 0.295776 0.078125
0.899811 0.295776 0.078125
0.899811 0.295776 0.078125
0.899811 0.295776 0.078125
0.899811 0.295776 0.078125
0.899811 0.295776 0.078125
0.899811 0.295776 0.078125
0.899811 0.295776 0.078125
0.899811 0.295776 0.078125
0.899811 0.295776 0.078125
0.899811 0.295776 0.078125
0.899811 0.295776 0.078125
0.899811 0.295776 0.078125
0.899811 0.295776 0.078125
0.899811 0.295776 0.078125
0.899811 0.295776 0.078125
0.899811 0.295776 0.078125
0.899811 0.295776 0.078125
0.899811 0.295776 0.078125
0.899811 0.295776 0.078125
0.899811 0.295776 0.078125
0.899811 0.295776 0.078125
0.899811 0.295776 0.078125
0.899811 0.295776 0.078125
0.899811 0.295776 0.078125
0.899811 0.295776 0.078125
0.899811 0.295776 0.078125
0.899811 0.295776 0.078125
0.899811 0.295776 0.078125
0.899811 0.295776 0.078125
0.899811 0.295776 0.078125
0.899811 0.295776 0.078125
0.899811 0.295776 0.078125
0.899811 0.295776 0.078125
0.899811 0.295776 0.078125
0.899811 0.295776 0.078125
0.899811 0.295776 0.078125
0.899811 0.295776 0.078125
0.899811 0.295776 0.078125
0.899811 0.295776 0.078125
0.899811 0.295776 0.078125
0.899811 0.295776 0.078125
0.899811 0.295776 0.078125
0.899811 0.295776 0.078125
0.899811 0.295776 0.078125
0.899811 0.295776 0.078125
0.899811 0.295776 0.078125
0.899811 0.295776 0.078125
0.899811 0.295776 0.078125
0.899811 0.295776 0.078125
0.899811 0.295776 0.078125
0.899811 0.295776 0.078125
0.899811 0.295776 0.078125
0.899811 0.295776 0.078125
0.899811 0.295776 0.078125
0.899811 0.295776 0.078125
0.899811 0.295776 0.078125
0.899811 0.295776 0.078125
0.899811 0.295776 0.078125
0.899811 0.295776 0.078125
0.899811 0.295776 0.078125
0.899811 0.295776 0.078125
0.899811 0.295776 0.078125
0.899811 0.295776 0.078125
0.899811 0.295776 0.078125
0.899811 0.295776 0.078125
0.899811 0.295776 0.078125
0.899811 0.295776 0.078125
0.899811 0.295776 0.078125
0.899811 0.295776 0.078125
0.899811 0.295776 0.078125
0.899811 0.295776 0.078125
0.899811 0.295776 0.078125
0.899811 0.295776 0.078125
0.899811 0.295776 0.078125
0.899811 0.295776 0.078125
0.899811 0.295776 0.078125
0.899811 0.295776 0.078125
0.899811 0.295776 0.078125
0.899811 0.295776 0.078125
0.899811 0.295776 0.078125
0.899811 0.295776 0.078125
0.899811 0.295776 0.078125
0.899811 0.295776 0.078125
0.899811 0.295776 0.078125
0.899811 0.295776 0.078125
0.899811 0.295776 0.078125
0.899811 0.295776 0.078125
0.899811 0.295776 0.078125
0.899811 0.295776 0.078125
0.899811 0.295776 0.078125
0.899811 0.295776 0.078125
0.899811 0.295776 0.078125
0.899811 0.295776 0.078125
0.899811 0.295776 0.078125
0.899811 0.295776 0.078125
0.899811 0.295776 0.078125
0.899811 0.295776 0.078125
0.899811 0.295776 0.078125
0.899811 0.295776 0.078125
0.899811 0.295776 0.078125
0.899811 0.295776 0.078125
0.899811 0.295776 0.078125
0.899811 0.295776 0.078125
0.899811 0.295776 0.078125
0.899811 0.295776 0.078125
0.899811 0.295776 0.078125
0.899811 0.295776 0.078125
0.899811 0.295776 0.078125
0.899811 0.295776 0.078125
0.899811 0.295776 0.078125
0.899811 0.295776 0.078125
0.899811 0.295776 0.078125
0.899811 0.295776 0.078125
0.899811 0.295776 0.078125
0.899811 0.295776 0.078125
0.899811 0.295776 0.078125
0.899811 0.295776 0.078125
0.899811 0.295776 0.078125
0.899811 0.295776 0.078125
0.899811 0.295776 0.078125
0.899811 0.295776 0.078125
0.899811 0.295776 0.078125
0.899811 0.295776 0.078125
0.899811 0.295776 0.078125
0.899811 0.295776 0.078125
0.899811 0.295776 0.078125
0.899811 0.295776 0.078125
0.899811 0.295776 0.078125
0.899811 0.295776 0.078125
0.899811 0.295776 0.078125
0.899811 0.295776 0.078125
0.899811 0.295776 0.078125
0.899811 0.295776 0.078125
0.899811 0.295776 0.078125
0.899811 0.295776 0.078125
0.899811 0.295776 0.078125
0.899811 0.295776 0.078125
0.899811 0.295776 0.078125
0.899811 0.295776 0.078125
0.899811 0.295776 0.078125
0.899811 0.295776 0.078125
0.899811 0.295776 0.078125
0.899811 0.295776 0.078125
0.899811 0.295776 0.078125
0.899811 0.295776 0.078125
0.899811 0.295776 0.078125
0.899811 0.295776 0.078125
0.899811 0.295776 0.078125
0.899811 0.295776 0.078125
0.899811 0.295776 0.078125
0.899811 0.295776 0.078125
0.899811 0.295776 0.078125
0.899811 0.295776 0.078125
0.899811 0.295776 0.078125
0.899811 0.295776 0.078125
0.899811 0.295776 0.078125
0.899811 0.295776 0.078125
0.899811 0.295776 0.078125
0.899811 0.295776 0.078125
0.899811 0.295776 0.078125
0.899811 0.295776 0.078125
0.899811 0.295776 0.078125
0.899811 0.295776 0.078125
0.899811 0.295776 0.078125
0.899811 0.295776 0.078125
0.899811 0.295776 0.078125
0.899811 0.295776 0.078125
0.217316 0.154327 0.730133
0.217316 0.154327 0.730133
0.217316 0.154327 0.730133
0.217316 0.154327 0.730133
0.217316 0.154327 0.730133
0.217316 0.154327 0.730133
0.217316 0.154327 0.730133
0.217316 0.154327 0.730133
0.217316 0.154327 0.730133
0.217316 0.154327 0.730133
0.217316 0.154327 0.730133
0.217316 0.154327 0.730133
0.217316 0.154327 0.730133
0.217316 0.154327 0.730133
0.217316 0.154327 0.730133
0.217316 0.154327 0.730133
0.217316 0.154327 0.730133
0.217316 0.154327 0.730133
0.217316 0.154327 0.730133
0.217316 0.154327 0.730133
0.217316 0.154327 0.730133
0.217316 0.154327 0.730133
0.217316 0.154327 0.730133
0.217316 0.154327 0.730133
0.217316 0.154327 0.730133
0.217316 0.154327 0.730133
0.217316 0.154327 0.730133
0.217316 0.154327 0.730133
0.217316 0.154327 0.730133
0.217316 0.154327 0.730133
0.217316 0.154327 0.730133
0.217316 0.154327 0.730133
0.217316 0.154327 0.730133
0.217316 0.154327 0.730133
0.217316 0.154327 0.730133
0.217316 0.154327 0.730133
0.217316 0.154327 0.730133
0.217316 0.154327 0.730133
0.217316 0.154327 0.730133
0.217316 0.154327 0.730133
0.217316 0.154327 0.730133
0.217316 0.154327 0.730133
0.217316 0.154327 0.730133
0.217316 0.154327 0.730133
0.217316 0.154327 0.730133
0.217316 0.154327 0.730133
0.217316 0.154327 0.730133
0.217316 0.154327 0.730133
0.217316 0.154327 0.730133
0.217316 0.154327 0.730133
0.217316 0.154327 0.730133
0.217316 0.154327 0.730133
0.217316 0.154327 0.730133
0.217316 0.154327 0.730133
0.217316 0.154327 0.730133
0.217316 0.154327 0.730133
0.217316 0.154327 0.730133
0.217316 0.154327 0.730133
0.217316 0.154327 0.730133
0.217316 0.154327 0.730133
0.217316 0.154327 0.730133
0.217316 0.154327 0.730133
0.217316 0.154327 0.730133
0.217316 0.154327 0.730133
0.217316 0.154327 0.730133
0.217316 0.154327 0.730133
0.217316 0.154327 0.730133
0.217316 0.154327 0.730133
0.217316 0.154327 0.730133
0.217316 0.154327 0.730133
0.217316 0.154327 0.730133
0.217316 0.154327 0.730133
0.217316 0.154327 0.730133
0.217316 0.154327 0.730133
0.217316 0.154327 0.730133
0.217316 0.154327 0.730133
0.217316 0.154327 0.730133
0.217316 0.154327 0.730133
0.217316 0.154327 0.730133
0.217316 0.154327 0.730133
0.217316 0.154327 0.730133
0.217316 0.154327 0.730133
0.217316 0.154327 0.730133
0.217316 0.154327 0.730133
0.217316 0.154327 0.730133
0.217316 0.154327 0.730133
0.217316 0.154327 0.730133
0.217316 0.154327 0.730133
0.217316 0.154327 0.730133
0.217316 0.154327 0.730133
0.217316 0.154327 0.730133
0.217316 0.154327 0.730133
0.217316 0.154327 0.730133
0.217316 0.154327 0.730133
0.217316 0.154327 0.730133
0.217316 0.154327 0.730133
0.936005 0.920013 1.000000
0.937500 0.922760 1.000000
0.939087 0.925568 1.000000
0.940674 0.928375 1.000000
0.942413 0.931244 1.000000
0.944305 0.934204 1.000000
0.946167 0.937134 1.000000
0.948212 0.940155 1.000000
0.952576 0.946350 1.000000
0.955017 0.949585 1.000000
0.957458 0.952789 1.000000
0.960052 0.956116 1.000000
0.962738 0.959442 1.000000
0.965454 0.962799 1.000000
0.968353 0.966248 1.000000
0.971436 0.969788 1.000000
0.974609 0.973358 1.000000
0.977844 0.976990 1.000000
0.981201 0.980652 1.000000
0.984711 0.984406 1.000000
0.988434 0.988251 1.000000
0.992126 0.992096 1.000000
0.996033 0.996033 1.000000
1.000000 1.000000 1.000000
1.000000 1.000000 1.000000
1.000000 1.000000 1.000000
1.000000 1.000000 1.000000
1.000000 1.000000 1.000000
1.000000 1.000000 1.000000
1.000000 1.000000 1.000000
1.000000 1.000000 1.000000
1.000000 1.000000 1.000000
1.000000 1.000000 1.000000
1.000000 1.000000 1.000000
1.000000 1.000000 1.000000
1.000000 1.000000 1.000000
1.000000 1.000000 1.000000
1.000000 1.000000 1.000000
1.000000 1.000000 1.000000
1.000000 1.000000 1.000000
1.000000 1.000000 1.000000
1.000000 1.000000 1.000000
1.000000 1.000000 1.000000
1.000000 1.000000 1.000000
1.000000 1.000000 1.000000
1.000000 1.000000 1.000000
1.000000 1.000000 1.000000
1.000000 1.000000 1.000000
1.000000 1.000000 1.000000
1.000000 1.000000 1.000000
1.000000 1.000000 1.000000
1.000000 1.000000 1.000000
1.000000 1.000000 1.000000
1.000000 1.000000 1.000000
1.000000 1.000000 1.000000
1.000000 1.000000 1.000000
1.000000 1.000000 1.000000
1.000000 1.000000 1.000000
1.000000 1.000000 1.000000
1.000000 1.000000 1.000000
1.000000 1.000000 1.000000
1.000000 1.000000 1.000000
1.000000 1.000000 1.000000
1.000000 1.000000 1.000000
1.000000 0.665161 0.979065
0.996094 0.703735 1.000000
0.976471 0.728546 1.000000
0.960846 0.751709 1.000000
0.948639 0.773499 1.000000
0.939423 0.793945 1.000000
0.932922 0.813385 1.000000
0.928345 0.835388 1.000000
0.926727 0.852753 1.000000
0.924805 0.867889 1.000000
0.923981 0.877594 1.000000
0.925354 0.890472 1.000000
0.929138 0.904449 1.000000
0.936005 0.920013 1.000000
0.946167 0.937134 1.000000
0.960052 0.956116 1.000000
0.977844 0.976990 1.000000
1.000000 1.000000 1.000000
1.000000 1.000000 1.000000
1.000000 1.000000 1.000000
1.000000 1.000000 1.000000
1.000000 1.000000 1.000000
1.000000 1.000000 1.000000
1.000000 1.000000 1.000000
1.000000 1.000000 1.000000
1.000000 1.000000 1.000000
1.000000 1.000000 1.000000
1.000000 1.000000 1.000000
1.000000 1.000000 1.000000
1.000000 1.000000 1.000000
1.000000 1.000000 1.000000
1.000000 1.000000 1.000000
0.681000 0.242279 0.117676
0.722595 0.236481 0.155487
0.726532 0.274353 0.221313
0.738037 0.296936 0.282715
0.751495 0.338379 0.365906
0.767273 0.397614 0.472260
0.783142 0.453064 0.573212
0.809387 0.507385 0.681458
0.885559 0.555328 0.819214
0.957611 0.600372 0.949158
0.950195 0.666687 1.000000
0.918610 0.746124 1.000000
0.906708 0.798859 1.000000
0.899780 0.833893 1.000000
0.905945 0.865906 1.000000
0.922882 0.905151 1.000000
0.951630 0.947327 1.000000
1.000000 1.000000 1.000000
1.000000 1.000000 1.000000
1.000000 1.000000 1.000000
1.000000 1.000000 1.000000
1.000000 1.000000 1.000000
1.000000 1.000000 1.000000
1.000000 1.000000 1.000000
1.000000 1.000000 1.000000
1.000000 1.000000 1.000000
1.000000 1.000000 1.000000
1.000000 1.000000 1.000000
1.000000 1.000000 1.000000
1.000000 1.000000 1.000000
1.000000 1.000000 1.000000
1.000000 1.000000 1.000000
0.223419 0.167053 0.754456
0.220703 0.178802 0.809601
0.221466 0.189148 0.868042
0.218170 0.200714 0.923248
0.947754 0.343750 0.270874
0.938721 0.362335 0.330566
0.931458 0.388275 0.404053
0.924225 0.445465 0.512665
0.915955 0.502899 0.624420
0.891846 0.557098 0.761993
0.950195 0.666687 1.000000
0.918610 0.746124 1.000000
0.906708 0.798859 1.000000
0.899780 0.833893 1.000000
0.905945 0.865906 1.000000
0.922882 0.905151 1.000000
0.951630 0.947327 1.000000
1.000000 1.000000 1.000000
1.000000 1.000000 1.000000
1.000000 1.000000 1.000000
1.000000 1.000000 1.000000
1.000000 1.000000 1.000000
1.000000 1.000000 1.000000
1.000000 1.000000 1.000000
1.000000 1.000000 1.000000
1.000000 1.000000 1.000000
1.000000 1.000000 1.000000
1.000000 1.000000 1.000000
1.000000 1.000000 1.000000
1.000000 1.000000 1.000000
1.000000 1.000000 1.000000
1.000000 1.000000 1.000000
0.815613 0.246887 0.154755
0.811035 0.286804 0.212097
0.811981 0.310425 0.264435
0.811584 0.324890 0.318390
0.815430 0.367432 0.400238
0.819244 0.416107 0.490509
0.818939 0.465332 0.584625
0.826782 0.517609 0.689636
0.891907 0.558838 0.816132
0.957611 0.600372 0.949158
0.950195 0.666687 1.000000
0.918610 0.746124 1.000000
0.906708 0.798859 1.000000
0.899780 0.833893 1.000000
0.905945 0.865906 1.000000
0.922882 0.905151 1.000000
0.951630 0.947327 1.000000
1.000000 1.000000 1.000000
1.000000 1.000000 1.000000
1.000000 1.000000 1.000000
1.000000 1.000000 1.000000
1.000000 1.000000 1.000000
1.000000 1.000000 1.000000
1.000000 1.000000 1.000000
1.000000 1.000000 1.000000
1.000000 1.000000 1.000000
1.000000 1.000000 1.000000
1.000000 1.000000 1.000000
1.000000 1.000000 1.000000
1.000000 1.000000 1.000000
1.000000 1.000000 1.000000
1.000000 1.000000 1.000000
0.815613 0.246887 0.154755
0.811035 0.286804 0.212097
0.811981 0.310425 0.264435
0.811584 0.324890 0.318390
0.815430 0.367432 0.400238
0.819244 0.416107 0.490509
0.818939 0.465332 0.584625
0.826782 0.517609 0.689636
0.891907 0.558838 0.816132
0.957611 0.600372 0.949158
0.950195 0.666687 1.000000
0.918610 0.746124 1.000000
0.906708 0.798859 1.000000
0.899780 0.833893 1.000000
0.905945 0.865906 1.000000
0.922882 0.905151 1.000000
0.936523 0.932709 1.000000
1.000000 1.000000 1.000000
1.000000 1.000000 1.000000
1.000000 1.000000 1.000000
1.000000 1.000000 1.000000
1.000000 1.000000 1.000000
1.000000 1.000000 1.000000
1.000000 1.000000 1.000000
1.000000 1.000000 1.000000
1.000000 1.000000 1.000000
1.000000 1.000000 1.000000
1.000000 1.000000 1.000000
1.000000 1.000000 1.000000
1.000000 1.000000 1.000000
1.000000 1.000000 1.000000
1.000000 1.000000 1.000000
0.418121 0.185638 0.164124
0.445251 0.211884 0.223907
0.469116 0.262756 0.312317
0.492035 0.314026 0.403259
0.555237 0.359985 0.505890
0.627655 0.401825 0.622467
0.662598 0.447510 0.701416
0.687500 0.493378 0.770905
0.710754 0.539612 0.845306
0.731598 0.581573 0.938232
0.722778 0.666901 1.000000
0.757416 0.711975 1.000000
0.794067 0.758026 1.000000
0.829071 0.802399 1.000000
0.863861 0.847839 1.000000
0.904327 0.897491 1.000000
0.947357 0.946106 1.000000
1.000000 1.000000 1.000000
1.000000 1.000000 1.000000
1.000000 1.000000 1.000000
1.000000 1.000000 1.000000
1.000000 1.000000 1.000000
1.000000 1.000000 1.000000
1.000000 1.000000 1.000000
1.000000 1.000000 1.000000
1.000000 1.000000 1.000000
1.000000 1.000000 1.000000
1.000000 1.000000 1.000000
1.000000 1.000000 1.000000
1.000000 1.000000 1.000000
1.000000 1.000000 1.000000
1.000000 1.000000 1.000000
0.995789 0.995728 1.000000
0.996338 0.996307 1.000000
0.996338 0.996307 1.000000
0.996338 0.996307 1.000000
0.996338 0.996307 1.000000
0.996338 0.996307 1.000000
0.996338 0.996307 1.000000
0.996338 0.996307 1.000000
0.996918 0.996887 1.000000
0.996918 0.996887 1.000000
0.996918 0.996887 1.000000
0.996918 0.996887 1.000000
0.996918 0.996887 1.000000
0.996918 0.996887 1.000000
0.996918 0.996887 1.000000
0.996918 0.996887 1.000000
0.997559 0.997528 1.000000
0.997559 0.997528 1.000000
0.997559 0.997528 1.000000
0.997559 0.997528 1.000000
0.997559 0.997528 1.000000
0.997559 0.997528 1.000000
0.997559 0.997528 1.000000
0.998169 0.998169 1.000000
0.998169 0.998169 1.000000
0.998169 0.998169 1.000000
0.998169 0.998169 1.000000
0.998169 0.998169 1.000000
0.998169 0.998169 1.000000
0.998169 0.998169 1.000000
0.998169 0.998169 1.000000
0.998779 0.998779 1.000000
0.993469 0.993286 1.000000
0.993469 0.993286 1.000000
0.993469 0.993286 1.000000
0.994080 0.993927 1.000000
0.994080 0.993927 1.000000
0.994080 0.993927 1.000000
0.994080 0.993927 1.000000
0.994080 0.993927 1.000000
0.994080 0.993927 1.000000
0.994080 0.993927 1.000000
0.994629 0.994507 1.000000
0.994629 0.994507 1.000000
0.994629 0.994507 1.000000
0.994629 0.994507 1.000000
0.994629 0.994507 1.000000
0.994629 0.994507 1.000000
0.994629 0.994507 1.000000
0.995209 0.995117 1.000000
0.995209 0.995117 1.000000
0.995209 0.995117 1.000000
0.995209 0.995117 1.000000
0.995209 0.995117 1.000000
0.995209 0.995117 1.000000
0.995209 0.995117 1.000000
0.995209 0.995117 1.000000
0.995789 0.995728 1.000000
0.995789 0.995728 1.000000
0.995789 0.995728 1.000000
0.995789 0.995728 1.000000
0.995789 0.995728 1.000000
0.995789 0.995728 1.000000
0.995789 0.995728 1.000000
0.899811 0.295776 0.078125
0.899811 0.295776 0.078125
0.899811 0.295776 0.078125
0.899811 0.295776 0.078125
0.899811 0.295776 0.078125
0.899811 0.295776 0.078125
0.899811 0.295776 0.078125
0.899811 0.295776 0.078125
0.899811 0.295776 0.078125
0.899811 0.295776 0.078125
0.899811 0.295776 0.078125
0.899811 0.295776 0.078125
0.899811 0.295776 0.078125
0.899811 0.295776 0.078125
0.899811 0.295776 0.078125
0.899811 0.295776 0.078125
0.899811 0.295776 0.078125
0.899811 0.295776 0.078125
0.899811 0.295776 0.078125
0.899811 0.295776 0.078125
0.899811 0.295776 0.078125
0.899811 0.295776 0.078125
0.899811 0.295776 0.078125
0.899811 0.295776 0.078125
0.899811 0.295776 0.078125
0.899811 0.295776 0.078125
0.899811 0.295776 0.078125
0.899811 0.295776 0.078125
0.899811 0.295776 0.078125
0.899811 0.295776 0.078125
0.899811 0.295776 0.078125
0.899811 0.295776 0.078125
0.899811 0.295776 0.078125
0.899811 0.295776 0.078125
0.899811 0.295776 0.078125
0.899811 0.295776 0.078125
0.899811 0.295776 0.078125
0.899811 0.295776 0.078125
0.899811 0.295776 0.078125
0.899811 0.295776 0.078125
0.899811 0.295776 0.078125
0.899811 0.295776 0.078125
0.899811 0.295776 0.078125
0.899811 0.295776 0.078125
0.899811 0.295776 0.078125
0.899811 0.295776 0.078125
0.899811 0.295776 0.078125
0.899811 0.295776 0.078125
0.899811 0.295776 0.078125
0.899811 0.295776 0.078125
0.899811 0.295776 0.078125
0.899811 0.295776 0.078125
0.899811 0.295776 0.078125
0.899811 0.295776 0.078125
0.899811 0.295776 0.078125
0.899811 0.295776 0.078125
0.899811 0.295776 0.078125
0.899811 0.295776 0.078125
0.899811 0.295776 0.078125
0.899811 0.295776 0.078125
0.899811 0.295776 0.078125
0.899811 0.295776 0.078125
0.899811 0.295776 0.078125
0.899811 0.295776 0.078125
0.899811 0.295776 0.078125
0.899811 0.295776 0.078125
0.899811 0.295776 0.078125
0.899811 0.295776 0.078125
0.899811 0.295776 0.078125
0.899811 0.295776 0.078125
0.899811 0.295776 0.078125
0.899811 0.295776 0.078125
0.899811 0.295776 0.078125
0.899811 0.295776 0.078125
0.899811 0.295776 0.078125
0.899811 0.295776 0.078125
0.899811 0.295776 0.078125
0.899811 0.295776 0.078125
0.899811 0.295776 0.078125
0.899811 0.295776 0.078125
0.899811 0.295776 0.078125
0.899811 0.295776 0.078125
0.899811 0.295776 0.078125
0.899811 0.295776 0.078125
0.899811 0.295776 0.078125
0.899811 0.295776 0.078125
0.899811 0.295776 0.078125
0.899811 0.295776 0.078125
0.899811 0.295776 0.078125
0.899811 0.295776 0.078125
0.899811 0.295776 0.078125
0.899811 0.295776 0.078125
0.899811 0.295776 0.078125
0.899811 0.295776 0.078125
0.899811 0.295776 0.078125
0.899811 0.295776 0.078125
0.217316 0.154327 0.730133
0.217316 0.154327 0.730133
0.217316 0.154327 0.730133
0.217316 0.154327 0.730133
0.217316 0.154327 0.730133
0.217316 0.154327 0.730133
0.217316 0.154327 0.730133
0.217316 0.154327 0.730133
0.217316 0.154327 0.730133
0.217316 0.154327 0.730133
0.217316 0.154327 0.730133
0.217316 0.154327 0.730133
0.217316 0.154327 0.730133
0.217316 0.154327 0.730133
0.217316 0.154327 0.730133
0.217316 0.154327 0.730133
0.217316 0.154327 0.730133
0.217316 0.154327 0.730133
0.217316 0.154327 0.730133
0.217316 0.154327 0.730133
0.217316 0.154327 0.730133
0.217316 0.154327 0.730133
0.217316 0.154327 0.730133
0.217316 0.154327 0.730133
0.217316 0.154327 0.730133
0.217316 0.154327 0.730133
0.217316 0.154327 0.730133
0.217316 0.154327 0.730133
0.217316 0.154327 0.730133
0.217316 0.154327 0.730133
0.217316 0.154327 0.730133
0.217316 0.154327 0.730133
0.216461 0.157867 0.744659
0.217163 0.160797 0.763458
0.216431 0.164459 0.777985
0.215759 0.168030 0.792633
0.216644 0.170990 0.811462
0.215820 0.174622 0.826019
0.216187 0.177399 0.844788
0.215668 0.181061 0.859406
0.214966 0.184662 0.873962
0.214050 0.188232 0.888489
0.214783 0.191162 0.907379
0.212585 0.193604 0.920807
0.211975 0.197205 0.935425
0.211212 0.200775 0.949982
0.211853 0.203644 0.968811
0.213226 0.206604 0.982452
0.211456 0.209137 0.995972
0.223297 0.225372 1.000000
0.237762 0.241119 1.000000
0.252228 0.256989 1.000000
0.266968 0.277161 1.000000
0.281372 0.292603 1.000000
0.290192 0.304230 1.000000
0.314453 0.318481 1.000000
0.331665 0.332977 1.000000
0.359467 0.351379 1.000000
0.378174 0.368317 1.000000
0.394562 0.383270 1.000000
0.416504 0.399506 1.000000
0.429352 0.411530 1.000000
0.447784 0.426056 1.000000
0.459869 0.437775 1.000000
0.945618 0.945038 1.000000
0.950897 0.950500 1.000000
0.950897 0.950500 1.000000
0.955902 0.955566 1.000000
0.956207 0.956024 1.000000
0.961212 0.961029 1.000000
0.961609 0.961548 1.000000
0.966766 0.966675 1.000000
0.967133 0.967194 1.000000
0.972229 0.972229 1.000000
0.974213 0.974060 1.000000
0.977844 0.977936 1.000000
0.982941 0.982971 1.000000
0.983459 0.983551 1.000000
0.988617 0.988678 1.000000
0.994263 0.994293 1.000000
0.994263 0.994293 1.000000
1.000000 1.000000 1.000000
1.000000 1.000000 1.000000
1.000000 1.000000 1.000000
1.000000 1.000000 1.000000
1.000000 1.000000 1.000000
1.000000 1.000000 1.000000
1.000000 1.000000 1.000000
1.000000 1.000000 1.000000
1.000000 1.000000 1.000000
1.000000 1.000000 1.000000
1.000000 1.000000 1.000000
1.000000 1.000000 1.000000
1.000000 1.000000 1.000000
1.000000 1.000000 1.000000
1.000000 1.000000 1.000000
1.000000 1.000000 1.000000
1.000000 1.000000 1.000000
1.000000 1.000000 1.000000
1.000000 1.000000 1.000000
1.000000 1.000000 1.000000
1.000000 1.000000 1.000000
1.000000 1.000000 1.000000
1.000000 1.000000 1.000000
1.000000 1.000000 1.000000
1.000000 1.000000 1.000000
1.000000 1.000000 1.000000
1.000000 1.000000 1.000000
1.000000 1.000000 1.000000
1.000000 1.000000 1.000000
1.000000 1.000000 1.000000
1.000000 1.000000 1.000000
1.000000 1.000000 1.000000
1.000000 1.000000 1.000000
0.994263 0.994293 1.000000
0.988617 0.988678 1.000000
0.983459 0.983551 1.000000
0.977844 0.977936 1.000000
0.977844 0.977936 1.000000
0.972229 0.972229 1.000000
0.967133 0.967194 1.000000
0.966766 0.966675 1.000000
0.961609 0.961548 1.000000
0.961212 0.961029 1.000000
0.956207 0.956024 1.000000
0.956207 0.956024 1.000000
0.955902 0.955566 1.000000
0.950897 0.950500 1.000000
0.950897 0.950500 1.000000
0.920135 0.918396 1.000000
0.883972 0.879303 1.000000
0.854034 0.846436 1.000000
0.822876 0.811523 1.000000
0.793640 0.777222 1.000000
0.763733 0.742950 1.000000
0.732971 0.709106 1.000000
0.697937 0.671997 1.000000
0.660950 0.634247 1.000000
0.623962 0.596161 1.000000
0.584137 0.556976 1.000000
0.550446 0.521729 1.000000
0.508881 0.481415 1.000000
0.465912 0.443634 1.000000
0.416504 0.399506 1.000000
0.349945 0.348846 1.000000
0.298218 0.303711 1.000000
0.277771 0.286407 1.000000
0.258179 0.265228 1.000000
0.245026 0.249084 1.000000
0.223297 0.225372 1.000000
0.213898 0.212372 1.000000
0.211029 0.207245 0.983459
0.211914 0.204590 0.975098
0.211487 0.201721 0.956299
0.213409 0.199249 0.942810
0.214111 0.195679 0.928162
0.213867 0.193787 0.915649
0.214447 0.190155 0.901031
0.212830 0.187195 0.887390
0.213745 0.183624 0.872864
0.212189 0.198212 0.941681
0.211853 0.196289 0.929169
0.212585 0.193604 0.920807
0.212341 0.191711 0.908264
0.213440 0.189148 0.900024
0.212830 0.187195 0.887390
0.214966 0.184662 0.873962
0.215881 0.182007 0.865692
0.215454 0.180115 0.853119
0.213806 0.177094 0.839417
0.215820 0.174622 0.826019
0.215363 0.172668 0.813416
0.216125 0.169067 0.798950
0.215424 0.167053 0.786285
0.216400 0.163513 0.771851
0.217010 0.159851 0.757263
0.216461 0.157867 0.744659
