GDW_Y2 - BF PJT/res/luts/gdw_y2_cold_filter_01.CUBE
#Created by: Adobe Photoshop Export Color Lookup Plugin
TITLE "GDW_2_Y2 - Filters 01.psd"
#LUT size
LUT_3D_SIZE 5
#data domain
#LUT data points
DOMAIN_MIN 0.000000 0.000000 0.000000
DOMAIN_MAX 0.903226 0.903226 0.903226
0.899811 0.295776 0.078125
0.899811 0.295776 0.078125
0.899811 0.295776 0.078125
0.899811 0.295776 0.078125
0.899811 0.295776 0.078125
0.217316 0.154327 0.730133
0.217316 0.154327 0.730133
0.217316 0.154327 0.730133
0.217316 0.154327 0.730133
0.217316 0.154327 0.730133
0.815613 0.246887 0.154755
0.826782 0.517609 0.689636
0.905945 0.865906 1.000000
1.000000 1.000000 1.000000
1.000000 1.000000 1.000000
0.899811 0.295776 0.078125
0.899811 0.295776 0.078125
0.899811 0.295776 0.078125
0.899811 0.295776 0.078125
0.899811 0.295776 0.078125
0.953949 0.288849 0.134888
0.930634 0.296417 0.110107
0.908539 0.295837 0.087311
0.899811 0.295776 0.078125
0.899811 0.295776 0.078125
0.899811 0.295776 0.078125
0.899811 0.295776 0.078125
0.899811 0.295776 0.078125
0.899811 0.295776 0.078125
0.899811 0.295776 0.078125
0.217316 0.154327 0.730133
0.217316 0.154327 0.730133
0.217316 0.154327 0.730133
0.217316 0.154327 0.730133
0.217316 0.154327 0.730133
0.240265 0.155151 0.208191
0.487366 0.402893 0.820282
0.821564 0.800293 1.000000
1.000000 1.000000 1.000000
1.000000 1.000000 1.000000
0.899811 0.295776 0.078125
0.899811 0.295776 0.078125
0.899811 0.295776 0.078125
0.899811 0.295776 0.078125
0.899811 0.295776 0.078125
0.977631 0.274414 0.169006
0.947632 0.291840 0.128174
0.912933 0.295715 0.091858
0.899811 0.295776 0.078125
0.899811 0.295776 0.078125
0.899811 0.295776 0.078125
0.899811 0.295776 0.078125
0.899811 0.295776 0.078125
0.899811 0.295776 0.078125
0.899811 0.295776 0.078125
0.217316 0.154327 0.730133
0.217316 0.154327 0.730133
0.217316 0.154327 0.730133
0.217316 0.154327 0.730133
0.217316 0.154327 0.730133
0.221069 0.162170 0.749023
0.468018 0.433136 1.000000
0.905945 0.865906 1.000000
1.000000 1.000000 1.000000
1.000000 1.000000 1.000000
0.899811 0.295776 0.078125
0.899811 0.295776 0.078125
0.899811 0.295776 0.078125
0.899811 0.295776 0.078125
0.899811 0.295776 0.078125
0.939911 0.360168 0.322632
0.975922 0.278687 0.173950
0.924042 0.296478 0.103302
0.899811 0.295776 0.078125
0.899811 0.295776 0.078125
0.899811 0.295776 0.078125
0.899811 0.295776 0.078125
0.899811 0.295776 0.078125
0.899811 0.295776 0.078125
0.899811 0.295776 0.078125
0.217316 0.154327 0.730133
0.217316 0.154327 0.730133
0.217316 0.154327 0.730133
0.217316 0.154327 0.730133
0.217316 0.154327 0.730133
0.219818 0.161072 0.747925
0.468018 0.433136 1.000000
0.905945 0.865906 1.000000
1.000000 1.000000 1.000000
1.000000 1.000000 1.000000
0.899811 0.295776 0.078125
0.899811 0.295776 0.078125
0.899811 0.295776 0.078125
0.899811 0.295776 0.078125
0.899811 0.295776 0.078125
0.917725 0.491333 0.601776
0.944336 0.351227 0.291107
0.941376 0.294403 0.121460
0.899811 0.295776 0.078125
0.899811 0.295776 0.078125
0.899811 0.295776 0.078125
0.899811 0.295776 0.078125
0.899811 0.295776 0.078125
0.899811 0.295776 0.078125
0.899811 0.295776 0.078125
0.217316 0.154327 0.730133
0.217316 0.154327 0.730133
0.217316 0.154327 0.730133
0.217316 0.154327 0.730133
0.217316 0.154327 0.730133
0.815613 0.246887 0.154755
0.826782 0.517609 0.689636
0.905945 0.865906 1.000000
1.000000 1.000000 1.000000
1.000000 1.000000 1.000000
0.899811 0.295776 0.078125
0.899811 0.295776 0.078125
0.217316 0.154327 0.730133
0.217316 0.154327 0.730133
0.899811 0.295776 0.078125
1.000000 0.673309 0.984528
0.931183 0.392029 0.411102
0.958008 0.286407 0.139282
0.899811 0.295776 0.078125
0.899811 0.295776 0.078125
