GDW_Y2 - BF PJT/res/luts/ICG_2 - ASN01 - Custom Grading.CUBE
#Created by: Adobe Photoshop Export Color Lookup Plugin
TITLE "ICG_2 - ASN01 - Custom Grading"
#LUT size
LUT_3D_SIZE 8
#data domain
#LUT data points
DOMAIN_MIN 0.000000 0.000000 0.000000
DOMAIN_MAX 0.903226 0.903226 0.903226
0.129974 0.129974 0.129974
0.129974 0.129974 0.129974
0.129974 0.129974 0.129974
0.129974 0.129974 0.129974
0.129974 0.129974 0.129974
0.129974 0.129974 0.129974
0.129974 0.129974 0.129974
0.129974 0.129974 0.129974
0.129974 0.129974 0.129974
0.129974 0.129974 0.129974
0.129974 0.129974 0.129974
0.129974 0.129974 0.129974
0.129974 0.129974 0.129974
0.129974 0.129974 0.129974
0.129974 0.129974 0.129974
0.129974 0.129974 0.129974
0.129974 0.129974 0.129974
0.129974 0.129974 0.129974
0.129974 0.129974 0.129974
0.129974 0.129974 0.129974
0.129974 0.129974 0.129974
0.129974 0.129974 0.129974
0.129974 0.129974 0.129974
0.129974 0.129974 0.129974
0.129974 0.129974 0.129974
0.129974 0.129974 0.129974
0.129974 0.129974 0.129974
0.129974 0.129974 0.129974
0.129974 0.129974 0.129974
0.129974 0.129974 0.129974
0.129974 0.129974 0.129974
0.129974 0.129974 0.129974
0.129974 0.129974 0.129974
0.129974 0.129974 0.129974
0.129974 0.129974 0.129974
0.129974 0.129974 0.129974
0.129974 0.129974 0.129974
0.129974 0.129974 0.129974
0.129974 0.129974 0.129974
0.129974 0.129974 0.129974
0.129974 0.129974 0.129974
0.129974 0.129974 0.129974
0.129974 0.129974 0.129974
0.129974 0.129974 0.129974
0.129974 0.129974 0.129974
0.129974 0.129974 0.129974
0.129974 0.129974 0.129974
0.129974 0.129974 0.129974
0.129974 0.129974 0.129974
0.129974 0.129974 0.129974
0.129974 0.129974 0.129974
0.129974 0.129974 0.129974
0.129974 0.129974 0.129974
0.129974 0.129974 0.129974
0.129974 0.129974 0.129974
0.129974 0.129974 0.129974
0.129974 0.129974 0.129974
0.129974 0.129974 0.129974
0.129974 0.129974 0.129974
0.129974 0.129974 0.129974
0.129974 0.129974 0.129974
0.129974 0.129974 0.129974
0.129974 0.129974 0.129974
0.129974 0.129974 0.129974
0.129974 0.129974 0.129974
0.129974 0.129974 0.129974
0.129974 0.129974 0.129974
0.129974 0.129974 0.129974
0.129974 0.129974 0.129974
0.129974 0.129974 0.129974
0.129974 0.129974 0.129974
0.129974 0.129974 0.129974
0.129974 0.129974 0.129974
0.129974 0.129974 0.129974
0.129974 0.129974 0.129974
0.129974 0.129974 0.129974
0.129974 0.129974 0.129974
0.129974 0.129974 0.129974
0.129974 0.129974 0.129974
0.129974 0.129974 0.129974
0.129974 0.129974 0.129974
0.129974 0.129974 0.129974
0.129974 0.129974 0.129974
0.129974 0.129974 0.129974
0.129974 0.129974 0.129974
0.129974 0.129974 0.129974
0.129974 0.129974 0.129974
0.129974 0.129974 0.129974
0.129974 0.129974 0.129974
0.129974 0.129974 0.129974
0.129974 0.129974 0.129974
0.129974 0.129974 0.129974
0.129974 0.129974 0.129974
0.129974 0.129974 0.129974
0.129974 0.129974 0.129974
0.129974 0.129974 0.129974
0.129974 0.129974 0.129974
0.129974 0.129974 0.129974
0.129974 0.129974 0.129974
0.129974 0.129974 0.129974
0.129974 0.129974 0.129974
0.129974 0.129974 0.129974
0.129974 0.129974 0.129974
0.129974 0.129974 0.129974
0.129974 0.129974 0.129974
0.129974 0.129974 0.129974
0.129974 0.129974 0.129974
0.129974 0.129974 0.129974
0.129974 0.129974 0.129974
0.129974 0.129974 0.129974
0.129974 0.129974 0.129974
0.129974 0.129974 0.129974
0.129974 0.129974 0.129974
0.129974 0.129974 0.129974
0.129974 0.129974 0.129974
0.129974 0.129974 0.129974
0.129974 0.129974 0.129974
0.129974 0.129974 0.129974
0.129974 0.129974 0.129974
0.129974 0.129974 0.129974
0.129974 0.129974 0.129974
0.129974 0.129974 0.129974
0.129974 0.129974 0.129974
0.129974 0.129974 0.129974
0.129974 0.129974 0.129974
0.129974 0.129974 0.129974
0.129974 0.129974 0.129974
0.129974 0.129974 0.129974
0.129974 0.129974 0.129974
0.129974 0.129974 0.129974
0.129974 0.129974 0.129974
0.129974 0.129974 0.129974
0.129974 0.129974 0.129974
0.129974 0.129974 0.129974
0.129974 0.129974 0.129974
0.129974 0.129974 0.129974
0.129974 0.129974 0.129974
0.129974 0.129974 0.129974
0.129974 0.129974 0.129974
0.129974 0.129974 0.129974
0.129974 0.129974 0.129974
0.129974 0.129974 0.129974
0.129974 0.129974 0.129974
0.129974 0.129974 0.129974
0.129974 0.129974 0.129974
0.129974 0.129974 0.129974
0.129974 0.129974 0.129974
0.129974 0.129974 0.129974
0.129974 0.129974 0.129974
0.129974 0.129974 0.129974
0.129974 0.129974 0.129974
0.129974 0.129974 0.129974
0.129974 0.129974 0.129974
0.129974 0.129974 0.129974
0.129974 0.129974 0.129974
0.129974 0.129974 0.129974
0.129974 0.129974 0.129974
0.129974 0.129974 0.129974
0.129974 0.129974 0.129974
0.129974 0.129974 0.129974
0.129974 0.129974 0.129974
0.129974 0.129974 0.129974
0.129974 0.129974 0.129974
0.129974 0.129974 0.129974
0.129974 0.129974 0.129974
0.129974 0.129974 0.129974
0.129974 0.129974 0.129974
0.129974 0.129974 0.129974
0.129974 0.129974 0.129974
0.129974 0.129974 0.129974
0.129974 0.129974 0.129974
0.129974 0.129974 0.129974
0.129974 0.129974 0.129974
0.129974 0.129974 0.129974
0.129974 0.129974 0.129974
0.129974 0.129974 0.129974
0.129974 0.129974 0.129974
0.129974 0.129974 0.129974
0.129974 0.129974 0.129974
0.129974 0.129974 0.129974
0.129974 0.129974 0.129974
0.129974 0.129974 0.129974
0.129974 0.129974 0.129974
0.129974 0.129974 0.129974
0.129974 0.129974 0.129974
0.129974 0.129974 0.129974
0.129974 0.129974 0.129974
0.129974 0.129974 0.129974
0.129974 0.129974 0.129974
0.129974 0.129974 0.129974
0.129974 0.129974 0.129974
0.129974 0.129974 0.129974
0.129974 0.129974 0.129974
0.129974 0.129974 0.129974
0.129974 0.129974 0.129974
0.129974 0.129974 0.129974
0.129974 0.129974 0.129974
0.129974 0.129974 0.129974
0.129974 0.129974 0.129974
0.129974 0.129974 0.129974
0.129974 0.129974 0.129974
0.129974 0.129974 0.129974
0.129974 0.129974 0.129974
0.129974 0.129974 0.129974
0.129974 0.129974 0.129974
0.129974 0.129974 0.129974
0.129974 0.129974 0.129974
0.129974 0.129974 0.129974
0.129974 0.129974 0.129974
0.129974 0.129974 0.129974
0.129974 0.129974 0.129974
0.129974 0.129974 0.129974
0.129974 0.129974 0.129974
0.129974 0.129974 0.129974
0.129974 0.129974 0.129974
0.129974 0.129974 0.129974
0.129974 0.129974 0.129974
0.129974 0.129974 0.129974
0.129974 0.129974 0.129974
0.129974 0.129974 0.129974
0.129974 0.129974 0.129974
0.129974 0.129974 0.129974
0.129974 0.129974 0.129974
0.129974 0.129974 0.129974
0.129974 0.129974 0.129974
0.129974 0.129974 0.129974
0.129974 0.129974 0.129974
0.129974 0.129974 0.129974
0.129974 0.129974 0.129974
0.129974 0.129974 0.129974
0.129974 0.129974 0.129974
0.129974 0.129974 0.129974
0.129974 0.129974 0.129974
0.129974 0.129974 0.129974
0.129974 0.129974 0.129974
0.129974 0.129974 0.129974
0.129974 0.129974 0.129974
0.129974 0.129974 0.129974
0.129974 0.129974 0.129974
0.129974 0.129974 0.129974
0.129974 0.129974 0.129974
0.129974 0.129974 0.129974
0.129974 0.129974 0.129974
0.129974 0.129974 0.129974
0.129974 0.129974 0.129974
0.129974 0.129974 0.129974
0.129974 0.129974 0.129974
0.129974 0.129974 0.129974
0.129974 0.129974 0.129974
0.129974 0.129974 0.129974
0.129974 0.129974 0.129974
0.129974 0.129974 0.129974
0.129974 0.129974 0.129974
0.129974 0.129974 0.129974
0.129974 0.129974 0.129974
0.129974 0.129974 0.129974
0.129974 0.129974 0.129974
0.129974 0.129974 0.129974
0.129974 0.129974 0.129974
0.129974 0.129974 0.129974
0.129974 0.129974 0.129974
0.129974 0.129974 0.129974
0.129974 0.129974 0.129974
0.129974 0.129974 0.129974
0.129974 0.129974 0.129974
0.129974 0.129974 0.129974
0.129974 0.129974 0.129974
0.129974 0.129974 0.129974
0.129974 0.129974 0.129974
0.129974 0.129974 0.129974
0.129974 0.129974 0.129974
0.129974 0.129974 0.129974
0.129974 0.129974 0.129974
0.129974 0.129974 0.129974
0.129974 0.129974 0.129974
0.129974 0.129974 0.129974
0.129974 0.129974 0.129974
0.129974 0.129974 0.129974
0.129974 0.129974 0.129974
0.129974 0.129974 0.129974
0.129974 0.129974 0.129974
0.129974 0.129974 0.129974
0.129974 0.129974 0.129974
0.129974 0.129974 0.129974
0.129974 0.129974 0.129974
0.129974 0.129974 0.129974
0.129974 0.129974 0.129974
0.129974 0.129974 0.129974
0.129974 0.129974 0.129974
0.129974 0.129974 0.129974
0.129974 0.129974 0.129974
0.129974 0.129974 0.129974
0.129974 0.129974 0.129974
0.129974 0.129974 0.129974
0.129974 0.129974 0.129974
0.129974 0.129974 0.129974
0.129974 0.129974 0.129974
0.129974 0.129974 0.129974
0.129974 0.129974 0.129974
0.129974 0.129974 0.129974
0.129974 0.129974 0.129974
0.129974 0.129974 0.129974
0.129974 0.129974 0.129974
0.129974 0.129974 0.129974
0.129974 0.129974 0.129974
0.129974 0.129974 0.129974
0.129974 0.129974 0.129974
0.129974 0.129974 0.129974
0.129974 0.129974 0.129974
0.129974 0.129974 0.129974
0.129974 0.129974 0.129974
0.129974 0.129974 0.129974
0.129974 0.129974 0.129974
0.129974 0.129974 0.129974
0.129974 0.129974 0.129974
0.129974 0.129974 0.129974
0.129974 0.129974 0.129974
0.129974 0.129974 0.129974
0.129974 0.129974 0.129974
0.129974 0.129974 0.129974
0.129974 0.129974 0.129974
0.129974 0.129974 0.129974
0.129974 0.129974 0.129974
0.129974 0.129974 0.129974
0.129974 0.129974 0.129974
0.129974 0.129974 0.129974
0.129974 0.129974 0.129974
0.129974 0.129974 0.129974
0.129974 0.129974 0.129974
0.129974 0.129974 0.129974
0.129974 0.129974 0.129974
0.129974 0.129974 0.129974
0.129974 0.129974 0.129974
0.129974 0.129974 0.129974
0.129974 0.129974 0.129974
0.129974 0.129974 0.129974
0.129974 0.129974 0.129974
0.129974 0.129974 0.129974
0.129974 0.129974 0.129974
0.129974 0.129974 0.129974
0.129974 0.129974 0.129974
0.129974 0.129974 0.129974
0.129974 0.129974 0.129974
0.129974 0.129974 0.129974
0.129974 0.129974 0.129974
0.129974 0.129974 0.129974
0.129974 0.129974 0.129974
0.129974 0.129974 0.129974
0.129974 0.129974 0.129974
0.129974 0.129974 0.129974
0.129974 0.129974 0.129974
0.129974 0.129974 0.129974
0.129974 0.129974 0.129974
0.129974 0.129974 0.129974
0.129974 0.129974 0.129974
0.129974 0.129974 0.129974
0.129974 0.129974 0.129974
0.129974 0.129974 0.129974
0.129974 0.129974 0.129974
0.129974 0.129974 0.129974
0.129974 0.129974 0.129974
0.129974 0.129974 0.129974
0.129974 0.129974 0.129974
0.129974 0.129974 0.129974
0.129974 0.129974 0.129974
0.129974 0.129974 0.129974
0.129974 0.129974 0.129974
0.129974 0.129974 0.129974
0.129974 0.129974 0.129974
0.129974 0.129974 0.129974
0.129974 0.129974 0.129974
0.129974 0.129974 0.129974
0.129974 0.129974 0.129974
0.129974 0.129974 0.129974
0.129974 0.129974 0.129974
0.129974 0.129974 0.129974
0.129974 0.129974 0.129974
0.129974 0.129974 0.129974
0.129974 0.129974 0.129974
0.129974 0.129974 0.129974
0.129974 0.129974 0.129974
0.129974 0.129974 0.129974
0.129974 0.129974 0.129974
0.129974 0.129974 0.129974
0.129974 0.129974 0.129974
0.129974 0.129974 0.129974
0.129974 0.129974 0.129974
0.129974 0.129974 0.129974
0.129974 0.129974 0.129974
0.129974 0.129974 0.129974
0.129974 0.129974 0.129974
0.129974 0.129974 0.129974
0.129974 0.129974 0.129974
0.129974 0.129974 0.129974
0.129974 0.129974 0.129974
0.129974 0.129974 0.129974
0.129974 0.129974 0.129974
0.129974 0.129974 0.129974
0.129974 0.129974 0.129974
0.129974 0.129974 0.129974
0.129974 0.129974 0.129974
0.129974 0.129974 0.129974
0.129974 0.129974 0.129974
0.129974 0.129974 0.129974
0.129974 0.129974 0.129974
0.129974 0.129974 0.129974
0.129974 0.129974 0.129974
0.129974 0.129974 0.129974
0.129974 0.129974 0.129974
0.129974 0.129974 0.129974
0.129974 0.129974 0.129974
0.129974 0.129974 0.129974
0.129974 0.129974 0.129974
0.129974 0.129974 0.129974
0.129974 0.129974 0.129974
0.129974 0.129974 0.129974
0.129974 0.129974 0.129974
0.129974 0.129974 0.129974
0.129974 0.129974 0.129974
0.129974 0.129974 0.129974
0.129974 0.129974 0.129974
0.129974 0.129974 0.129974
0.129974 0.129974 0.129974
0.129974 0.129974 0.129974
0.129974 0.129974 0.129974
0.129974 0.129974 0.129974
0.129974 0.129974 0.129974
0.129974 0.129974 0.129974
0.129974 0.129974 0.129974
0.129974 0.129974 0.129974
0.129974 0.129974 0.129974
0.129974 0.129974 0.129974
0.129974 0.129974 0.129974
0.129974 0.129974 0.129974
0.129974 0.129974 0.129974
0.129974 0.129974 0.129974
0.129974 0.129974 0.129974
0.129974 0.129974 0.129974
0.129974 0.129974 0.129974
0.129974 0.129974 0.129974
0.129974 0.129974 0.129974
0.129974 0.129974 0.129974
0.129974 0.129974 0.129974
0.129974 0.129974 0.129974
0.129974 0.129974 0.129974
0.129974 0.129974 0.129974
0.129974 0.129974 0.129974
0.129974 0.129974 0.129974
0.129974 0.129974 0.129974
0.129974 0.129974 0.129974
0.129974 0.129974 0.129974
0.129974 0.129974 0.129974
0.129974 0.129974 0.129974
0.129974 0.129974 0.129974
0.129974 0.129974 0.129974
0.129974 0.129974 0.129974
0.129974 0.129974 0.129974
0.129974 0.129974 0.129974
0.129974 0.129974 0.129974
0.129974 0.129974 0.129974
0.129974 0.129974 0.129974
0.129974 0.129974 0.129974
0.129974 0.129974 0.129974
0.129974 0.129974 0.129974
0.129974 0.129974 0.129974
0.129974 0.129974 0.129974
0.129974 0.129974 0.129974
0.129974 0.129974 0.129974
0.129974 0.129974 0.129974
0.129974 0.129974 0.129974
0.129974 0.129974 0.129974
0.129974 0.129974 0.129974
0.129974 0.129974 0.129974
0.129974 0.129974 0.129974
0.129974 0.129974 0.129974
0.129974 0.129974 0.129974
0.129974 0.129974 0.129974
0.129974 0.129974 0.129974
0.129974 0.129974 0.129974
0.129974 0.129974 0.129974
0.129974 0.129974 0.129974
0.129974 0.129974 0.129974
0.129974 0.129974 0.129974
0.129974 0.129974 0.129974
0.129974 0.129974 0.129974
0.129974 0.129974 0.129974
0.129974 0.129974 0.129974
0.129974 0.129974 0.129974
0.129974 0.129974 0.129974
0.129974 0.129974 0.129974
0.129974 0.129974 0.129974
0.129974 0.129974 0.129974
0.129974 0.129974 0.129974
0.129974 0.129974 0.129974
0.129974 0.129974 0.129974
0.129974 0.129974 0.129974
0.129974 0.129974 0.129974
0.129974 0.129974 0.129974
0.129974 0.129974 0.129974
0.129974 0.129974 0.129974
0.129974 0.129974 0.129974
0.129974 0.129974 0.129974
0.129974 0.129974 0.129974
0.129974 0.129974 0.129974
0.129974 0.129974 0.129974
0.129974 0.129974 0.129974
0.129974 0.129974 0.129974
0.129974 0.129974 0.129974
0.129974 0.129974 0.129974
0.129974 0.129974 0.129974
0.129974 0.129974 0.129974
0.129974 0.129974 0.129974
