GDW_Y2 - BF PJT/res/luts/ICG_2 - ASN01 - Warm Grading.CUBE
#Created by: Adobe Photoshop Export Color Lookup Plugin
TITLE "ICG_2 - ASN01 - Warm Grading"
#LUT size
LUT_3D_SIZE 32
#data domain
DOMAIN_MIN 0.0 0.0 0.0
DOMAIN_MAX 1.0 1.0 1.0
#LUT data points
0.149994 0.149994 0.149994
0.149994 0.149994 0.149994
0.149994 0.149994 0.149994
0.149994 0.149994 0.149994
0.149994 0.149994 0.149994
0.149994 0.149994 0.149994
0.149994 0.149994 0.149994
0.149994 0.149994 0.149994
0.149994 0.149994 0.149994
0.149994 0.149994 0.149994
0.149994 0.149994 0.149994
0.149994 0.149994 0.149994
0.149994 0.149994 0.149994
0.149994 0.149994 0.149994
0.149994 0.149994 0.149994
0.149994 0.149994 0.149994
0.149994 0.149994 0.149994
0.149994 0.149994 0.149994
0.149994 0.149994 0.149994
0.149994 0.149994 0.149994
0.149994 0.149994 0.149994
0.149994 0.149994 0.149994
0.149994 0.149994 0.149994
0.149994 0.149994 0.149994
0.149994 0.149994 0.149994
0.149994 0.149994 0.149994
0.149994 0.149994 0.149994
0.149994 0.149994 0.149994
0.149994 0.149994 0.149994
0.149994 0.149994 0.149994
0.149994 0.149994 0.149994
0.149994 0.149994 0.149994
0.149994 0.149994 0.149994
0.149994 0.149994 0.149994
0.149994 0.149994 0.149994
0.149994 0.149994 0.149994
0.149994 0.149994 0.149994
0.149994 0.149994 0.149994
0.149994 0.149994 0.149994
0.149994 0.149994 0.149994
0.149994 0.149994 0.149994
0.149994 0.149994 0.149994
0.149994 0.149994 0.149994
0.149994 0.149994 0.149994
0.149994 0.149994 0.149994
0.149994 0.149994 0.149994
0.149994 0.149994 0.149994
0.149994 0.149994 0.149994
0.149994 0.149994 0.149994
0.149994 0.149994 0.149994
0.149994 0.149994 0.149994
0.149994 0.149994 0.149994
0.149994 0.149994 0.149994
0.149994 0.149994 0.149994
0.149994 0.149994 0.149994
0.149994 0.149994 0.149994
0.149994 0.149994 0.149994
0.149994 0.149994 0.149994
0.149994 0.149994 0.149994
0.149994 0.149994 0.149994
0.149994 0.149994 0.149994
0.149994 0.149994 0.149994
0.149994 0.149994 0.149994
0.149994 0.149994 0.149994
0.149994 0.149994 0.149994
0.149994 0.149994 0.149994
0.149994 0.149994 0.149994
0.149994 0.149994 0.149994
0.149994 0.149994 0.149994
0.149994 0.149994 0.149994
0.149994 0.149994 0.149994
0.149994 0.149994 0.149994
0.149994 0.149994 0.149994
0.149994 0.149994 0.149994
0.149994 0.149994 0.149994
0.149994 0.149994 0.149994
0.149994 0.149994 0.149994
0.149994 0.149994 0.149994
0.149994 0.149994 0.149994
0.149994 0.149994 0.149994
0.149994 0.149994 0.149994
0.149994 0.149994 0.149994
0.149994 0.149994 0.149994
0.149994 0.149994 0.149994
0.149994 0.149994 0.149994
0.149994 0.149994 0.149994
0.149994 0.149994 0.149994
0.149994 0.149994 0.149994
0.149994 0.149994 0.149994
0.149994 0.149994 0.149994
0.149994 0.149994 0.149994
0.149994 0.149994 0.149994
0.149994 0.149994 0.149994
0.149994 0.149994 0.149994
0.149994 0.149994 0.149994
0.149994 0.149994 0.149994
0.149994 0.149994 0.149994
0.149994 0.149994 0.149994
0.149994 0.149994 0.149994
0.149994 0.149994 0.149994
0.149994 0.149994 0.149994
0.149994 0.149994 0.149994
0.149994 0.149994 0.149994
0.149994 0.149994 0.149994
0.149994 0.149994 0.149994
0.149994 0.149994 0.149994
0.149994 0.149994 0.149994
0.149994 0.149994 0.149994
0.149994 0.149994 0.149994
0.149994 0.149994 0.149994
0.149994 0.149994 0.149994
0.149994 0.149994 0.149994
0.149994 0.149994 0.149994
0.149994 0.149994 0.149994
0.149994 0.149994 0.149994
0.149994 0.149994 0.149994
0.149994 0.149994 0.149994
0.149994 0.149994 0.149994
0.149994 0.149994 0.149994
0.149994 0.149994 0.149994
0.149994 0.149994 0.149994
0.149994 0.149994 0.149994
0.149994 0.149994 0.149994
0.149994 0.149994 0.149994
0.149994 0.149994 0.149994
0.149994 0.149994 0.149994
0.149994 0.149994 0.149994
0.149994 0.149994 0.149994
0.149994 0.149994 0.149994
0.149994 0.149994 0.149994
0.149994 0.149994 0.149994
0.149994 0.149994 0.149994
0.149994 0.149994 0.149994
0.149994 0.149994 0.149994
0.149994 0.149994 0.149994
0.149994 0.149994 0.149994
0.149994 0.149994 0.149994
0.149994 0.149994 0.149994
0.149994 0.149994 0.149994
0.149994 0.149994 0.149994
0.149994 0.149994 0.149994
0.149994 0.149994 0.149994
0.149994 0.149994 0.149994
0.149994 0.149994 0.149994
0.149994 0.149994 0.149994
0.149994 0.149994 0.149994
0.149994 0.149994 0.149994
0.149994 0.149994 0.149994
0.149994 0.149994 0.149994
0.149994 0.149994 0.149994
0.149994 0.149994 0.149994
0.149994 0.149994 0.149994
0.149994 0.149994 0.149994
0.149994 0.149994 0.149994
0.149994 0.149994 0.149994
0.149994 0.149994 0.149994
0.149994 0.149994 0.149994
0.149994 0.149994 0.149994
0.149994 0.149994 0.149994
0.149994 0.149994 0.149994
0.149994 0.149994 0.149994
0.149994 0.149994 0.149994
0.149994 0.149994 0.149994
0.149994 0.149994 0.149994
0.149994 0.149994 0.149994
0.149994 0.149994 0.149994
0.149994 0.149994 0.149994
0.149994 0.149994 0.149994
0.149994 0.149994 0.149994
0.149994 0.149994 0.149994
0.149994 0.149994 0.149994
0.149994 0.149994 0.149994
0.149994 0.149994 0.149994
0.149994 0.149994 0.149994
0.149994 0.149994 0.149994
0.149994 0.149994 0.149994
0.149994 0.149994 0.149994
0.149994 0.149994 0.149994
0.149994 0.149994 0.149994
0.149994 0.149994 0.149994
0.149994 0.149994 0.149994
0.149994 0.149994 0.149994
0.149994 0.149994 0.149994
0.149994 0.149994 0.149994
0.149994 0.149994 0.149994
0.149994 0.149994 0.149994
0.149994 0.149994 0.149994
0.149994 0.149994 0.149994
0.149994 0.149994 0.149994
0.149994 0.149994 0.149994
0.149994 0.149994 0.149994
0.149994 0.149994 0.149994
0.149994 0.149994 0.149994
0.149994 0.149994 0.149994
0.149994 0.149994 0.149994
0.149994 0.149994 0.149994
0.149994 0.149994 0.149994
0.149994 0.149994 0.149994
0.149994 0.149994 0.149994
0.149994 0.149994 0.149994
0.149994 0.149994 0.149994
0.149994 0.149994 0.149994
0.149994 0.149994 0.149994
0.149994 0.149994 0.149994
0.149994 0.149994 0.149994
0.149994 0.149994 0.149994
0.149994 0.149994 0.149994
0.149994 0.149994 0.149994
0.149994 0.149994 0.149994
0.149994 0.149994 0.149994
0.149994 0.149994 0.149994
0.149994 0.149994 0.149994
0.149994 0.149994 0.149994
0.149994 0.149994 0.149994
0.149994 0.149994 0.149994
0.149994 0.149994 0.149994
0.149994 0.149994 0.149994
0.149994 0.149994 0.149994
0.149994 0.149994 0.149994
0.149994 0.149994 0.149994
0.149994 0.149994 0.149994
0.149994 0.149994 0.149994
0.149994 0.149994 0.149994
0.149994 0.149994 0.149994
0.149994 0.149994 0.149994
0.149994 0.149994 0.149994
0.149994 0.149994 0.149994
0.149994 0.149994 0.149994
0.149994 0.149994 0.149994
0.149994 0.149994 0.149994
0.149994 0.149994 0.149994
0.149994 0.149994 0.149994
0.149994 0.149994 0.149994
0.149994 0.149994 0.149994
0.149994 0.149994 0.149994
0.149994 0.149994 0.149994
0.149994 0.149994 0.149994
0.149994 0.149994 0.149994
0.149994 0.149994 0.149994
0.149994 0.149994 0.149994
0.149994 0.149994 0.149994
0.149994 0.149994 0.149994
0.149994 0.149994 0.149994
0.149994 0.149994 0.149994
0.149994 0.149994 0.149994
0.149994 0.149994 0.149994
0.149994 0.149994 0.149994
0.149994 0.149994 0.149994
0.149994 0.149994 0.149994
0.149994 0.149994 0.149994
0.149994 0.149994 0.149994
0.149994 0.149994 0.149994
0.149994 0.149994 0.149994
0.149994 0.149994 0.149994
0.149994 0.149994 0.149994
0.149994 0.149994 0.149994
0.149994 0.149994 0.149994
0.149994 0.149994 0.149994
0.149994 0.149994 0.149994
0.149994 0.149994 0.149994
0.149994 0.149994 0.149994
0.149994 0.149994 0.149994
0.149994 0.149994 0.149994
0.149994 0.149994 0.149994
0.149994 0.149994 0.149994
0.149994 0.149994 0.149994
0.149994 0.149994 0.149994
0.149994 0.149994 0.149994
0.149994 0.149994 0.149994
0.149994 0.149994 0.149994
0.149994 0.149994 0.149994
0.149994 0.149994 0.149994
0.149994 0.149994 0.149994
0.149994 0.149994 0.149994
0.149994 0.149994 0.149994
0.149994 0.149994 0.149994
0.149994 0.149994 0.149994
0.149994 0.149994 0.149994
0.149994 0.149994 0.149994
0.149994 0.149994 0.149994
0.149994 0.149994 0.149994
0.149994 0.149994 0.149994
0.149994 0.149994 0.149994
0.149994 0.149994 0.149994
0.149994 0.149994 0.149994
0.149994 0.149994 0.149994
0.149994 0.149994 0.149994
0.149994 0.149994 0.149994
0.149994 0.149994 0.149994
0.149994 0.149994 0.149994
0.149994 0.149994 0.149994
0.149994 0.149994 0.149994
0.149994 0.149994 0.149994
0.149994 0.149994 0.149994
0.149994 0.149994 0.149994
0.149994 0.149994 0.149994
0.149994 0.149994 0.149994
0.149994 0.149994 0.149994
0.149994 0.149994 0.149994
0.149994 0.149994 0.149994
0.149994 0.149994 0.149994
0.149994 0.149994 0.149994
0.149994 0.149994 0.149994
0.149994 0.149994 0.149994
0.149994 0.149994 0.149994
0.149994 0.149994 0.149994
0.149994 0.149994 0.149994
0.149994 0.149994 0.149994
0.149994 0.149994 0.149994
0.149994 0.149994 0.149994
0.149994 0.149994 0.149994
0.149994 0.149994 0.149994
0.149994 0.149994 0.149994
0.149994 0.149994 0.149994
0.149994 0.149994 0.149994
0.149994 0.149994 0.149994
0.149994 0.149994 0.149994
0.149994 0.149994 0.149994
0.149994 0.149994 0.149994
0.149994 0.149994 0.149994
0.149994 0.149994 0.149994
0.149994 0.149994 0.149994
0.149994 0.149994 0.149994
0.149994 0.149994 0.149994
0.149994 0.149994 0.149994
0.149994 0.149994 0.149994
0.149994 0.149994 0.149994
0.149994 0.149994 0.149994
0.149994 0.149994 0.149994
0.149994 0.149994 0.149994
0.149994 0.149994 0.149994
0.149994 0.149994 0.149994
0.149994 0.149994 0.149994
0.149994 0.149994 0.149994
0.149994 0.149994 0.149994
0.149994 0.149994 0.149994
0.149994 0.149994 0.149994
0.149994 0.149994 0.149994
0.149994 0.149994 0.149994
0.149994 0.149994 0.149994
0.149994 0.149994 0.149994
0.149994 0.149994 0.149994
0.149994 0.149994 0.149994
0.149994 0.149994 0.149994
0.149994 0.149994 0.149994
0.149994 0.149994 0.149994
0.149994 0.149994 0.149994
0.149994 0.149994 0.149994
0.149994 0.149994 0.149994
0.149994 0.149994 0.149994
0.149994 0.149994 0.149994
0.149994 0.149994 0.149994
0.149994 0.149994 0.149994
0.149994 0.149994 0.149994
0.149994 0.149994 0.149994
0.149994 0.149994 0.149994
0.149994 0.149994 0.149994
0.149994 0.149994 0.149994
0.149994 0.149994 0.149994
0.149994 0.149994 0.149994
0.149994 0.149994 0.149994
0.149994 0.149994 0.149994
0.149994 0.149994 0.149994
0.149994 0.149994 0.149994
0.149994 0.149994 0.149994
0.149994 0.149994 0.149994
0.149994 0.149994 0.149994
0.149994 0.149994 0.149994
0.149994 0.149994 0.149994
0.149994 0.149994 0.149994
0.149994 0.149994 0.149994
0.149994 0.149994 0.149994
0.149994 0.149994 0.149994
0.149994 0.149994 0.149994
0.149994 0.149994 0.149994
0.149994 0.149994 0.149994
0.149994 0.149994 0.149994
0.149994 0.149994 0.149994
0.149994 0.149994 0.149994
0.149994 0.149994 0.149994
0.149994 0.149994 0.149994
0.149994 0.149994 0.149994
0.149994 0.149994 0.149994
0.149994 0.149994 0.149994
0.149994 0.149994 0.149994
0.149994 0.149994 0.149994
0.149994 0.149994 0.149994
0.149994 0.149994 0.149994
0.149994 0.149994 0.149994
0.149994 0.149994 0.149994
0.149994 0.149994 0.149994
0.149994 0.149994 0.149994
0.149994 0.149994 0.149994
0.149994 0.149994 0.149994
0.149994 0.149994 0.149994
0.149994 0.149994 0.149994
0.149994 0.149994 0.149994
0.149994 0.149994 0.149994
0.149994 0.149994 0.149994
0.149994 0.149994 0.149994
0.149994 0.149994 0.149994
0.149994 0.149994 0.149994
0.149994 0.149994 0.149994
0.149994 0.149994 0.149994
0.149994 0.149994 0.149994
0.149994 0.149994 0.149994
0.149994 0.149994 0.149994
0.149994 0.149994 0.149994
0.149994 0.149994 0.149994
0.149994 0.149994 0.149994
0.149994 0.149994 0.149994
0.149994 0.149994 0.149994
0.149994 0.149994 0.149994
0.149994 0.149994 0.149994
0.149994 0.149994 0.149994
0.149994 0.149994 0.149994
0.149994 0.149994 0.149994
0.149994 0.149994 0.149994
0.149994 0.149994 0.149994
0.149994 0.149994 0.149994
0.149994 0.149994 0.149994
0.149994 0.149994 0.149994
0.149994 0.149994 0.149994
0.149994 0.149994 0.149994
0.149994 0.149994 0.149994
0.149994 0.149994 0.149994
0.149994 0.149994 0.149994
0.149994 0.149994 0.149994
0.149994 0.149994 0.149994
0.149994 0.149994 0.149994
0.149994 0.149994 0.149994
0.149994 0.149994 0.149994
0.149994 0.149994 0.149994
0.149994 0.149994 0.149994
0.149994 0.149994 0.149994
0.149994 0.149994 0.149994
0.149994 0.149994 0.149994
0.149994 0.149994 0.149994
0.149994 0.149994 0.149994
0.149994 0.149994 0.149994
0.149994 0.149994 0.149994
0.149994 0.149994 0.149994
0.149994 0.149994 0.149994
0.149994 0.149994 0.149994
0.149994 0.149994 0.149994
0.149994 0.149994 0.149994
0.149994 0.149994 0.149994
0.149994 0.149994 0.149994
0.149994 0.149994 0.149994
0.149994 0.149994 0.149994
0.149994 0.149994 0.149994
0.149994 0.149994 0.149994
0.149994 0.149994 0.149994
0.149994 0.149994 0.149994
0.149994 0.149994 0.149994
0.149994 0.149994 0.149994
0.149994 0.149994 0.149994
0.149994 0.149994 0.149994
0.149994 0.149994 0.149994
0.149994 0.149994 0.149994
0.149994 0.149994 0.149994
0.149994 0.149994 0.149994
0.149994 0.149994 0.149994
0.149994 0.149994 0.149994
0.149994 0.149994 0.149994
0.149994 0.149994 0.149994
0.149994 0.149994 0.149994
0.149994 0.149994 0.149994
0.149994 0.149994 0.149994
0.149994 0.149994 0.149994
0.149994 0.149994 0.149994
0.149994 0.149994 0.149994
0.149994 0.149994 0.149994
0.149994 0.149994 0.149994
0.149994 0.149994 0.149994
0.149994 0.149994 0.149994
0.149994 0.149994 0.149994
0.149994 0.149994 0.149994
0.149994 0.149994 0.149994
0.149994 0.149994 0.149994
0.149994 0.149994 0.149994
0.149994 0.149994 0.149994
0.149994 0.149994 0.149994
0.149994 0.149994 0.149994
0.149994 0.149994 0.149994
0.149994 0.149994 0.149994
0.149994 0.149994 0.149994
0.149994 0.149994 0.149994
0.149994 0.149994 0.149994
0.149994 0.149994 0.149994
0.149994 0.149994 0.149994
0.149994 0.149994 0.149994
0.149994 0.149994 0.149994
0.149994 0.149994 0.149994
0.149994 0.149994 0.149994
0.149994 0.149994 0.149994
0.149994 0.149994 0.149994
0.149994 0.149994 0.149994
0.149994 0.149994 0.149994
0.149994 0.149994 0.149994
0.149994 0.149994 0.149994
0.149994 0.149994 0.149994
0.149994 0.149994 0.149994
0.149994 0.149994 0.149994
0.149994 0.149994 0.149994
0.149994 0.149994 0.149994
0.149994 0.149994 0.149994
0.149994 0.149994 0.149994
0.149994 0.149994 0.149994
0.149994 0.149994 0.149994
0.149994 0.149994 0.149994
0.149994 0.149994 0.149994
0.149994 0.149994 0.149994
0.149994 0.149994 0.149994
0.149994 0.149994 0.149994
0.149994 0.149994 0.149994
0.149994 0.149994 0.149994
0.149994 0.149994 0.149994
0.149994 0.149994 0.149994
0.149994 0.149994 0.149994
0.149994 0.149994 0.149994
0.149994 0.149994 0.149994
0.149994 0.149994 0.149994
0.149994 0.149994 0.149994
0.149994 0.149994 0.149994
0.149994 0.149994 0.149994
0.149994 0.149994 0.149994
0.149994 0.149994 0.149994
0.149994 0.149994 0.149994
0.149994 0.149994 0.149994
0.149994 0.149994 0.149994
0.149994 0.149994 0.149994
0.149994 0.149994 0.149994
0.149994 0.149994 0.149994
0.149994 0.149994 0.149994
0.149994 0.149994 0.149994
0.149994 0.149994 0.149994
0.149994 0.149994 0.149994
0.149994 0.149994 0.149994
0.149994 0.149994 0.149994
0.149994 0.149994 0.149994
0.149994 0.149994 0.149994
0.149994 0.149994 0.149994
0.149994 0.149994 0.149994
0.149994 0.149994 0.149994
0.149994 0.149994 0.149994
0.149994 0.149994 0.149994
0.149994 0.149994 0.149994
0.149994 0.149994 0.149994
0.149994 0.149994 0.149994
0.149994 0.149994 0.149994
0.149994 0.149994 0.149994
0.149994 0.149994 0.149994
0.149994 0.149994 0.149994
0.149994 0.149994 0.149994
0.149994 0.149994 0.149994
0.149994 0.149994 0.149994
0.149994 0.149994 0.149994
0.149994 0.149994 0.149994
0.149994 0.149994 0.149994
0.149994 0.149994 0.149994
0.149994 0.149994 0.149994
0.149994 0.149994 0.149994
0.149994 0.149994 0.149994
0.149994 0.149994 0.149994
0.149994 0.149994 0.149994
0.149994 0.149994 0.149994
0.149994 0.149994 0.149994
0.149994 0.149994 0.149994
0.149994 0.149994 0.149994
0.149994 0.149994 0.149994
0.149994 0.149994 0.149994
0.149994 0.149994 0.149994
0.149994 0.149994 0.149994
0.149994 0.149994 0.149994
0.149994 0.149994 0.149994
0.149994 0.149994 0.149994
0.149994 0.149994 0.149994
0.149994 0.149994 0.149994
0.149994 0.149994 0.149994
0.149994 0.149994 0.149994
0.149994 0.149994 0.149994
0.149994 0.149994 0.149994
0.149994 0.149994 0.149994
0.149994 0.149994 0.149994
0.149994 0.149994 0.149994
0.149994 0.149994 0.149994
0.149994 0.149994 0.149994
0.149994 0.149994 0.149994
0.149994 0.149994 0.149994
0.149994 0.149994 0.149994
0.149994 0.149994 0.149994
0.149994 0.149994 0.149994
0.149994 0.149994 0.149994
0.149994 0.149994 0.149994
0.149994 0.149994 0.149994
0.149994 0.149994 0.149994
0.149994 0.149994 0.149994
0.149994 0.149994 0.149994
0.149994 0.149994 0.149994
0.149994 0.149994 0.149994
0.149994 0.149994 0.149994
0.149994 0.149994 0.149994
0.149994 0.149994 0.149994
0.149994 0.149994 0.149994
0.149994 0.149994 0.149994
0.149994 0.149994 0.149994
0.149994 0.149994 0.149994
0.149994 0.149994 0.149994
0.149994 0.149994 0.149994
0.149994 0.149994 0.149994
0.149994 0.149994 0.149994
0.149994 0.149994 0.149994
0.149994 0.149994 0.149994
0.149994 0.149994 0.149994
0.149994 0.149994 0.149994
0.149994 0.149994 0.149994
0.149994 0.149994 0.149994
0.149994 0.149994 0.149994
0.149994 0.149994 0.149994
0.149994 0.149994 0.149994
0.149994 0.149994 0.149994
0.149994 0.149994 0.149994
0.149994 0.149994 0.149994
0.149994 0.149994 0.149994
0.149994 0.149994 0.149994
0.149994 0.149994 0.149994
0.149994 0.149994 0.149994
0.149994 0.149994 0.149994
0.149994 0.149994 0.149994
0.149994 0.149994 0.149994
0.149994 0.149994 0.149994
0.149994 0.149994 0.149994
0.149994 0.149994 0.149994
0.149994 0.149994 0.149994
0.149994 0.149994 0.149994
0.149994 0.149994 0.149994
0.149994 0.149994 0.149994
0.149994 0.149994 0.149994
0.149994 0.149994 0.149994
0.149994 0.149994 0.149994
0.149994 0.149994 0.149994
0.149994 0.149994 0.149994
0.149994 0.149994 0.149994
0.149994 0.149994 0.149994
0.149994 0.149994 0.149994
0.149994 0.149994 0.149994
0.149994 0.149994 0.149994
0.149994 0.149994 0.149994
0.149994 0.149994 0.149994
0.149994 0.149994 0.149994
0.149994 0.149994 0.149994
0.149994 0.149994 0.149994
0.149994 0.149994 0.149994
0.149994 0.149994 0.149994
0.149994 0.149994 0.149994
0.149994 0.149994 0.149994
0.149994 0.149994 0.149994
0.149994 0.149994 0.149994
0.149994 0.149994 0.149994
0.149994 0.149994 0.149994
0.149994 0.149994 0.149994
0.149994 0.149994 0.149994
0.149994 0.149994 0.149994
0.149994 0.149994 0.149994
0.149994 0.149994 0.149994
0.149994 0.149994 0.149994
0.149994 0.149994 0.149994
0.149994 0.149994 0.149994
0.149994 0.149994 0.149994
0.149994 0.149994 0.149994
0.149994 0.149994 0.149994
0.149994 0.149994 0.149994
0.149994 0.149994 0.149994
0.149994 0.149994 0.149994
0.149994 0.149994 0.149994
0.149994 0.149994 0.149994
0.149994 0.149994 0.149994
0.149994 0.149994 0.149994
0.149994 0.149994 0.149994
0.149994 0.149994 0.149994
0.149994 0.149994 0.149994
0.149994 0.149994 0.149994
0.149994 0.149994 0.149994
0.149994 0.149994 0.149994
0.149994 0.149994 0.149994
0.149994 0.149994 0.149994
0.149994 0.149994 0.149994
0.149994 0.149994 0.149994
0.149994 0.149994 0.149994
0.149994 0.149994 0.149994
0.149994 0.149994 0.149994
0.149994 0.149994 0.149994
0.149994 0.149994 0.149994
0.149994 0.149994 0.149994
0.149994 0.149994 0.149994
0.149994 0.149994 0.149994
0.149994 0.149994 0.149994
0.149994 0.149994 0.149994
0.149994 0.149994 0.149994
0.149994 0.149994 0.149994
0.149994 0.149994 0.149994
0.149994 0.149994 0.149994
0.149994 0.149994 0.149994
0.149994 0.149994 0.149994
0.149994 0.149994 0.149994
0.149994 0.149994 0.149994
0.149994 0.149994 0.149994
0.149994 0.149994 0.149994
0.149994 0.149994 0.149994
0.149994 0.149994 0.149994
0.149994 0.149994 0.149994
0.149994 0.149994 0.149994
0.149994 0.149994 0.149994
0.149994 0.149994 0.149994
0.149994 0.149994 0.149994
0.149994 0.149994 0.149994
0.149994 0.149994 0.149994
0.149994 0.149994 0.149994
0.149994 0.149994 0.149994
0.149994 0.149994 0.149994
0.149994 0.149994 0.149994
0.149994 0.149994 0.149994
0.149994 0.149994 0.149994
0.149994 0.149994 0.149994
0.149994 0.149994 0.149994
0.149994 0.149994 0.149994
0.149994 0.149994 0.149994
0.149994 0.149994 0.149994
0.149994 0.149994 0.149994
0.149994 0.149994 0.149994
0.149994 0.149994 0.149994
0.149994 0.149994 0.149994
0.149994 0.149994 0.149994
0.149994 0.149994 0.149994
0.149994 0.149994 0.149994
0.149994 0.149994 0.149994
0.149994 0.149994 0.149994
0.149994 0.149994 0.149994
0.149994 0.149994 0.149994
0.149994 0.149994 0.149994
0.149994 0.149994 0.149994
0.149994 0.149994 0.149994
0.149994 0.149994 0.149994
0.149994 0.149994 0.149994
0.149994 0.149994 0.149994
0.149994 0.149994 0.149994
0.149994 0.149994 0.149994
0.149994 0.149994 0.149994
0.149994 0.149994 0.149994
0.149994 0.149994 0.149994
0.149994 0.149994 0.149994
0.149994 0.149994 0.149994
0.149994 0.149994 0.149994
0.149994 0.149994 0.149994
0.149994 0.149994 0.149994
0.149994 0.149994 0.149994
0.149994 0.149994 0.149994
0.149994 0.149994 0.149994
0.149994 0.149994 0.149994
0.149994 0.149994 0.149994
0.149994 0.149994 0.149994
0.149994 0.149994 0.149994
0.149994 0.149994 0.149994
0.149994 0.149994 0.149994
0.149994 0.149994 0.149994
0.149994 0.149994 0.149994
0.149994 0.149994 0.149994
0.149994 0.149994 0.149994
0.149994 0.149994 0.149994
0.149994 0.149994 0.149994
0.149994 0.149994 0.149994
0.149994 0.149994 0.149994
0.149994 0.149994 0.149994
0.149994 0.149994 0.149994
0.149994 0.149994 0.149994
0.149994 0.149994 0.149994
0.149994 0.149994 0.149994
0.149994 0.149994 0.149994
0.149994 0.149994 0.149994
0.149994 0.149994 0.149994
0.149994 0.149994 0.149994
0.149994 0.149994 0.149994
0.149994 0.149994 0.149994
0.149994 0.149994 0.149994
0.149994 0.149994 0.149994
0.149994 0.149994 0.149994
0.149994 0.149994 0.149994
0.149994 0.149994 0.149994
0.149994 0.149994 0.149994
0.149994 0.149994 0.149994
0.149994 0.149994 0.149994
0.149994 0.149994 0.149994
0.149994 0.149994 0.149994
0.149994 0.149994 0.149994
0.149994 0.149994 0.149994
0.149994 0.149994 0.149994
0.149994 0.149994 0.149994
0.149994 0.149994 0.149994
0.149994 0.149994 0.149994
0.149994 0.149994 0.149994
0.149994 0.149994 0.149994
0.149994 0.149994 0.149994
0.149994 0.149994 0.149994
0.149994 0.149994 0.149994
0.149994 0.149994 0.149994
0.149994 0.149994 0.149994
0.149994 0.149994 0.149994
0.149994 0.149994 0.149994
0.149994 0.149994 0.149994
0.149994 0.149994 0.149994
0.149994 0.149994 0.149994
0.149994 0.149994 0.149994
0.149994 0.149994 0.149994
0.149994 0.149994 0.149994
0.149994 0.149994 0.149994
0.149994 0.149994 0.149994
0.149994 0.149994 0.149994
0.149994 0.149994 0.149994
0.149994 0.149994 0.149994
0.149994 0.149994 0.149994
0.149994 0.149994 0.149994
0.149994 0.149994 0.149994
0.149994 0.149994 0.149994
0.149994 0.149994 0.149994
0.149994 0.149994 0.149994
0.149994 0.149994 0.149994
0.149994 0.149994 0.149994
0.149994 0.149994 0.149994
0.149994 0.149994 0.149994
0.149994 0.149994 0.149994
0.149994 0.149994 0.149994
0.149994 0.149994 0.149994
0.149994 0.149994 0.149994
0.149994 0.149994 0.149994
0.149994 0.149994 0.149994
0.149994 0.149994 0.149994
0.149994 0.149994 0.149994
0.149994 0.149994 0.149994
0.149994 0.149994 0.149994
0.149994 0.149994 0.149994
0.149994 0.149994 0.149994
0.149994 0.149994 0.149994
0.149994 0.149994 0.149994
0.149994 0.149994 0.149994
0.149994 0.149994 0.149994
0.149994 0.149994 0.149994
0.149994 0.149994 0.149994
0.149994 0.149994 0.149994
0.149994 0.149994 0.149994
0.149994 0.149994 0.149994
0.149994 0.149994 0.149994
0.149994 0.149994 0.149994
0.149994 0.149994 0.149994
0.149994 0.149994 0.149994
0.149994 0.149994 0.149994
0.149994 0.149994 0.149994
0.149994 0.149994 0.149994
0.149994 0.149994 0.149994
0.149994 0.149994 0.149994
0.149994 0.149994 0.149994
0.149994 0.149994 0.149994
0.149994 0.149994 0.149994
0.149994 0.149994 0.149994
0.149994 0.149994 0.149994
0.149994 0.149994 0.149994
0.149994 0.149994 0.149994
0.149994 0.149994 0.149994
0.149994 0.149994 0.149994
0.149994 0.149994 0.149994
0.149994 0.149994 0.149994
0.149994 0.149994 0.149994
0.149994 0.149994 0.149994
0.149994 0.149994 0.149994
0.149994 0.149994 0.149994
0.149994 0.149994 0.149994
0.149994 0.149994 0.149994
0.149994 0.149994 0.149994
0.149994 0.149994 0.149994
0.149994 0.149994 0.149994
0.149994 0.149994 0.149994
