GDW_Y2 - CNZ/res/luts/gdw_y2_warm_filter_01.CUBE
#Created by: Adobe Photoshop Export Color Lookup Plugin
TITLE "GDW_2_Y2 - Filters 01.psd"
#LUT size
LUT_3D_SIZE 5
#data domain
#LUT data points
DOMAIN_MIN 0.000000 0.000000 0.000000
DOMAIN_MAX 0.903226 0.903226 0.903226
0.954346 0.461090 0.000000
0.954346 0.461090 0.000000
0.954346 0.461090 0.000000
0.954346 0.461090 0.000000
0.954346 0.461090 0.000000
0.415955 0.285309 0.239868
0.415955 0.285309 0.239868
0.415955 0.285309 0.239868
0.415955 0.285309 0.239868
0.415955 0.285309 0.239868
0.924316 0.458344 0.028259
1.000000 0.760956 0.362549
1.000000 0.964447 0.760437
1.000000 1.000000 1.000000
1.000000 1.000000 1.000000
0.954346 0.461090 0.000000
0.954346 0.461090 0.000000
0.954346 0.461090 0.000000
0.954346 0.461090 0.000000
0.954346 0.461090 0.000000
1.000000 0.528687 0.088074
1.000000 0.498230 0.029175
0.975769 0.471436 0.000000
0.954346 0.461090 0.000000
0.954346 0.461090 0.000000
0.954346 0.461090 0.000000
0.954346 0.461090 0.000000
0.954346 0.461090 0.000000
0.954346 0.461090 0.000000
0.954346 0.461090 0.000000
0.415955 0.285309 0.239868
0.415955 0.285309 0.239868
0.415955 0.285309 0.239868
0.415955 0.285309 0.239868
0.415955 0.285309 0.239868
0.219574 0.137543 0.060333
0.675110 0.617249 0.308807
1.000000 0.973877 0.665710
1.000000 1.000000 1.000000
1.000000 1.000000 1.000000
0.954346 0.461090 0.000000
0.954346 0.461090 0.000000
0.954346 0.461090 0.000000
0.954346 0.461090 0.000000
0.954346 0.461090 0.000000
1.000000 0.563904 0.162567
1.000000 0.520355 0.071991
0.986420 0.476593 0.000000
0.954346 0.461090 0.000000
0.954346 0.461090 0.000000
0.954346 0.461090 0.000000
0.954346 0.461090 0.000000
0.954346 0.461090 0.000000
0.954346 0.461090 0.000000
0.954346 0.461090 0.000000
0.415955 0.285309 0.239868
0.415955 0.285309 0.239868
0.415955 0.285309 0.239868
0.415955 0.285309 0.239868
0.415955 0.285309 0.239868
0.442505 0.308594 0.250000
0.791016 0.704529 0.421997
1.000000 0.964447 0.760437
1.000000 1.000000 1.000000
1.000000 1.000000 1.000000
0.954346 0.461090 0.000000
0.954346 0.461090 0.000000
0.954346 0.461090 0.000000
0.954346 0.461090 0.000000
0.954346 0.461090 0.000000
1.000000 0.563751 0.299835
1.000000 0.564636 0.167511
1.000000 0.489960 0.013184
0.954346 0.461090 0.000000
0.954346 0.461090 0.000000
0.954346 0.461090 0.000000
0.954346 0.461090 0.000000
0.954346 0.461090 0.000000
0.954346 0.461090 0.000000
0.954346 0.461090 0.000000
0.415955 0.285309 0.239868
0.415955 0.285309 0.239868
0.415955 0.285309 0.239868
0.415955 0.285309 0.239868
0.415955 0.285309 0.239868
0.438904 0.307404 0.250244
0.791016 0.704529 0.421997
1.000000 0.964447 0.760437
1.000000 1.000000 1.000000
1.000000 1.000000 1.000000
0.954346 0.461090 0.000000
0.954346 0.461090 0.000000
0.954346 0.461090 0.000000
0.954346 0.461090 0.000000
0.954346 0.461090 0.000000
1.000000 0.755981 0.440979
1.000000 0.562073 0.271423
1.000000 0.512054 0.055908
0.954346 0.461090 0.000000
0.954346 0.461090 0.000000
0.954346 0.461090 0.000000
0.954346 0.461090 0.000000
0.954346 0.461090 0.000000
0.954346 0.461090 0.000000
0.954346 0.461090 0.000000
0.415955 0.285309 0.239868
0.415955 0.285309 0.239868
0.415955 0.285309 0.239868
0.415955 0.285309 0.239868
0.415955 0.285309 0.239868
0.924316 0.458344 0.028259
1.000000 0.760956 0.362549
1.000000 0.964447 0.760437
1.000000 1.000000 1.000000
1.000000 1.000000 1.000000
0.954346 0.461090 0.000000
0.954346 0.461090 0.000000
0.415955 0.285309 0.239868
0.415955 0.285309 0.239868
0.954346 0.461090 0.000000
1.000000 0.867157 0.571564
1.000000 0.658356 0.376923
1.000000 0.534210 0.098785
0.954346 0.461090 0.000000
0.954346 0.461090 0.000000
