GDW_Y2 - CNZ/res/luts/gdw_y2_warm_filter_01.CUBE
#Created by: Adobe Photoshop Export Color Lookup Plugin
TITLE "GDW_2_Y2 - Filters 01.psd"
#LUT size
LUT_3D_SIZE 8
#data domain
#LUT data points
DOMAIN_MIN 0.000000 0.000000 0.000000
DOMAIN_MAX 0.903226 0.903226 0.903226
0.954346 0.461090 0.000000
0.954346 0.461090 0.000000
0.954346 0.461090 0.000000
0.954346 0.461090 0.000000
0.954346 0.461090 0.000000
0.954346 0.461090 0.000000
0.954346 0.461090 0.000000
0.954346 0.461090 0.000000
0.954346 0.461090 0.000000
0.954346 0.461090 0.000000
0.954346 0.461090 0.000000
0.954346 0.461090 0.000000
0.954346 0.461090 0.000000
0.954346 0.461090 0.000000
0.954346 0.461090 0.000000
0.954346 0.461090 0.000000
0.415955 0.285309 0.239868
0.415955 0.285309 0.239868
0.415955 0.285309 0.239868
0.415955 0.285309 0.239868
0.415955 0.285309 0.239868
0.415955 0.285309 0.239868
0.415955 0.285309 0.239868
0.415955 0.285309 0.239868
0.743866 0.359406 0.000000
0.935333 0.544983 0.188202
1.000000 0.796844 0.395660
1.000000 0.922913 0.632843
1.000000 0.992737 0.914551
1.000000 1.000000 1.000000
1.000000 1.000000 1.000000
1.000000 1.000000 1.000000
0.452240 0.230469 0.048889
0.641266 0.489075 0.186279
0.838196 0.730133 0.319916
1.000000 0.966644 0.580872
1.000000 0.994904 0.914246
1.000000 1.000000 1.000000
1.000000 1.000000 1.000000
1.000000 1.000000 1.000000
0.954346 0.461090 0.000000
0.954346 0.461090 0.000000
0.954346 0.461090 0.000000
0.954346 0.461090 0.000000
0.954346 0.461090 0.000000
0.954346 0.461090 0.000000
0.954346 0.461090 0.000000
0.954346 0.461090 0.000000
1.000000 0.994568 0.914001
1.000000 0.995667 0.931580
1.000000 0.996765 0.949188
1.000000 0.998535 0.973358
1.000000 0.999512 0.991119
1.000000 1.000000 1.000000
1.000000 1.000000 1.000000
1.000000 1.000000 1.000000
1.000000 0.528687 0.088074
1.000000 0.509277 0.050537
1.000000 0.492706 0.018463
0.986420 0.476593 0.000000
0.959717 0.463684 0.000000
0.954346 0.461090 0.000000
0.954346 0.461090 0.000000
0.954346 0.461090 0.000000
0.954346 0.461090 0.000000
0.954346 0.461090 0.000000
0.954346 0.461090 0.000000
0.954346 0.461090 0.000000
0.954346 0.461090 0.000000
0.954346 0.461090 0.000000
0.954346 0.461090 0.000000
0.954346 0.461090 0.000000
0.954346 0.461090 0.000000
0.954346 0.461090 0.000000
0.954346 0.461090 0.000000
0.954346 0.461090 0.000000
0.954346 0.461090 0.000000
0.954346 0.461090 0.000000
0.954346 0.461090 0.000000
0.954346 0.461090 0.000000
0.415955 0.285309 0.239868
0.415955 0.285309 0.239868
0.415955 0.285309 0.239868
0.415955 0.285309 0.239868
0.415955 0.285309 0.239868
0.415955 0.285309 0.239868
0.415955 0.285309 0.239868
0.415955 0.285309 0.239868
0.924316 0.458344 0.028259
1.000000 0.604950 0.235992
1.000000 0.800751 0.414978
1.000000 0.922913 0.632843
1.000000 0.992737 0.914551
1.000000 1.000000 1.000000
1.000000 1.000000 1.000000
1.000000 1.000000 1.000000
0.557617 0.484161 0.301300
0.730621 0.669037 0.375336
0.906738 0.850433 0.449066
1.000000 0.965851 0.610535
1.000000 0.995453 0.920135
1.000000 1.000000 1.000000
1.000000 1.000000 1.000000
1.000000 1.000000 1.000000
0.954346 0.461090 0.000000
0.954346 0.461090 0.000000
0.954346 0.461090 0.000000
0.954346 0.461090 0.000000
0.954346 0.461090 0.000000
0.954346 0.461090 0.000000
0.954346 0.461090 0.000000
0.954346 0.461090 0.000000
1.000000 0.997406 0.956787
1.000000 0.997955 0.965637
1.000000 0.998474 0.974457
1.000000 0.998993 0.983337
1.000000 1.000000 1.000000
1.000000 1.000000 1.000000
1.000000 1.000000 1.000000
1.000000 1.000000 1.000000
1.000000 0.550873 0.131012
1.000000 0.528687 0.088074
1.000000 0.503754 0.039856
1.000000 0.484436 0.002472
0.965057 0.466278 0.000000
0.954346 0.461090 0.000000
0.954346 0.461090 0.000000
0.954346 0.461090 0.000000
0.954346 0.461090 0.000000
0.954346 0.461090 0.000000
0.954346 0.461090 0.000000
0.954346 0.461090 0.000000
0.954346 0.461090 0.000000
0.954346 0.461090 0.000000
0.954346 0.461090 0.000000
0.954346 0.461090 0.000000
0.954346 0.461090 0.000000
0.954346 0.461090 0.000000
0.954346 0.461090 0.000000
0.954346 0.461090 0.000000
0.954346 0.461090 0.000000
0.954346 0.461090 0.000000
0.954346 0.461090 0.000000
0.954346 0.461090 0.000000
0.415955 0.285309 0.239868
0.415955 0.285309 0.239868
0.415955 0.285309 0.239868
0.415955 0.285309 0.239868
0.415955 0.285309 0.239868
0.415955 0.285309 0.239868
0.415955 0.285309 0.239868
0.415955 0.285309 0.239868
0.924316 0.458344 0.028259
1.000000 0.604950 0.235992
1.000000 0.800751 0.414978
1.000000 0.922913 0.632843
1.000000 0.992737 0.914551
1.000000 1.000000 1.000000
1.000000 1.000000 1.000000
1.000000 1.000000 1.000000
0.824615 0.753723 0.435913
0.936249 0.872681 0.478577
1.000000 0.953918 0.569153
1.000000 0.979523 0.751007
1.000000 0.997009 0.946777
1.000000 0.999939 0.999054
1.000000 1.000000 1.000000
1.000000 1.000000 1.000000
0.954346 0.461090 0.000000
0.954346 0.461090 0.000000
0.954346 0.461090 0.000000
0.954346 0.461090 0.000000
0.954346 0.461090 0.000000
0.954346 0.461090 0.000000
0.954346 0.461090 0.000000
0.954346 0.461090 0.000000
1.000000 1.000000 1.000000
1.000000 1.000000 1.000000
1.000000 1.000000 1.000000
1.000000 1.000000 1.000000
1.000000 1.000000 1.000000
1.000000 1.000000 1.000000
1.000000 1.000000 1.000000
1.000000 1.000000 1.000000
1.000000 0.565277 0.172546
1.000000 0.545319 0.120270
1.000000 0.517578 0.066620
1.000000 0.489960 0.013184
0.965057 0.466278 0.000000
0.954346 0.461090 0.000000
0.954346 0.461090 0.000000
0.954346 0.461090 0.000000
0.954346 0.461090 0.000000
0.954346 0.461090 0.000000
0.954346 0.461090 0.000000
0.954346 0.461090 0.000000
0.954346 0.461090 0.000000
0.954346 0.461090 0.000000
0.954346 0.461090 0.000000
0.954346 0.461090 0.000000
0.954346 0.461090 0.000000
0.954346 0.461090 0.000000
0.954346 0.461090 0.000000
0.954346 0.461090 0.000000
0.954346 0.461090 0.000000
0.954346 0.461090 0.000000
0.954346 0.461090 0.000000
0.954346 0.461090 0.000000
0.415955 0.285309 0.239868
0.415955 0.285309 0.239868
0.415955 0.285309 0.239868
0.415955 0.285309 0.239868
0.415955 0.285309 0.239868
0.415955 0.285309 0.239868
0.415955 0.285309 0.239868
0.415955 0.285309 0.239868
0.924316 0.458344 0.028259
1.000000 0.604950 0.235992
1.000000 0.800751 0.414978
1.000000 0.922913 0.632843
1.000000 0.992737 0.914551
1.000000 1.000000 1.000000
1.000000 1.000000 1.000000
1.000000 1.000000 1.000000
1.000000 0.949768 0.521484
1.000000 0.965851 0.616638
1.000000 0.979401 0.727997
1.000000 0.990051 0.843719
1.000000 0.998077 0.963379
1.000000 0.999939 0.999054
1.000000 0.999939 0.999054
1.000000 1.000000 1.000000
0.954346 0.461090 0.000000
0.954346 0.461090 0.000000
0.954346 0.461090 0.000000
0.954346 0.461090 0.000000
0.954346 0.461090 0.000000
0.954346 0.461090 0.000000
0.954346 0.461090 0.000000
0.954346 0.461090 0.000000
1.000000 1.000000 1.000000
1.000000 1.000000 1.000000
1.000000 1.000000 1.000000
1.000000 1.000000 1.000000
1.000000 1.000000 1.000000
1.000000 1.000000 1.000000
1.000000 1.000000 1.000000
1.000000 1.000000 1.000000
1.000000 0.562561 0.257446
1.000000 0.566498 0.192169
1.000000 0.539764 0.109558
1.000000 0.501007 0.034546
0.970398 0.468842 0.000000
0.954346 0.461090 0.000000
0.954346 0.461090 0.000000
0.954346 0.461090 0.000000
0.954346 0.461090 0.000000
0.954346 0.461090 0.000000
0.954346 0.461090 0.000000
0.954346 0.461090 0.000000
0.954346 0.461090 0.000000
0.954346 0.461090 0.000000
0.954346 0.461090 0.000000
0.954346 0.461090 0.000000
0.954346 0.461090 0.000000
0.954346 0.461090 0.000000
0.954346 0.461090 0.000000
0.954346 0.461090 0.000000
0.954346 0.461090 0.000000
0.954346 0.461090 0.000000
0.954346 0.461090 0.000000
0.954346 0.461090 0.000000
0.447662 0.324615 0.264374
0.465637 0.348145 0.278381
0.478638 0.373566 0.293152
0.492737 0.389221 0.303467
0.510681 0.405945 0.313416
0.524231 0.423004 0.320709
0.539886 0.442535 0.327911
0.554077 0.458344 0.332916
0.207611 0.118958 0.038879
0.469391 0.397552 0.167267
0.725006 0.665131 0.307251
1.000000 0.922913 0.632843
1.000000 0.992737 0.914551
1.000000 1.000000 1.000000
1.000000 1.000000 1.000000
1.000000 1.000000 1.000000
1.000000 0.989105 0.827698
1.000000 0.991364 0.862823
1.000000 0.994476 0.902374
1.000000 0.997131 0.945557
1.000000 0.999481 0.989075
1.000000 0.999908 0.998077
1.000000 0.999939 0.999054
1.000000 0.999939 0.999054
0.954346 0.461090 0.000000
0.954346 0.461090 0.000000
0.954346 0.461090 0.000000
0.954346 0.461090 0.000000
0.954346 0.461090 0.000000
0.954346 0.461090 0.000000
0.954346 0.461090 0.000000
0.954346 0.461090 0.000000
1.000000 1.000000 1.000000
1.000000 1.000000 1.000000
1.000000 1.000000 1.000000
1.000000 1.000000 1.000000
1.000000 1.000000 1.000000
1.000000 1.000000 1.000000
1.000000 1.000000 1.000000
1.000000 1.000000 1.000000
1.000000 0.622314 0.354095
1.000000 0.562164 0.264404
1.000000 0.565399 0.177368
1.000000 0.523132 0.077362
0.975769 0.471436 0.000000
0.954346 0.461090 0.000000
0.954346 0.461090 0.000000
0.954346 0.461090 0.000000
0.954346 0.461090 0.000000
0.954346 0.461090 0.000000
0.954346 0.461090 0.000000
0.954346 0.461090 0.000000
0.954346 0.461090 0.000000
0.954346 0.461090 0.000000
0.954346 0.461090 0.000000
0.954346 0.461090 0.000000
0.954346 0.461090 0.000000
0.954346 0.461090 0.000000
0.954346 0.461090 0.000000
0.954346 0.461090 0.000000
0.954346 0.461090 0.000000
0.954346 0.461090 0.000000
0.954346 0.461090 0.000000
0.954346 0.461090 0.000000
0.639496 0.546295 0.366791
0.653687 0.562195 0.371735
0.669373 0.581665 0.378754
0.683655 0.597748 0.383636
0.703003 0.618530 0.390778
0.717224 0.634613 0.395569
0.732117 0.648987 0.402832
0.746338 0.665100 0.407532
0.959717 0.463684 0.000000
1.000000 0.562866 0.253967
1.000000 0.764709 0.448364
1.000000 0.922913 0.632843
1.000000 0.992737 0.914551
1.000000 1.000000 1.000000
1.000000 1.000000 1.000000
1.000000 1.000000 1.000000
1.000000 0.999817 0.995026
1.000000 0.999847 0.996033
1.000000 0.999847 0.996033
1.000000 0.999878 0.997101
1.000000 0.999878 0.997101
1.000000 0.999908 0.998077
1.000000 0.999908 0.998077
1.000000 0.999939 0.999054
0.954346 0.461090 0.000000
0.954346 0.461090 0.000000
0.954346 0.461090 0.000000
0.954346 0.461090 0.000000
0.954346 0.461090 0.000000
0.954346 0.461090 0.000000
0.954346 0.461090 0.000000
0.954346 0.461090 0.000000
1.000000 1.000000 1.000000
1.000000 1.000000 1.000000
1.000000 1.000000 1.000000
1.000000 1.000000 1.000000
1.000000 1.000000 1.000000
1.000000 1.000000 1.000000
1.000000 1.000000 1.000000
1.000000 1.000000 1.000000
1.000000 0.738220 0.427246
1.000000 0.581879 0.334106
1.000000 0.564636 0.236633
1.000000 0.542542 0.114899
0.986420 0.476593 0.000000
0.954346 0.461090 0.000000
0.954346 0.461090 0.000000
0.954346 0.461090 0.000000
0.954346 0.461090 0.000000
0.954346 0.461090 0.000000
0.954346 0.461090 0.000000
0.954346 0.461090 0.000000
0.954346 0.461090 0.000000
0.954346 0.461090 0.000000
0.954346 0.461090 0.000000
0.954346 0.461090 0.000000
0.954346 0.461090 0.000000
0.954346 0.461090 0.000000
0.954346 0.461090 0.000000
0.954346 0.461090 0.000000
0.954346 0.461090 0.000000
0.954346 0.461090 0.000000
0.954346 0.461090 0.000000
0.954346 0.461090 0.000000
0.829987 0.756836 0.440857
0.849274 0.777679 0.448059
1.000000 0.786652 0.469391
1.000000 0.797241 0.480621
1.000000 0.810120 0.494965
1.000000 0.820251 0.506897
1.000000 0.832520 0.522308
1.000000 0.841980 0.535034
0.959717 0.463684 0.000000
1.000000 0.562866 0.253967
1.000000 0.764709 0.448364
1.000000 0.922913 0.632843
1.000000 0.992737 0.914551
1.000000 1.000000 1.000000
1.000000 1.000000 1.000000
1.000000 1.000000 1.000000
1.000000 0.999817 0.995026
1.000000 0.999817 0.995026
1.000000 0.999847 0.996033
1.000000 0.999847 0.996033
1.000000 0.999878 0.997101
1.000000 0.999878 0.997101
1.000000 0.999908 0.998077
1.000000 0.999908 0.998077
0.954346 0.461090 0.000000
0.954346 0.461090 0.000000
0.954346 0.461090 0.000000
0.954346 0.461090 0.000000
0.954346 0.461090 0.000000
0.954346 0.461090 0.000000
0.954346 0.461090 0.000000
0.954346 0.461090 0.000000
1.000000 1.000000 1.000000
1.000000 1.000000 1.000000
1.000000 1.000000 1.000000
1.000000 1.000000 1.000000
1.000000 1.000000 1.000000
1.000000 1.000000 1.000000
1.000000 1.000000 1.000000
1.000000 1.000000 1.000000
1.000000 0.810120 0.494965
1.000000 0.706055 0.407776
1.000000 0.562531 0.282104
1.000000 0.561981 0.152527
0.991791 0.479187 0.000000
0.954346 0.461090 0.000000
0.954346 0.461090 0.000000
0.954346 0.461090 0.000000
0.954346 0.461090 0.000000
0.954346 0.461090 0.000000
0.954346 0.461090 0.000000
0.954346 0.461090 0.000000
0.954346 0.461090 0.000000
0.954346 0.461090 0.000000
0.954346 0.461090 0.000000
0.954346 0.461090 0.000000
0.954346 0.461090 0.000000
0.954346 0.461090 0.000000
0.954346 0.461090 0.000000
0.954346 0.461090 0.000000
0.954346 0.461090 0.000000
0.954346 0.461090 0.000000
0.954346 0.461090 0.000000
0.954346 0.461090 0.000000
1.000000 0.896881 0.621552
1.000000 0.904877 0.636536
1.000000 0.912659 0.651947
1.000000 0.921936 0.671722
1.000000 0.929138 0.687958
1.000000 0.936157 0.704559
1.000000 0.944427 0.725769
1.000000 0.950745 0.743347
0.959717 0.463684 0.000000
1.000000 0.562866 0.253967
1.000000 0.764709 0.448364
1.000000 0.922913 0.632843
1.000000 0.992737 0.914551
1.000000 1.000000 1.000000
1.000000 1.000000 1.000000
1.000000 1.000000 1.000000
1.000000 0.999786 0.993988
1.000000 0.999817 0.995026
1.000000 0.999817 0.995026
1.000000 0.999847 0.996033
1.000000 0.999847 0.996033
1.000000 0.999878 0.997101
1.000000 0.999878 0.997101
1.000000 0.999908 0.998077
0.954346 0.461090 0.000000
0.954346 0.461090 0.000000
0.954346 0.461090 0.000000
0.954346 0.461090 0.000000
0.954346 0.461090 0.000000
0.954346 0.461090 0.000000
0.954346 0.461090 0.000000
0.954346 0.461090 0.000000
1.000000 1.000000 1.000000
1.000000 1.000000 1.000000
1.000000 1.000000 1.000000
1.000000 1.000000 1.000000
1.000000 1.000000 1.000000
1.000000 1.000000 1.000000
1.000000 1.000000 1.000000
1.000000 1.000000 1.000000
1.000000 0.867157 0.571564
1.000000 0.767517 0.450867
1.000000 0.572052 0.329193
1.000000 0.566498 0.192169
1.000000 0.484436 0.002472
0.954346 0.461090 0.000000
0.954346 0.461090 0.000000
0.954346 0.461090 0.000000
