GDW_Y2 - CNZ/res/luts/gdw_y2_warm_filter_01.CUBE
#Created by: Adobe Photoshop Export Color Lookup Plugin
TITLE "GDW_2_Y2 - Filters 01.psd"
#LUT size
LUT_3D_SIZE 32
#data domain
DOMAIN_MIN 0.0 0.0 0.0
DOMAIN_MAX 1.0 1.0 1.0
#LUT data points
0.954346 0.461090 0.000000
0.954346 0.461090 0.000000
0.954346 0.461090 0.000000
0.954346 0.461090 0.000000
0.954346 0.461090 0.000000
0.954346 0.461090 0.000000
0.954346 0.461090 0.000000
0.954346 0.461090 0.000000
0.954346 0.461090 0.000000
0.954346 0.461090 0.000000
0.954346 0.461090 0.000000
0.954346 0.461090 0.000000
0.954346 0.461090 0.000000
0.954346 0.461090 0.000000
0.954346 0.461090 0.000000
0.954346 0.461090 0.000000
0.954346 0.461090 0.000000
0.954346 0.461090 0.000000
0.954346 0.461090 0.000000
0.954346 0.461090 0.000000
0.954346 0.461090 0.000000
0.954346 0.461090 0.000000
0.954346 0.461090 0.000000
0.954346 0.461090 0.000000
0.954346 0.461090 0.000000
0.954346 0.461090 0.000000
0.954346 0.461090 0.000000
0.954346 0.461090 0.000000
0.954346 0.461090 0.000000
0.954346 0.461090 0.000000
0.954346 0.461090 0.000000
0.954346 0.461090 0.000000
0.954346 0.461090 0.000000
0.954346 0.461090 0.000000
0.954346 0.461090 0.000000
0.954346 0.461090 0.000000
0.954346 0.461090 0.000000
0.954346 0.461090 0.000000
0.954346 0.461090 0.000000
0.954346 0.461090 0.000000
0.954346 0.461090 0.000000
0.954346 0.461090 0.000000
0.954346 0.461090 0.000000
0.954346 0.461090 0.000000
0.954346 0.461090 0.000000
0.954346 0.461090 0.000000
0.954346 0.461090 0.000000
0.954346 0.461090 0.000000
0.954346 0.461090 0.000000
0.954346 0.461090 0.000000
0.954346 0.461090 0.000000
0.954346 0.461090 0.000000
0.954346 0.461090 0.000000
0.954346 0.461090 0.000000
0.954346 0.461090 0.000000
0.954346 0.461090 0.000000
0.954346 0.461090 0.000000
0.954346 0.461090 0.000000
0.954346 0.461090 0.000000
0.954346 0.461090 0.000000
0.954346 0.461090 0.000000
0.954346 0.461090 0.000000
0.954346 0.461090 0.000000
0.954346 0.461090 0.000000
0.954346 0.461090 0.000000
0.954346 0.461090 0.000000
0.954346 0.461090 0.000000
0.954346 0.461090 0.000000
0.954346 0.461090 0.000000
0.954346 0.461090 0.000000
0.954346 0.461090 0.000000
0.954346 0.461090 0.000000
0.954346 0.461090 0.000000
0.954346 0.461090 0.000000
0.954346 0.461090 0.000000
0.954346 0.461090 0.000000
0.954346 0.461090 0.000000
0.954346 0.461090 0.000000
0.954346 0.461090 0.000000
0.954346 0.461090 0.000000
0.954346 0.461090 0.000000
0.954346 0.461090 0.000000
0.954346 0.461090 0.000000
0.954346 0.461090 0.000000
0.954346 0.461090 0.000000
0.954346 0.461090 0.000000
0.954346 0.461090 0.000000
0.954346 0.461090 0.000000
0.954346 0.461090 0.000000
0.954346 0.461090 0.000000
0.954346 0.461090 0.000000
0.954346 0.461090 0.000000
0.954346 0.461090 0.000000
0.954346 0.461090 0.000000
0.954346 0.461090 0.000000
0.954346 0.461090 0.000000
0.954346 0.461090 0.000000
0.954346 0.461090 0.000000
0.954346 0.461090 0.000000
0.954346 0.461090 0.000000
0.954346 0.461090 0.000000
0.954346 0.461090 0.000000
0.954346 0.461090 0.000000
0.954346 0.461090 0.000000
0.954346 0.461090 0.000000
0.954346 0.461090 0.000000
0.954346 0.461090 0.000000
0.954346 0.461090 0.000000
0.954346 0.461090 0.000000
0.954346 0.461090 0.000000
0.954346 0.461090 0.000000
0.954346 0.461090 0.000000
0.954346 0.461090 0.000000
0.954346 0.461090 0.000000
0.954346 0.461090 0.000000
0.954346 0.461090 0.000000
0.954346 0.461090 0.000000
0.954346 0.461090 0.000000
0.954346 0.461090 0.000000
0.954346 0.461090 0.000000
0.954346 0.461090 0.000000
0.954346 0.461090 0.000000
0.954346 0.461090 0.000000
0.954346 0.461090 0.000000
0.954346 0.461090 0.000000
0.954346 0.461090 0.000000
0.954346 0.461090 0.000000
0.954346 0.461090 0.000000
0.954346 0.461090 0.000000
0.954346 0.461090 0.000000
0.954346 0.461090 0.000000
0.954346 0.461090 0.000000
0.954346 0.461090 0.000000
0.954346 0.461090 0.000000
0.954346 0.461090 0.000000
0.954346 0.461090 0.000000
0.954346 0.461090 0.000000
0.954346 0.461090 0.000000
0.954346 0.461090 0.000000
0.954346 0.461090 0.000000
0.954346 0.461090 0.000000
0.954346 0.461090 0.000000
0.954346 0.461090 0.000000
0.954346 0.461090 0.000000
0.954346 0.461090 0.000000
0.954346 0.461090 0.000000
0.954346 0.461090 0.000000
0.954346 0.461090 0.000000
0.954346 0.461090 0.000000
0.954346 0.461090 0.000000
0.954346 0.461090 0.000000
0.954346 0.461090 0.000000
0.954346 0.461090 0.000000
0.954346 0.461090 0.000000
0.954346 0.461090 0.000000
0.954346 0.461090 0.000000
0.954346 0.461090 0.000000
0.954346 0.461090 0.000000
0.954346 0.461090 0.000000
0.954346 0.461090 0.000000
0.954346 0.461090 0.000000
0.954346 0.461090 0.000000
0.954346 0.461090 0.000000
0.954346 0.461090 0.000000
0.954346 0.461090 0.000000
0.954346 0.461090 0.000000
0.954346 0.461090 0.000000
0.954346 0.461090 0.000000
0.954346 0.461090 0.000000
0.954346 0.461090 0.000000
0.954346 0.461090 0.000000
0.954346 0.461090 0.000000
0.954346 0.461090 0.000000
0.954346 0.461090 0.000000
0.954346 0.461090 0.000000
0.954346 0.461090 0.000000
0.954346 0.461090 0.000000
0.954346 0.461090 0.000000
0.954346 0.461090 0.000000
0.954346 0.461090 0.000000
0.954346 0.461090 0.000000
0.954346 0.461090 0.000000
0.954346 0.461090 0.000000
0.954346 0.461090 0.000000
0.954346 0.461090 0.000000
0.954346 0.461090 0.000000
0.954346 0.461090 0.000000
0.954346 0.461090 0.000000
0.954346 0.461090 0.000000
0.954346 0.461090 0.000000
0.954346 0.461090 0.000000
0.954346 0.461090 0.000000
0.415955 0.285309 0.239868
0.415955 0.285309 0.239868
0.415955 0.285309 0.239868
0.415955 0.285309 0.239868
0.415955 0.285309 0.239868
0.415955 0.285309 0.239868
0.415955 0.285309 0.239868
0.415955 0.285309 0.239868
0.415955 0.285309 0.239868
0.415955 0.285309 0.239868
0.415955 0.285309 0.239868
0.415955 0.285309 0.239868
0.415955 0.285309 0.239868
0.415955 0.285309 0.239868
0.415955 0.285309 0.239868
0.415955 0.285309 0.239868
0.415955 0.285309 0.239868
0.415955 0.285309 0.239868
0.415955 0.285309 0.239868
0.415955 0.285309 0.239868
0.415955 0.285309 0.239868
0.415955 0.285309 0.239868
0.415955 0.285309 0.239868
0.415955 0.285309 0.239868
0.415955 0.285309 0.239868
0.415955 0.285309 0.239868
0.415955 0.285309 0.239868
0.415955 0.285309 0.239868
0.415955 0.285309 0.239868
0.415955 0.285309 0.239868
0.415955 0.285309 0.239868
0.415955 0.285309 0.239868
0.415955 0.285309 0.239868
0.415955 0.285309 0.239868
0.415955 0.285309 0.239868
0.415955 0.285309 0.239868
0.415955 0.285309 0.239868
0.415955 0.285309 0.239868
0.415955 0.285309 0.239868
0.415955 0.285309 0.239868
0.415955 0.285309 0.239868
0.415955 0.285309 0.239868
0.415955 0.285309 0.239868
0.415955 0.285309 0.239868
0.415955 0.285309 0.239868
0.415955 0.285309 0.239868
0.415955 0.285309 0.239868
0.415955 0.285309 0.239868
0.415955 0.285309 0.239868
0.415955 0.285309 0.239868
0.415955 0.285309 0.239868
0.415955 0.285309 0.239868
0.415955 0.285309 0.239868
0.415955 0.285309 0.239868
0.415955 0.285309 0.239868
0.415955 0.285309 0.239868
0.415955 0.285309 0.239868
0.415955 0.285309 0.239868
0.415955 0.285309 0.239868
0.415955 0.285309 0.239868
0.415955 0.285309 0.239868
0.415955 0.285309 0.239868
0.415955 0.285309 0.239868
0.415955 0.285309 0.239868
0.415955 0.285309 0.239868
0.415955 0.285309 0.239868
0.415955 0.285309 0.239868
0.415955 0.285309 0.239868
0.415955 0.285309 0.239868
0.415955 0.285309 0.239868
0.415955 0.285309 0.239868
0.415955 0.285309 0.239868
0.415955 0.285309 0.239868
0.415955 0.285309 0.239868
0.415955 0.285309 0.239868
0.415955 0.285309 0.239868
0.415955 0.285309 0.239868
0.415955 0.285309 0.239868
0.415955 0.285309 0.239868
0.415955 0.285309 0.239868
0.415955 0.285309 0.239868
0.415955 0.285309 0.239868
0.415955 0.285309 0.239868
0.415955 0.285309 0.239868
0.415955 0.285309 0.239868
0.415955 0.285309 0.239868
0.415955 0.285309 0.239868
0.415955 0.285309 0.239868
0.415955 0.285309 0.239868
0.415955 0.285309 0.239868
0.415955 0.285309 0.239868
0.415955 0.285309 0.239868
0.415955 0.285309 0.239868
0.415955 0.285309 0.239868
0.415955 0.285309 0.239868
0.415955 0.285309 0.239868
1.000000 0.983124 0.863495
1.000000 0.984131 0.868683
1.000000 0.985107 0.874023
1.000000 0.986084 0.879303
1.000000 0.987030 0.884644
1.000000 0.987915 0.890045
1.000000 0.988831 0.895416
1.000000 0.989655 0.900879
1.000000 0.991302 0.911865
1.000000 0.992096 0.917542
1.000000 0.992859 0.923065
1.000000 0.993561 0.928802
1.000000 0.994263 0.934418
1.000000 0.994934 0.940186
1.000000 0.995575 0.945984
1.000000 0.996185 0.951782
1.000000 0.996765 0.957672
1.000000 0.997314 0.963593
1.000000 0.997833 0.969543
1.000000 0.998352 0.975555
1.000000 0.998779 0.981598
1.000000 0.999268 0.987671
1.000000 0.999634 0.993835
1.000000 1.000000 1.000000
1.000000 1.000000 1.000000
1.000000 1.000000 1.000000
1.000000 1.000000 1.000000
1.000000 1.000000 1.000000
1.000000 1.000000 1.000000
1.000000 1.000000 1.000000
1.000000 1.000000 1.000000
1.000000 1.000000 1.000000
1.000000 1.000000 1.000000
1.000000 1.000000 1.000000
1.000000 1.000000 1.000000
1.000000 1.000000 1.000000
1.000000 1.000000 1.000000
1.000000 1.000000 1.000000
1.000000 1.000000 1.000000
1.000000 1.000000 1.000000
1.000000 1.000000 1.000000
1.000000 1.000000 1.000000
1.000000 1.000000 1.000000
1.000000 1.000000 1.000000
1.000000 1.000000 1.000000
1.000000 1.000000 1.000000
1.000000 1.000000 1.000000
1.000000 1.000000 1.000000
1.000000 1.000000 1.000000
1.000000 1.000000 1.000000
1.000000 1.000000 1.000000
1.000000 1.000000 1.000000
1.000000 1.000000 1.000000
1.000000 1.000000 1.000000
1.000000 1.000000 1.000000
1.000000 1.000000 1.000000
1.000000 1.000000 1.000000
1.000000 1.000000 1.000000
1.000000 1.000000 1.000000
1.000000 1.000000 1.000000
1.000000 1.000000 1.000000
1.000000 1.000000 1.000000
1.000000 1.000000 1.000000
1.000000 1.000000 1.000000
1.000000 0.864929 0.568146
1.000000 0.875916 0.585419
1.000000 0.886658 0.603180
1.000000 0.896881 0.621552
1.000000 0.906769 0.640472
1.000000 0.916382 0.659821
1.000000 0.925659 0.679749
1.000000 0.936157 0.704559
1.000000 0.944427 0.725769
1.000000 0.953735 0.752289
1.000000 0.961121 0.775085
1.000000 0.969177 0.803436
1.000000 0.976593 0.832764
1.000000 0.983124 0.863495
1.000000 0.988831 0.895416
1.000000 0.993561 0.928802
1.000000 0.997314 0.963593
1.000000 1.000000 1.000000
1.000000 1.000000 1.000000
1.000000 1.000000 1.000000
1.000000 1.000000 1.000000
1.000000 1.000000 1.000000
1.000000 1.000000 1.000000
1.000000 1.000000 1.000000
1.000000 1.000000 1.000000
1.000000 1.000000 1.000000
1.000000 1.000000 1.000000
1.000000 1.000000 1.000000
1.000000 1.000000 1.000000
1.000000 1.000000 1.000000
1.000000 1.000000 1.000000
1.000000 1.000000 1.000000
0.743866 0.359406 0.000000
0.814026 0.403198 0.030640
0.875916 0.416138 0.066986
0.941833 0.419128 0.101563
0.935333 0.544983 0.188202
0.961731 0.625458 0.222778
0.995667 0.692566 0.256714
1.000000 0.748810 0.324890
1.000000 0.796844 0.395660
1.000000 0.836395 0.465179
1.000000 0.867401 0.516327
1.000000 0.897705 0.574158
1.000000 0.922913 0.632843
1.000000 0.945374 0.692657
1.000000 0.964447 0.760437
1.000000 0.981140 0.838440
1.000000 0.992737 0.914551
1.000000 1.000000 1.000000
1.000000 1.000000 1.000000
1.000000 1.000000 1.000000
1.000000 1.000000 1.000000
1.000000 1.000000 1.000000
1.000000 1.000000 1.000000
1.000000 1.000000 1.000000
1.000000 1.000000 1.000000
1.000000 1.000000 1.000000
1.000000 1.000000 1.000000
1.000000 1.000000 1.000000
1.000000 1.000000 1.000000
1.000000 1.000000 1.000000
1.000000 1.000000 1.000000
1.000000 1.000000 1.000000
0.456726 0.320160 0.253082
0.501892 0.384949 0.292084
0.549225 0.437683 0.321259
0.598206 0.493927 0.340576
1.000000 0.562866 0.253967
1.000000 0.564484 0.306946
1.000000 0.652100 0.372498
1.000000 0.719452 0.414886
1.000000 0.764709 0.448364
1.000000 0.801056 0.456726
1.000000 0.867401 0.516327
1.000000 0.897705 0.574158
1.000000 0.922913 0.632843
1.000000 0.945374 0.692657
1.000000 0.964447 0.760437
1.000000 0.981140 0.838440
1.000000 0.992737 0.914551
1.000000 1.000000 1.000000
1.000000 1.000000 1.000000
1.000000 1.000000 1.000000
1.000000 1.000000 1.000000
1.000000 1.000000 1.000000
1.000000 1.000000 1.000000
1.000000 1.000000 1.000000
1.000000 1.000000 1.000000
1.000000 1.000000 1.000000
1.000000 1.000000 1.000000
1.000000 1.000000 1.000000
1.000000 1.000000 1.000000
1.000000 1.000000 1.000000
1.000000 1.000000 1.000000
1.000000 1.000000 1.000000
0.924316 0.458344 0.028259
0.970154 0.465485 0.058319
1.000000 0.465149 0.102905
1.000000 0.494232 0.176270
1.000000 0.604950 0.235992
1.000000 0.663635 0.270264
1.000000 0.713104 0.310364
1.000000 0.760956 0.362549
1.000000 0.800751 0.414978
1.000000 0.836395 0.465179
1.000000 0.867401 0.516327
1.000000 0.897705 0.574158
1.000000 0.922913 0.632843
1.000000 0.945374 0.692657
1.000000 0.964447 0.760437
1.000000 0.981140 0.838440
1.000000 0.992737 0.914551
1.000000 1.000000 1.000000
1.000000 1.000000 1.000000
1.000000 1.000000 1.000000
1.000000 1.000000 1.000000
1.000000 1.000000 1.000000
1.000000 1.000000 1.000000
1.000000 1.000000 1.000000
1.000000 1.000000 1.000000
1.000000 1.000000 1.000000
1.000000 1.000000 1.000000
1.000000 1.000000 1.000000
1.000000 1.000000 1.000000
1.000000 1.000000 1.000000
1.000000 1.000000 1.000000
1.000000 1.000000 1.000000
0.924316 0.458344 0.028259
0.970154 0.465485 0.058319
1.000000 0.465149 0.102905
1.000000 0.494232 0.176270
1.000000 0.604950 0.235992
1.000000 0.663635 0.270264
1.000000 0.713104 0.310364
1.000000 0.760956 0.362549
1.000000 0.800751 0.414978
1.000000 0.836395 0.465179
1.000000 0.867401 0.516327
1.000000 0.897705 0.574158
1.000000 0.922913 0.632843
1.000000 0.945374 0.692657
1.000000 0.964447 0.760437
1.000000 0.981140 0.838440
1.000000 0.992249 0.891296
1.000000 1.000000 1.000000
1.000000 1.000000 1.000000
1.000000 1.000000 1.000000
1.000000 1.000000 1.000000
1.000000 1.000000 1.000000
1.000000 1.000000 1.000000
1.000000 1.000000 1.000000
1.000000 1.000000 1.000000
1.000000 1.000000 1.000000
1.000000 1.000000 1.000000
1.000000 1.000000 1.000000
1.000000 1.000000 1.000000
1.000000 1.000000 1.000000
1.000000 1.000000 1.000000
1.000000 1.000000 1.000000
0.452240 0.230469 0.048889
0.509247 0.287567 0.090424
0.547607 0.359772 0.122986
0.591217 0.423981 0.155457
0.641266 0.489075 0.186279
0.687836 0.545044 0.220642
0.740051 0.607391 0.254486
0.788879 0.669861 0.285767
0.838196 0.730133 0.319916
0.899170 0.803436 0.361298
0.992096 0.943939 0.448822
1.000000 0.958923 0.510895
1.000000 0.966644 0.580872
1.000000 0.975311 0.658417
1.000000 0.981415 0.743683
1.000000 0.989471 0.830780
1.000000 0.994904 0.914246
1.000000 1.000000 1.000000
1.000000 1.000000 1.000000
1.000000 1.000000 1.000000
1.000000 1.000000 1.000000
1.000000 1.000000 1.000000
1.000000 1.000000 1.000000
1.000000 1.000000 1.000000
1.000000 1.000000 1.000000
1.000000 1.000000 1.000000
1.000000 1.000000 1.000000
1.000000 1.000000 1.000000
1.000000 1.000000 1.000000
1.000000 1.000000 1.000000
1.000000 1.000000 1.000000
1.000000 1.000000 1.000000
1.000000 0.999786 0.992981
1.000000 0.999786 0.993988
1.000000 0.999786 0.993988
1.000000 0.999786 0.993988
1.000000 0.999786 0.993988
1.000000 0.999786 0.993988
1.000000 0.999786 0.993988
1.000000 0.999786 0.993988
1.000000 0.999817 0.995026
1.000000 0.999817 0.995026
1.000000 0.999817 0.995026
1.000000 0.999817 0.995026
1.000000 0.999817 0.995026
1.000000 0.999817 0.995026
1.000000 0.999817 0.995026
1.000000 0.999817 0.995026
1.000000 0.999847 0.996033
1.000000 0.999847 0.996033
1.000000 0.999847 0.996033
1.000000 0.999847 0.996033
1.000000 0.999847 0.996033
1.000000 0.999847 0.996033
1.000000 0.999847 0.996033
1.000000 0.999878 0.997101
1.000000 0.999878 0.997101
1.000000 0.999878 0.997101
1.000000 0.999878 0.997101
1.000000 0.999878 0.997101
1.000000 0.999878 0.997101
1.000000 0.999878 0.997101
1.000000 0.999878 0.997101
1.000000 0.999908 0.998077
1.000000 0.999756 0.988739
1.000000 0.999756 0.988739
1.000000 0.999756 0.988739
1.000000 0.999756 0.989838
1.000000 0.999756 0.989838
1.000000 0.999756 0.989838
1.000000 0.999756 0.989838
1.000000 0.999756 0.989838
1.000000 0.999756 0.989838
1.000000 0.999756 0.989838
1.000000 0.999756 0.990906
1.000000 0.999756 0.990906
1.000000 0.999756 0.990906
1.000000 0.999756 0.990906
1.000000 0.999756 0.990906
1.000000 0.999756 0.990906
1.000000 0.999756 0.990906
1.000000 0.999756 0.991943
1.000000 0.999756 0.991943
1.000000 0.999756 0.991943
1.000000 0.999756 0.991943
1.000000 0.999756 0.991943
1.000000 0.999756 0.991943
1.000000 0.999756 0.991943
1.000000 0.999756 0.991943
1.000000 0.999786 0.992981
1.000000 0.999786 0.992981
1.000000 0.999786 0.992981
1.000000 0.999786 0.992981
1.000000 0.999786 0.992981
1.000000 0.999786 0.992981
1.000000 0.999786 0.992981
0.954346 0.461090 0.000000
0.954346 0.461090 0.000000
0.954346 0.461090 0.000000
0.954346 0.461090 0.000000
0.954346 0.461090 0.000000
0.954346 0.461090 0.000000
0.954346 0.461090 0.000000
0.954346 0.461090 0.000000
0.954346 0.461090 0.000000
0.954346 0.461090 0.000000
0.954346 0.461090 0.000000
0.954346 0.461090 0.000000
0.954346 0.461090 0.000000
0.954346 0.461090 0.000000
0.954346 0.461090 0.000000
0.954346 0.461090 0.000000
0.954346 0.461090 0.000000
0.954346 0.461090 0.000000
0.954346 0.461090 0.000000
0.954346 0.461090 0.000000
0.954346 0.461090 0.000000
0.954346 0.461090 0.000000
0.954346 0.461090 0.000000
0.954346 0.461090 0.000000
0.954346 0.461090 0.000000
0.954346 0.461090 0.000000
0.954346 0.461090 0.000000
0.954346 0.461090 0.000000
0.954346 0.461090 0.000000
0.954346 0.461090 0.000000
0.954346 0.461090 0.000000
0.954346 0.461090 0.000000
0.954346 0.461090 0.000000
0.954346 0.461090 0.000000
0.954346 0.461090 0.000000
0.954346 0.461090 0.000000
0.954346 0.461090 0.000000
0.954346 0.461090 0.000000
0.954346 0.461090 0.000000
0.954346 0.461090 0.000000
0.954346 0.461090 0.000000
0.954346 0.461090 0.000000
0.954346 0.461090 0.000000
0.954346 0.461090 0.000000
0.954346 0.461090 0.000000
0.954346 0.461090 0.000000
0.954346 0.461090 0.000000
0.954346 0.461090 0.000000
0.954346 0.461090 0.000000
0.954346 0.461090 0.000000
0.954346 0.461090 0.000000
0.954346 0.461090 0.000000
0.954346 0.461090 0.000000
0.954346 0.461090 0.000000
0.954346 0.461090 0.000000
0.954346 0.461090 0.000000
0.954346 0.461090 0.000000
0.954346 0.461090 0.000000
0.954346 0.461090 0.000000
0.954346 0.461090 0.000000
0.954346 0.461090 0.000000
0.954346 0.461090 0.000000
0.954346 0.461090 0.000000
0.954346 0.461090 0.000000
0.954346 0.461090 0.000000
0.954346 0.461090 0.000000
0.954346 0.461090 0.000000
0.954346 0.461090 0.000000
0.954346 0.461090 0.000000
0.954346 0.461090 0.000000
0.954346 0.461090 0.000000
0.954346 0.461090 0.000000
0.954346 0.461090 0.000000
0.954346 0.461090 0.000000
0.954346 0.461090 0.000000
0.954346 0.461090 0.000000
0.954346 0.461090 0.000000
0.954346 0.461090 0.000000
0.954346 0.461090 0.000000
0.954346 0.461090 0.000000
0.954346 0.461090 0.000000
0.954346 0.461090 0.000000
0.954346 0.461090 0.000000
0.954346 0.461090 0.000000
0.954346 0.461090 0.000000
0.954346 0.461090 0.000000
0.954346 0.461090 0.000000
0.954346 0.461090 0.000000
0.954346 0.461090 0.000000
0.954346 0.461090 0.000000
0.954346 0.461090 0.000000
0.954346 0.461090 0.000000
0.954346 0.461090 0.000000
0.954346 0.461090 0.000000
0.954346 0.461090 0.000000
0.954346 0.461090 0.000000
0.415955 0.285309 0.239868
0.415955 0.285309 0.239868
0.415955 0.285309 0.239868
0.415955 0.285309 0.239868
0.415955 0.285309 0.239868
0.415955 0.285309 0.239868
0.415955 0.285309 0.239868
0.415955 0.285309 0.239868
0.415955 0.285309 0.239868
0.415955 0.285309 0.239868
0.415955 0.285309 0.239868
0.415955 0.285309 0.239868
0.415955 0.285309 0.239868
0.415955 0.285309 0.239868
0.415955 0.285309 0.239868
0.415955 0.285309 0.239868
0.415955 0.285309 0.239868
0.415955 0.285309 0.239868
0.415955 0.285309 0.239868
0.415955 0.285309 0.239868
0.415955 0.285309 0.239868
0.415955 0.285309 0.239868
0.415955 0.285309 0.239868
0.415955 0.285309 0.239868
0.415955 0.285309 0.239868
0.415955 0.285309 0.239868
0.415955 0.285309 0.239868
0.415955 0.285309 0.239868
0.415955 0.285309 0.239868
0.415955 0.285309 0.239868
0.415955 0.285309 0.239868
0.415955 0.285309 0.239868
0.429016 0.303497 0.250488
0.442719 0.319611 0.261139
0.456085 0.337738 0.271606
0.468872 0.356476 0.282410
0.483276 0.371735 0.292511
0.496338 0.390472 0.303253
0.510681 0.405945 0.313416
0.524231 0.423004 0.320709
0.538330 0.439026 0.325684
0.552582 0.455078 0.330444
0.567291 0.469482 0.337738
0.578064 0.484100 0.342499
0.592224 0.500000 0.347443
0.606506 0.516052 0.352234
0.621094 0.530487 0.359528
0.634460 0.541382 0.364441
0.645264 0.556213 0.369110
0.659515 0.572144 0.373932
0.669373 0.581665 0.378754
0.679230 0.591309 0.383606
0.693115 0.608978 0.385956
0.703003 0.618530 0.390778
0.708923 0.628418 0.393127
0.722168 0.639465 0.398041
0.732117 0.648987 0.402832
0.741577 0.660278 0.405151
0.751343 0.669861 0.410065
0.761169 0.679565 0.414795
0.770630 0.690796 0.417053
0.780457 0.700287 0.421936
0.789886 0.711670 0.424225
0.799744 0.721283 0.429016
1.000000 0.994568 0.914001
1.000000 0.995117 0.922760
1.000000 0.995117 0.922760
1.000000 0.995789 0.930328
1.000000 0.995667 0.931580
1.000000 0.996368 0.939117
1.000000 0.996216 0.940338
1.000000 0.996887 0.947998
1.000000 0.996765 0.949188
1.000000 0.997406 0.956787
1.000000 0.997437 0.959625
1.000000 0.997955 0.965637
1.000000 0.998535 0.973358
1.000000 0.998474 0.974457
1.000000 0.999023 0.982269
1.000000 0.999512 0.991119
1.000000 0.999512 0.991119
1.000000 1.000000 1.000000
1.000000 1.000000 1.000000
1.000000 1.000000 1.000000
1.000000 1.000000 1.000000
1.000000 1.000000 1.000000
1.000000 1.000000 1.000000
1.000000 1.000000 1.000000
1.000000 1.000000 1.000000
1.000000 1.000000 1.000000
1.000000 1.000000 1.000000
1.000000 1.000000 1.000000
1.000000 1.000000 1.000000
1.000000 1.000000 1.000000
1.000000 1.000000 1.000000
1.000000 1.000000 1.000000
1.000000 1.000000 1.000000
1.000000 1.000000 1.000000
1.000000 1.000000 1.000000
1.000000 1.000000 1.000000
1.000000 1.000000 1.000000
1.000000 1.000000 1.000000
1.000000 1.000000 1.000000
1.000000 1.000000 1.000000
1.000000 1.000000 1.000000
1.000000 1.000000 1.000000
1.000000 1.000000 1.000000
1.000000 1.000000 1.000000
1.000000 1.000000 1.000000
1.000000 1.000000 1.000000
1.000000 1.000000 1.000000
1.000000 1.000000 1.000000
1.000000 1.000000 1.000000
1.000000 1.000000 1.000000
1.000000 0.999512 0.991119
1.000000 0.999023 0.982269
1.000000 0.998474 0.974457
1.000000 0.997955 0.965637
1.000000 0.997955 0.965637
1.000000 0.997406 0.956787
1.000000 0.996765 0.949188
1.000000 0.996887 0.947998
1.000000 0.996216 0.940338
1.000000 0.996368 0.939117
1.000000 0.995667 0.931580
1.000000 0.995667 0.931580
1.000000 0.995789 0.930328
1.000000 0.995117 0.922760
1.000000 0.995117 0.922760
1.000000 0.991425 0.871582
1.000000 0.984589 0.810822
1.000000 0.980682 0.755951
1.000000 0.973785 0.701019
1.000000 0.967041 0.644775
1.000000 0.958374 0.595001
1.000000 0.947815 0.552948
0.999634 0.938507 0.504761
0.965820 0.901520 0.493011
0.931610 0.866150 0.478729
0.897827 0.829041 0.467010
0.867645 0.793549 0.455200
0.833435 0.758209 0.440857
0.804688 0.725952 0.431427
0.770630 0.690796 0.417053
0.742035 0.658569 0.407562
0.712402 0.629852 0.393127
0.698517 0.612061 0.390869
0.687103 0.599152 0.383636
0.674316 0.586578 0.381165
0.659515 0.572144 0.373932
0.650208 0.560822 0.371582
0.635437 0.546539 0.364319
0.625977 0.535217 0.361938
0.611389 0.520782 0.354736
0.600494 0.506317 0.349854
0.586426 0.490234 0.344971
0.576569 0.480652 0.340149
0.562347 0.464600 0.335358
0.549164 0.453644 0.330444
0.535065 0.437561 0.325531
0.597015 0.504852 0.349792
0.587219 0.495300 0.344971
0.578064 0.484100 0.342499
0.568268 0.474396 0.337769
0.558899 0.463287 0.335266
0.549164 0.453644 0.330444
0.538330 0.439026 0.325684
0.529236 0.427887 0.323120
0.519379 0.418121 0.318359
0.506134 0.407288 0.313324
0.496338 0.390472 0.303253
0.486877 0.380127 0.296417
0.473694 0.361572 0.285797
0.464478 0.350922 0.278778
0.451202 0.332672 0.268280
0.438477 0.313965 0.257324
0.429016 0.303497 0.250488
