GDW_Y2 - CNZ/res/luts/ICG_2 - ASN01 - Cool Grading.CUBE
#Created by: Adobe Photoshop Export Color Lookup Plugin
TITLE "ICG_2 - ASN01 - Cool Grading"
#LUT size
LUT_3D_SIZE 5
#data domain
#LUT data points
DOMAIN_MIN 0.000000 0.000000 0.000000
DOMAIN_MAX 0.903226 0.903226 0.903226
0.109985 0.109985 0.109985
0.109985 0.109985 0.109985
0.109985 0.109985 0.109985
0.109985 0.109985 0.109985
0.109985 0.109985 0.109985
0.109985 0.109985 0.109985
0.109985 0.109985 0.109985
0.109985 0.109985 0.109985
0.109985 0.109985 0.109985
0.109985 0.109985 0.109985
0.109985 0.109985 0.109985
0.109985 0.109985 0.109985
0.109985 0.109985 0.109985
0.109985 0.109985 0.109985
0.109985 0.109985 0.109985
0.109985 0.109985 0.109985
0.109985 0.109985 0.109985
0.109985 0.109985 0.109985
0.109985 0.109985 0.109985
0.109985 0.109985 0.109985
0.109985 0.109985 0.109985
0.109985 0.109985 0.109985
0.109985 0.109985 0.109985
0.109985 0.109985 0.109985
0.109985 0.109985 0.109985
0.109985 0.109985 0.109985
0.109985 0.109985 0.109985
0.109985 0.109985 0.109985
0.109985 0.109985 0.109985
0.109985 0.109985 0.109985
0.109985 0.109985 0.109985
0.109985 0.109985 0.109985
0.109985 0.109985 0.109985
0.109985 0.109985 0.109985
0.109985 0.109985 0.109985
0.109985 0.109985 0.109985
0.109985 0.109985 0.109985
0.109985 0.109985 0.109985
0.109985 0.109985 0.109985
0.109985 0.109985 0.109985
0.109985 0.109985 0.109985
0.109985 0.109985 0.109985
0.109985 0.109985 0.109985
0.109985 0.109985 0.109985
0.109985 0.109985 0.109985
0.109985 0.109985 0.109985
0.109985 0.109985 0.109985
0.109985 0.109985 0.109985
0.109985 0.109985 0.109985
0.109985 0.109985 0.109985
0.109985 0.109985 0.109985
0.109985 0.109985 0.109985
0.109985 0.109985 0.109985
0.109985 0.109985 0.109985
0.109985 0.109985 0.109985
0.109985 0.109985 0.109985
0.109985 0.109985 0.109985
0.109985 0.109985 0.109985
0.109985 0.109985 0.109985
0.109985 0.109985 0.109985
0.109985 0.109985 0.109985
0.109985 0.109985 0.109985
0.109985 0.109985 0.109985
0.109985 0.109985 0.109985
0.109985 0.109985 0.109985
0.109985 0.109985 0.109985
0.109985 0.109985 0.109985
0.109985 0.109985 0.109985
0.109985 0.109985 0.109985
0.109985 0.109985 0.109985
0.109985 0.109985 0.109985
0.109985 0.109985 0.109985
0.109985 0.109985 0.109985
0.109985 0.109985 0.109985
0.109985 0.109985 0.109985
0.109985 0.109985 0.109985
0.109985 0.109985 0.109985
0.109985 0.109985 0.109985
0.109985 0.109985 0.109985
0.109985 0.109985 0.109985
0.109985 0.109985 0.109985
0.109985 0.109985 0.109985
0.109985 0.109985 0.109985
0.109985 0.109985 0.109985
0.109985 0.109985 0.109985
0.109985 0.109985 0.109985
0.109985 0.109985 0.109985
0.109985 0.109985 0.109985
0.109985 0.109985 0.109985
0.109985 0.109985 0.109985
0.109985 0.109985 0.109985
0.109985 0.109985 0.109985
0.109985 0.109985 0.109985
0.109985 0.109985 0.109985
0.109985 0.109985 0.109985
0.109985 0.109985 0.109985
0.109985 0.109985 0.109985
0.109985 0.109985 0.109985
0.109985 0.109985 0.109985
0.109985 0.109985 0.109985
0.109985 0.109985 0.109985
0.109985 0.109985 0.109985
0.109985 0.109985 0.109985
0.109985 0.109985 0.109985
0.109985 0.109985 0.109985
0.109985 0.109985 0.109985
0.109985 0.109985 0.109985
0.109985 0.109985 0.109985
0.109985 0.109985 0.109985
0.109985 0.109985 0.109985
0.109985 0.109985 0.109985
0.109985 0.109985 0.109985
0.109985 0.109985 0.109985
0.109985 0.109985 0.109985
0.109985 0.109985 0.109985
0.109985 0.109985 0.109985
0.109985 0.109985 0.109985
0.109985 0.109985 0.109985
0.109985 0.109985 0.109985
0.109985 0.109985 0.109985
0.109985 0.109985 0.109985
0.109985 0.109985 0.109985
0.109985 0.109985 0.109985
0.109985 0.109985 0.109985
0.109985 0.109985 0.109985
